EndyLab/tRNACAD/experimental_data/220519_low_conc.csv
,Time,Temperature(¡C),A1,A2,A3,A4,A5,A6,A7,A8,A9,A10,A11,A12,A13,A14,A15,A16,A17,A18,A19,A20,A21,A22,A23,A24,B1,B2,B3,B4,B5,B6,B7,B8,B9,B10,B11,B12,B13,B14,B15,B16,B17,B18,B19,B20,B21,B22,B23,B24,C1,C2,C3,C4,C5,C6,C7,C8,C9,C10,C11,C12,C13,C14,C15,C16,C17,C18,C19,C20,C21,C22,C23,C24,D1,D2,D3,D4,D5,D6,D7,D8,D9,D10,D11,D12,D13,D14,D15,D16,D17,D18,D19,D20,D21,D22,D23,D24,E1,E2,E3,E4,E5,E6,E7,E8,E9,E10,E11,E12,E13,E14,E15,E16,E17,E18,E19,E20,E21,E22,E23,E24,F1,F2,F3,F4,F5,F6,F7,F8,F9,F10,F11,F12,F13,F14,F15,F16,F17,F18,F19,F20,F21,F22,F23,F24,G1,G2,G3,G4,G5,G6,G7,G8,G9,G10,G11,G12,G13,G14,G15,G16,G17,G18,G19,G20,G21,G22,G23,G24,H1,H2,H3,H4,H5,H6,H7,H8,H9,H10,H11,H12,H13,H14,H15,H16,H17,H18,H19,H20,H21,H22,H23,H24,I1,I2,I3,I4,I5,I6,I7,I8,I9,I10,I11,I12,I13,I14,I15,I16,I17,I18,I19,I20,I21,I22,I23,I24,J1,J2,J3,J4,J5,J6,J7,J8,J9,J10,J11,J12,J13,J14,J15,J16,J17,J18,J19,J20,J21,J22,J23,J24,K1,K2,K3,K4,K5,K6,K7,K8,K9,K10,K11,K12,K13,K14,K15,K16,K17,K18,K19,K20,K21,K22,K23,K24,L1,L2,L3,L4,L5,L6,L7,L8,L9,L10,L11,L12,L13,L14,L15,L16,L17,L18,L19,L20,L21,L22,L23,L24,M1,M2,M3,M4,M5,M6,M7,M8,M9,M10,M11,M12,M13,M14,M15,M16,M17,M18,M19,M20,M21,M22,M23,M24,N1,N2,N3,N4,N5,N6,N7,N8,N9,N10,N11,N12,N13,N14,N15,N16,N17,N18,N19,N20,N21,N22,N23,N24,O1,O2,O3,O4,O5,O6,O7,O8,O9,O10,O11,O12,O13,O14,O15,O16,O17,O18,O19,O20,O21,O22,O23,O24,P1,P2,P3,P4,P5,P6,P7,P8,P9,P10,P11,P12,P13,P14,P15,P16,P17,P18,P19,P20,P21,P22,P23,P24
0,00:00:00,37.0,0.0,0.0,0.0,0.0,0.0,0.0,0.0,0.0,0.0,0.0,0.0,0.0,0.0,0.0,0.0,0.0,0.0,0.0,0.0,0.0,0.0,0.0,0.0,0.0,0.0,0.0,0.0,0.0,0.0,0.0,0.0,0.0,0.0,0.0,0.0,0.0,0.0,0.0,0.0,0.0,0.0,0.0,0.0,0.0,0.0,0.0,0.0,0.0,0.0,0.0,0.0,0.0,0.0,0.0,0.0,0.0,0.0,0.0,0.0,0.0,0.0,0.0,0.0,0.0,0.0,0.0,0.0,0.0,0.0,0.0,0.0,0.0,0.0,0.0,0.0,0.0,0.0,0.0,0.0,0.0,0.0,0.0,0.0,0.0,0.0,0.0,0.0,0.0,0.0,0.0,0.0,0.0,0.0,0.0,0.0,0.0,0.0,0.0,0.0,0.0,0.0,0.0,0.0,0.0,0.0,0.0,0.0,0.0,0.0,0.0,0.0,0.0,0.0,0.0,0.0,0.0,0.0,0.0,0.0,0.0,0.0,0.0,0.0,0.0,0.0,0.0,0.0,0.0,0.0,0.0,0.0,0.0,0.0,0.0,0.0,0.0,0.0,0.0,0.0,0.0,0.0,0.0,0.0,0.0,0.0,0.0,0.0,0.0,0.0,0.0,0.0,0.0,0.0,0.0,0.0,0.0,0.0,0.0,0.0,0.0,0.0,0.0,0.0,0.0,0.0,0.0,0.0,0.0,0.0,0.0,0.0,0.0,0.0,0.0,0.0,0.0,0.0,0.0,0.0,0.0,0.0,0.0,0.0,0.0,0.0,0.0,0.0,0.0,0.0,0.0,0.0,0.0,0.0,0.0,0.0,0.0,0.0,0.0,0.0,0.0,0.0,0.0,0.0,0.0,0.0,0.0,0.0,0.0,0.0,0.0,0.0,0.0,0.0,0.0,0.0,0.0,0.0,0.0,0.0,0.0,0.0,0.0,0.0,0.0,0.0,0.0,0.0,0.0,0.0,0.0,0.0,0.0,0.0,0.0,0.0,0.0,0.0,0.0,0.0,0.0,0.0,0.0,0.0,0.0,0.0,0.0,0.0,0.0,0.0,0.0,0.0,0.0,0.0,0.0,0.0,0.0,0.0,0.0,0.0,0.0,0.0,0.0,0.0,0.0,0.0,0.0,0.0,0.0,0.0,0.0,0.0,0.0,0.0,0.0,0.0,0.0,0.0,0.0,0.0,0.0,0.0,0.0,0.0,0.0,0.0,0.0,0.0,0.0,0.0,0.0,0.0,0.0,0.0,0.0,0.0,0.0,0.0,0.0,0.0,0.0,0.0,0.0,0.0,0.0,0.0,0.0,0.0,0.0,0.0,0.0,0.0,0.0,0.0,0.0,0.0,0.0,0.0,0.0,0.0,0.0,0.0,0.0,0.0,0.0,0.0,0.0,0.0,0.0,0.0,0.0,0.0,0.0,0.0,0.0,0.0,0.0,0.0,0.0,0.0,0.0,0.0,0.0,0.0,0.0,0.0,0.0,0.0,0.0,0.0,0.0,0.0,0.0,0.0,0.0,0.0,0.0,0.0,0.0,0.0,0.0,0.0,0.0,0.0,0.0,0.0,0.0,0.0,0.0,0.0,0.0,0.0,0.0,0.0,0.0,0.0,0.0,0.0,0.0,0.0,0.0,0.0,0.0,0.0,0.0
1,00:05:01,37.0,-57616.5,-13786.5,-31561.5,-19432.5,1556.5,-814.5,736.5,5153.5,-13517.5,-13471.5,3503.5,-40916.5,-16163.5,-218.5,14086.5,-10313.5,-10501.5,-13345.5,-2534.5,17661.5,-26523.5,-8845.5,-8980.5,-4412.5,-52000.5,-23605.5,-40850.5,-17088.5,-25450.5,-33671.5,-20400.5,-3324.5,-28766.5,-46888.5,-14264.5,-40626.5,-23041.5,-22414.5,-28597.5,-26827.5,-5580.5,-12906.5,-31152.5,8234.5,-9644.5,27551.5,-11475.5,-22049.5,-9070.5,-25038.5,175881.5,15107.5,-28054.5,57305.5,-1476.5,-28286.5,-19113.5,-16205.5,-15691.5,-49637.5,-5789.5,-24903.5,-50515.5,-27539.5,-1706.5,-14593.5,10041.5,-7577.5,7202.5,-24397.5,8321.5,-15631.5,-37810.5,4743.5,-23137.5,151374.5,-34064.5,-21621.5,43900.5,-18752.5,-15372.5,-32595.5,-20865.5,-14323.5,-4323.5,-13821.5,-28722.5,-13082.5,-15108.5,-20614.5,-4709.5,-18717.5,-22512.5,23155.5,-1006.5,-30041.5,-53510.5,-32153.5,-5844.5,-14617.5,137260.5,-21645.5,-7359.5,49673.5,-29654.5,-39162.5,-9062.5,-43884.5,5053.5,-38392.5,-21170.5,-22144.5,-24176.5,-16002.5,-25330.5,-21071.5,-33288.5,-45557.5,-50285.5,-21049.5,-52430.5,-4141.5,156902.5,-22843.5,-26080.5,-56473.5,-34987.5,-2806.5,-18048.5,-42564.5,-14018.5,-23802.5,-14036.5,-21238.5,-14956.5,-5714.5,-9404.5,-22268.5,-45402.5,-132.5,-8349.5,-30664.5,-12099.5,-20370.5,-24587.5,-29400.5,-3384.5,154875.5,-26980.5,-32709.5,-36641.5,-36095.5,-34718.5,-25410.5,-29244.5,-21820.5,-15416.5,-21646.5,-6310.5,-17063.5,-3393.5,-17533.5,-31266.5,-180.5,-10471.5,-46217.5,-18006.5,-31084.5,-34110.5,-47451.5,-324.5,-16906.5,98112.5,-41831.5,-29441.5,-26285.5,-2221.5,-34534.5,-30351.5,-61498.5,-27245.5,-33256.5,-58693.5,-22035.5,-40833.5,-3598.5,-10789.5,-15458.5,-15699.5,-33785.5,-31435.5,-54267.5,-25723.5,-30702.5,139311.5,-13263.5,-45554.5,62450.5,-15252.5,-27078.5,-23167.5,-40225.5,-33310.5,-39382.5,-12834.5,-27807.5,-28730.5,-20715.5,-51920.5,-13162.5,-61552.5,-31616.5,-36770.5,-54018.5,-49483.5,-62079.5,-42521.5,-17279.5,-14354.5,113626.5,-57646.5,-38156.5,30210.5,-28195.5,-27102.5,-51396.5,-31755.5,-11374.5,-18378.5,-32397.5,-4591.5,-21404.5,-11143.5,-12677.5,-46231.5,-13520.5,-30922.5,6646.5,-28507.5,-8861.5,-3712.5,-32432.5,-27621.5,-26662.5,123702.5,-12047.5,-53445.5,-44871.5,-7332.5,16451.5,-25932.5,-22266.5,-739.5,-23879.5,-12462.5,-45925.5,-12057.5,-17213.5,-2167.5,-27402.5,-49495.5,-36781.5,-16403.5,8781.5,-43236.5,-33317.5,-35684.5,-38695.5,-21172.5,-21473.5,-12307.5,-26870.5,-30554.5,-17058.5,-35154.5,-26243.5,-31636.5,-15106.5,-19738.5,-24429.5,-8960.5,-2525.5,-23961.5,-20585.5,-13742.5,-29263.5,-28649.5,-155.5,-15869.5,-730.5,-22317.5,-27803.5,-24222.5,-19053.5,-24289.5,-15047.5,-24138.5,-37017.5,-9171.5,-30296.5,-32928.5,-31540.5,-29239.5,-31976.5,15214.5,-30806.5,-47858.5,-13828.5,-19533.5,1731.5,-40028.5,-38991.5,-22605.5,-27151.5,-38008.5,4498.5,-41726.5,-25170.5,-36149.5,-51685.5,-36056.5,-11700.5,-30333.5,-27546.5,-40321.5,-17399.5,-14148.5,-4264.5,-25769.5,-11474.5,-6054.5,-10945.5,-25330.5,-21735.5,-29152.5,-26297.5,-21722.5,-25617.5,-33291.5,-17190.5,2858.5,-27129.5,-15843.5,-39214.5,-20675.5,-20077.5,-21001.5,7626.5,-27045.5,-34248.5,-12671.5,-32938.5,-51538.5,-20563.5,15933.5,-4170.5,-53350.5,13974.5,-14745.5,-24794.5,-25945.5,-50629.5,-48576.5,-35982.5,-29603.5,-35796.5,-100603.5,-41803.5,-15781.5,-17490.5,-10627.5,-20771.5,-5098.5,-23036.5,-42817.5,-25268.5,-29953.5,-13344.5,-20271.5,-46374.5,-32206.5,2933.5,-2714.5,-8183.5
2,00:10:02,37.0,-30074.75,-16336.75,1059.25,-35884.75,-5088.75,28083.25,4236.25,-1999.75,-124.75,6954.25,4444.25,6350.25,5496.25,11696.25,-4150.75,334.25,6026.25,-1297.75,-327.75,20946.25,2149.25,16578.25,15166.25,-57183.75,-51767.75,-22138.75,-18456.75,-5158.75,-25353.75,-40611.75,-34040.75,-21447.75,-44531.75,-33852.75,-33716.75,-19715.75,-28543.75,-12762.75,-15842.75,-6312.75,28588.25,-20165.75,-11547.75,6053.25,7144.25,23885.25,-5781.75,-13673.75,-8606.75,-44448.75,301268.25,-63124.75,-8676.75,145388.25,-19933.75,-13406.75,-20954.75,2777.25,-25578.75,-15462.75,-3861.75,-15768.75,-38562.75,-7118.75,-10707.75,-6307.75,-14074.75,-5482.75,-12864.75,-11399.75,-6703.75,-34899.75,-95250.75,-39306.75,-27165.75,267992.25,-21599.75,-23774.75,123267.25,-20124.75,-42645.75,-37976.75,-23538.75,-5689.75,-3809.75,-23679.75,-23614.75,-24241.75,-83.75,-26635.75,-18495.75,-14948.75,-6046.75,32399.25,-19000.75,-33409.75,-57177.75,-8082.75,12082.25,-24572.75,244751.25,-39310.75,-1372.75,88160.25,-4561.75,-44269.75,-14739.75,-41305.75,1088.25,-16364.75,-30660.75,-13749.75,-37359.75,-3393.75,-49315.75,-21598.75,-40351.75,-25001.75,-37414.75,-16791.75,-40218.75,-26272.75,241744.25,-44018.75,-19931.75,-83099.75,-16524.75,-18911.75,-16455.75,-29409.75,-31053.75,-38616.75,7529.25,-23974.75,-17796.75,-34567.75,-18268.75,-29514.75,-16069.75,-14265.75,-20166.75,-38786.75,407.25,-14180.75,-31382.75,-21275.75,-638.75,283014.25,-29244.75,-28716.75,-36854.75,-46271.75,-32923.75,-32559.75,-43266.75,-18526.75,-24318.75,-24588.75,-27299.75,-25120.75,-5453.75,-6250.75,-32179.75,-3900.75,-17567.75,-40368.75,-25310.75,-9340.75,-36957.75,-57417.75,-40654.75,-61307.75,196980.25,-38170.75,-39984.75,-47613.75,-24883.75,-22206.75,-38648.75,-31862.75,-10462.75,-22323.75,-45274.75,-40936.75,-57712.75,-19772.75,-26123.75,-26547.75,-14015.75,-34291.75,-42981.75,-35282.75,-10424.75,-11706.75,280811.25,-28149.75,-38593.75,163481.25,-23089.75,-40030.75,-28956.75,-44842.75,-58489.75,-61634.75,-32120.75,-30582.75,-9052.75,-39047.75,-49162.75,-37915.75,-45623.75,-10240.75,-41386.75,-24856.75,-18628.75,-67597.75,-30537.75,-19245.75,-29569.75,257271.25,-49306.75,-47832.75,65714.25,-33366.75,-27820.75,-25170.75,-23085.75,-35933.75,-22674.75,-19550.75,-17840.75,-13600.75,17344.25,-28130.75,-16333.75,-14354.75,-18463.75,-7404.75,-14637.75,-45422.75,-31272.75,-34748.75,-39320.75,-22653.75,326359.25,-6511.75,-51218.75,-37731.75,-17294.75,5448.25,-17064.75,-24669.75,13363.25,-33514.75,-21574.75,-33995.75,-30670.75,-33205.75,-14939.75,-38889.75,-60390.75,-33724.75,-21503.75,-21913.75,-27319.75,-23822.75,-26787.75,-33975.75,-23733.75,-36113.75,-16784.75,-14283.75,-26192.75,-32713.75,-34730.75,-22534.75,-25780.75,-24395.75,-29796.75,-19310.75,-26862.75,-13884.75,-51609.75,-13990.75,-17696.75,-6503.75,-20192.75,-37715.75,-50919.75,-26727.75,-29186.75,-27572.75,-30580.75,-37773.75,-16667.75,-15654.75,-26310.75,-22682.75,-18048.75,-27722.75,-11523.75,-27728.75,-10974.75,-50294.75,15862.25,-26885.75,-25359.75,-13808.75,2729.25,-26888.75,-34456.75,-72583.75,-25309.75,-60805.75,-65825.75,5233.25,-65529.75,-45220.75,-14106.75,-53400.75,-26388.75,-21058.75,-10525.75,-27451.75,-39123.75,-31195.75,-44497.75,8223.25,14051.25,315.25,-20396.75,-7210.75,-13249.75,-10085.75,-48757.75,-19471.75,-31320.75,-13613.75,-28179.75,-25357.75,-7294.75,-27511.75,-33686.75,-36216.75,-21373.75,-10686.75,-10481.75,-31042.75,-27432.75,-30751.75,-7712.75,-10981.75,-31535.75,-15256.75,-16673.75,-8223.75,-38032.75,13415.25,-54099.75,-22828.75,-36104.75,-57263.75,-37089.75,-43075.75,-4930.75,-12500.75,-88022.75,-32020.75,-23937.75,-37506.75,-12431.75,-32590.75,-17243.75,-7718.75,-10834.75,-30125.75,-10570.75,-13337.75,10445.25,-21300.75,-46215.75,16547.25,-13325.75,-38064.75
3,00:15:03,37.0,2125.25,6401.25,4017.25,14692.25,20764.25,38993.25,35546.25,15461.25,-2600.75,14148.25,32803.25,22837.25,14395.25,71401.25,31569.25,16587.25,41445.25,34790.25,53248.25,57937.25,8940.25,61670.25,39424.25,-41690.75,-12287.75,15999.25,-24013.75,8877.25,7084.25,-9736.75,301.25,7035.25,-13281.75,-10746.75,3638.25,10436.25,15694.25,11262.25,-12289.75,16592.25,48952.25,10914.25,9169.25,40460.25,27096.25,38997.25,16783.25,-26213.75,-43672.75,-15237.75,343289.25,-32183.75,-1156.75,231627.25,-486.75,-7757.75,9482.25,34939.25,3116.25,5319.25,24686.25,-3772.75,7810.25,20354.25,14256.25,-856.75,17516.25,1063.25,15623.25,-74881.75,19101.25,-39865.75,-63932.75,6486.25,-62622.75,343130.25,-15588.75,-14272.75,198894.25,1919.25,-20266.75,-35650.75,-9630.75,27791.25,16952.25,3103.25,-29574.75,8171.25,-5378.75,-1432.75,14178.25,-13737.75,9595.25,33231.25,10869.25,-13564.75,-45980.75,621.25,7745.25,-42888.75,355069.25,4296.25,23935.25,163009.25,7584.25,-13092.75,12586.25,-1310.75,20962.25,7180.25,-25755.75,-4980.75,-2244.75,2217.25,-27447.75,-3006.75,-16741.75,-79894.75,-48159.75,-10984.75,-28429.75,-41349.75,330415.25,-33160.75,-32377.75,-47029.75,-7826.75,-11038.75,-25433.75,-17634.75,-16286.75,-36844.75,13929.25,-9974.75,-18788.75,7198.25,-2945.75,-18698.75,-15030.75,17298.25,-12087.75,-27475.75,-2815.75,-36854.75,-28687.75,-15032.75,9311.25,343561.25,-13727.75,-36754.75,-25632.75,-19257.75,-5565.75,-7072.75,-22205.75,-686.75,13360.25,-30152.75,9705.25,-4368.75,23260.25,5341.25,-37112.75,-12693.75,-8590.75,-26108.75,-15146.75,-11851.75,-8626.75,-42142.75,-38972.75,-10102.75,267708.25,-25167.75,-46060.75,-46223.75,-5735.75,2782.25,-14102.75,-15625.75,-13702.75,-30526.75,-20498.75,-14724.75,-24753.75,4160.25,-12085.75,602.25,5284.25,5560.25,-32182.75,-35148.75,6386.25,-32613.75,495550.25,-19569.75,-43519.75,191374.25,-21112.75,-24126.75,-25534.75,-26862.75,-37355.75,-24470.75,-22151.75,3167.25,2560.25,1201.25,-19513.75,-3568.75,-23723.75,-757.75,-15329.75,-54367.75,-66329.75,-25521.75,-31159.75,-10704.75,-27942.75,481702.25,-30851.75,-10255.75,127810.25,-27836.75,-14721.75,-6933.75,-8706.75,-32305.75,-19505.75,-20756.75,-12171.75,-22496.75,12854.25,7392.25,378.25,-12104.75,5207.25,6693.25,-53349.75,-13831.75,-13471.75,-50028.75,-27360.75,-43311.75,565803.25,8711.25,-34170.75,-18607.75,15494.25,2214.25,-4937.75,6012.25,9747.25,-9816.75,-13408.75,-33906.75,-4094.75,-17224.75,13429.25,-21221.75,-10121.75,-44471.75,-23239.75,-45917.75,-7676.75,-16509.75,-18027.75,-19146.75,-46099.75,-5279.75,5353.25,-6242.75,-42066.75,-11945.75,-30564.75,11692.25,-3620.75,-18052.75,-42131.75,-532.75,-9893.75,19298.25,-5985.75,1029.25,10235.25,-37028.75,-12943.75,-18778.75,-15804.75,5151.25,-14545.75,12159.25,-8256.75,-1102.75,-9214.75,-15689.75,-43410.75,-19428.75,-16728.75,-21064.75,3658.25,-20809.75,-11907.75,2874.25,21814.25,-34335.75,-19498.75,8242.25,1891.25,-1427.75,-51920.75,-62949.75,-29745.75,-52661.75,-33953.75,7301.25,-22601.75,-6968.75,15933.25,-36145.75,-15883.75,-8205.75,-5516.75,-25641.75,-15333.75,-28874.75,-10219.75,11686.25,4156.25,-7788.75,-2560.75,-7929.75,3845.25,-40523.75,-13057.75,-15673.75,-12748.75,-2634.75,3960.25,-13425.75,-5870.75,-16869.75,-30914.75,-9025.75,10987.25,22187.25,-11242.75,7272.25,23444.25,-13055.75,28300.25,-9075.75,11912.25,14004.25,26375.25,-19257.75,-35464.75,-35693.75,-42947.75,-16292.75,-19549.75,-58609.75,-27784.75,-23111.75,-11793.75,1061.25,-69312.75,-36463.75,-21437.75,-6423.75,26513.25,-34987.75,14251.25,-19992.75,7762.25,-6009.75,-3795.75,30553.25,16439.25,-7619.75,-64395.75,-13693.75,-16789.75,1067.25
4,00:20:05,37.0,44372.5,111925.5,58154.5,72235.5,110881.5,96773.5,92265.5,79536.5,80337.5,92172.5,125704.5,91005.5,93643.5,109930.5,108715.5,126218.5,116042.5,90512.5,114237.5,100151.5,101681.5,114968.5,38603.5,30805.5,12159.5,69172.5,13510.5,86262.5,78654.5,43184.5,87892.5,67345.5,60506.5,51939.5,76054.5,72304.5,89107.5,86465.5,81102.5,52968.5,100478.5,81765.5,57372.5,121836.5,111958.5,7347.5,-27543.5,14700.5,25717.5,35141.5,454167.5,41717.5,54530.5,331121.5,76504.5,81817.5,93549.5,90445.5,94890.5,87320.5,86081.5,86465.5,60471.5,79385.5,102686.5,93130.5,84196.5,82504.5,50428.5,10365.5,9830.5,38077.5,9462.5,42422.5,9568.5,503824.5,68086.5,69820.5,268290.5,75528.5,72722.5,49439.5,67608.5,60934.5,85756.5,58626.5,36479.5,62366.5,76088.5,87222.5,78133.5,60569.5,88781.5,95946.5,51706.5,26742.5,16592.5,39164.5,124886.5,36359.5,507504.5,48292.5,64526.5,258554.5,60794.5,52748.5,94952.5,52818.5,85909.5,75044.5,34900.5,82693.5,53054.5,90929.5,69437.5,78232.5,49597.5,14496.5,21926.5,61510.5,43673.5,20262.5,471599.5,24249.5,53665.5,-1753.5,61340.5,52623.5,52595.5,46618.5,48123.5,56598.5,70900.5,89517.5,67507.5,84734.5,61904.5,61715.5,59660.5,83610.5,71745.5,35676.5,81122.5,60356.5,56424.5,41825.5,34532.5,551863.5,53720.5,51968.5,31184.5,43129.5,38772.5,63442.5,65760.5,48073.5,54238.5,77107.5,72955.5,70644.5,79704.5,85601.5,40875.5,70976.5,74566.5,49590.5,42027.5,27153.5,3597.5,27806.5,21406.5,14183.5,391742.5,38012.5,41859.5,29155.5,81251.5,60283.5,48764.5,41036.5,43322.5,58724.5,40028.5,61829.5,42778.5,69826.5,46717.5,56790.5,87241.5,27143.5,25024.5,20624.5,54952.5,8650.5,820605.5,41905.5,37327.5,294474.5,49806.5,85595.5,6163.5,45826.5,43332.5,39884.5,56846.5,60700.5,71268.5,73895.5,73567.5,57956.5,26282.5,65847.5,70559.5,-1693.5,38811.5,7536.5,43250.5,60385.5,45190.5,774524.5,28853.5,40898.5,233211.5,40565.5,46765.5,55025.5,79252.5,16362.5,46478.5,45215.5,61322.5,53463.5,88311.5,67091.5,44694.5,70167.5,81315.5,68710.5,32310.5,27939.5,54706.5,1484.5,61990.5,56841.5,921947.5,58321.5,24036.5,31569.5,58722.5,97251.5,57042.5,55878.5,62044.5,63165.5,61558.5,44113.5,52540.5,49458.5,86191.5,61391.5,42863.5,35242.5,44299.5,40460.5,68905.5,53953.5,38761.5,47477.5,41822.5,63585.5,60811.5,59043.5,32786.5,65099.5,56322.5,56031.5,53754.5,81767.5,39082.5,27204.5,41020.5,87266.5,41533.5,48492.5,63341.5,37155.5,21806.5,31805.5,33190.5,69876.5,53141.5,55645.5,74729.5,57814.5,59548.5,73296.5,50821.5,75570.5,75309.5,48121.5,62115.5,66211.5,59485.5,60388.5,86611.5,62973.5,56883.5,87673.5,83064.5,28757.5,13446.5,9131.5,23569.5,4693.5,8872.5,73381.5,53768.5,36336.5,77487.5,39530.5,53798.5,76086.5,55767.5,48105.5,58111.5,46536.5,34702.5,81797.5,65998.5,69642.5,81250.5,70965.5,61335.5,32827.5,46664.5,41995.5,89031.5,36433.5,30394.5,48882.5,72618.5,55965.5,36814.5,44577.5,61104.5,66811.5,77239.5,72405.5,69271.5,87694.5,84197.5,49932.5,42084.5,67572.5,100747.5,30887.5,30674.5,38050.5,35229.5,38026.5,31931.5,17761.5,17414.5,-4122.5,49683.5,67259.5,-8043.5,56484.5,53538.5,67161.5,84975.5,56182.5,58608.5,79440.5,81739.5,47076.5,62769.5,80909.5,91996.5,32410.5,14617.5,64620.5,63292.5,54755.5
5,00:25:06,37.0,74401.5,89977.5,73746.5,81139.5,126418.5,116875.5,121801.5,92838.5,72388.5,92704.5,107476.5,111436.5,93728.5,103162.5,132459.5,100221.5,120653.5,115172.5,155106.5,130389.5,100304.5,100245.5,67830.5,32395.5,10202.5,66920.5,37528.5,94118.5,80105.5,40948.5,93181.5,57891.5,74837.5,36473.5,65681.5,74967.5,88277.5,67189.5,89728.5,65745.5,131292.5,84028.5,74494.5,91151.5,91832.5,9870.5,-33203.5,29563.5,49722.5,41280.5,544003.5,53916.5,62773.5,323830.5,76468.5,95117.5,90923.5,77080.5,84590.5,80472.5,89005.5,71707.5,86003.5,64190.5,87713.5,106270.5,92793.5,91724.5,64144.5,4078.5,19254.5,14926.5,21644.5,33518.5,8772.5,505261.5,54270.5,63214.5,315780.5,75352.5,68737.5,66790.5,54865.5,72059.5,94983.5,68389.5,56333.5,100448.5,52813.5,80012.5,87045.5,56766.5,73936.5,115980.5,53368.5,19522.5,29522.5,40501.5,131804.5,25891.5,532859.5,64886.5,93869.5,286363.5,72197.5,50135.5,106640.5,60831.5,80522.5,84961.5,64658.5,71613.5,52245.5,85505.5,65179.5,78939.5,49882.5,24096.5,36894.5,40296.5,52416.5,26293.5,547484.5,46882.5,60335.5,-3260.5,61661.5,56308.5,74843.5,77402.5,52262.5,56003.5,78791.5,67976.5,53535.5,74213.5,87921.5,65226.5,75857.5,79158.5,79558.5,10006.5,96334.5,65520.5,16079.5,34131.5,45697.5,603007.5,79537.5,62155.5,30899.5,57687.5,61885.5,59600.5,54448.5,66856.5,52124.5,90305.5,71935.5,59898.5,66058.5,75019.5,41237.5,67645.5,73053.5,53054.5,25688.5,16713.5,13896.5,48297.5,20680.5,38158.5,466556.5,22173.5,33688.5,24663.5,43289.5,80981.5,57096.5,53019.5,60508.5,41052.5,55687.5,46004.5,52847.5,78663.5,70277.5,84737.5,37683.5,22605.5,18587.5,23885.5,65751.5,26960.5,1125545.5,50827.5,30341.5,361831.5,52691.5,61064.5,51430.5,50466.5,59529.5,75649.5,49156.5,74402.5,74101.5,76218.5,57512.5,91259.5,28140.5,56118.5,57937.5,32237.5,5968.5,1613.5,53203.5,48325.5,24080.5,1035800.5,34988.5,43890.5,261621.5,41347.5,68689.5,72007.5,65483.5,45035.5,69251.5,53413.5,67850.5,64521.5,69205.5,78312.5,51909.5,63485.5,62847.5,33866.5,16008.5,21194.5,61637.5,22365.5,48319.5,44319.5,1201620.5,67974.5,43220.5,24136.5,70117.5,60722.5,46300.5,52233.5,76148.5,60940.5,41464.5,48252.5,88517.5,52422.5,68913.5,74314.5,52385.5,20556.5,5141.5,31972.5,55586.5,53748.5,35105.5,48127.5,30034.5,56413.5,58700.5,63810.5,30203.5,68982.5,70526.5,56882.5,42966.5,34067.5,38691.5,50715.5,48485.5,78116.5,57374.5,37129.5,25776.5,28899.5,6719.5,13720.5,32501.5,71973.5,16982.5,34130.5,46703.5,51677.5,52418.5,67686.5,48653.5,64177.5,79301.5,24506.5,64738.5,58738.5,67348.5,51705.5,104317.5,40367.5,44081.5,70197.5,69056.5,29212.5,-890.5,15167.5,27140.5,8917.5,-5163.5,64874.5,34052.5,59989.5,72305.5,28977.5,63036.5,58138.5,48882.5,72162.5,38977.5,58260.5,56861.5,64561.5,76353.5,65089.5,79501.5,62737.5,80036.5,46052.5,44100.5,76500.5,16417.5,23767.5,41963.5,76780.5,79102.5,55886.5,60766.5,36875.5,89823.5,63337.5,52102.5,41035.5,69826.5,69251.5,98451.5,67536.5,61037.5,79117.5,87877.5,42924.5,34249.5,33155.5,28298.5,49943.5,22194.5,-9369.5,24693.5,-18207.5,46685.5,50681.5,-17162.5,36295.5,51480.5,41744.5,65735.5,70012.5,46877.5,59908.5,63778.5,53437.5,51334.5,82933.5,75444.5,58274.5,30038.5,51793.5,74391.5,49547.5
6,00:30:07,37.0,57684.5,64225.5,81465.5,83913.5,100995.5,117237.5,132389.5,83737.5,78653.5,116113.5,107870.5,98329.5,91437.5,110708.5,126939.5,130344.5,128845.5,128830.5,144075.5,124835.5,54245.5,83881.5,66698.5,38974.5,6696.5,68807.5,18347.5,92257.5,95724.5,76333.5,94218.5,50784.5,69799.5,56268.5,66311.5,61820.5,95074.5,73559.5,92635.5,98440.5,116681.5,108296.5,96227.5,140202.5,84214.5,21092.5,-39663.5,33814.5,42488.5,31481.5,601673.5,54918.5,78935.5,338634.5,82746.5,86274.5,77506.5,76242.5,94334.5,63296.5,87308.5,71200.5,69688.5,88087.5,102819.5,103159.5,86234.5,94376.5,54900.5,-14624.5,33195.5,23970.5,-6159.5,59542.5,34093.5,577377.5,53198.5,58185.5,340350.5,64753.5,68528.5,56068.5,79717.5,77772.5,57432.5,83647.5,62701.5,82627.5,87100.5,79098.5,99468.5,85817.5,99711.5,84406.5,50079.5,12675.5,18858.5,46908.5,150582.5,45097.5,563239.5,24283.5,94178.5,310595.5,76525.5,40666.5,83983.5,68222.5,67704.5,78377.5,65726.5,70894.5,67704.5,95533.5,54588.5,102664.5,73479.5,26270.5,30952.5,38544.5,69326.5,26136.5,572670.5,33375.5,35416.5,-15755.5,79711.5,46007.5,53352.5,50387.5,53692.5,61884.5,89860.5,94586.5,60803.5,79745.5,103563.5,86284.5,63955.5,106432.5,89756.5,20637.5,75749.5,67139.5,6618.5,6674.5,29507.5,631482.5,75968.5,68164.5,34789.5,40955.5,51762.5,65671.5,64796.5,59609.5,63579.5,75196.5,82317.5,76411.5,93290.5,83693.5,47969.5,70623.5,75001.5,25180.5,10725.5,3583.5,15238.5,28515.5,11608.5,15645.5,508156.5,38074.5,36903.5,27169.5,34173.5,60287.5,39386.5,57986.5,69063.5,58876.5,49776.5,61863.5,35541.5,79375.5,53358.5,73417.5,28445.5,20856.5,44009.5,25924.5,60534.5,31705.5,1472809.5,21858.5,20154.5,404437.5,39919.5,73023.5,39572.5,64117.5,57422.5,54342.5,53724.5,108276.5,57704.5,64680.5,48772.5,79512.5,45704.5,60129.5,66555.5,10578.5,5141.5,24855.5,-5613.5,57885.5,38295.5,1344285.5,29574.5,44314.5,297497.5,59994.5,41561.5,57649.5,69789.5,73736.5,89034.5,71100.5,69138.5,65729.5,65038.5,79778.5,92612.5,66524.5,68457.5,34976.5,14281.5,36850.5,32653.5,9880.5,77906.5,66377.5,1552607.5,73825.5,60988.5,38875.5,50684.5,101319.5,46110.5,58145.5,89371.5,58713.5,67162.5,60375.5,77911.5,46618.5,54131.5,80283.5,46646.5,7713.5,39095.5,38715.5,56222.5,64690.5,29970.5,45705.5,56931.5,59673.5,57379.5,49202.5,26174.5,58473.5,52132.5,93959.5,73197.5,62872.5,46202.5,51005.5,74581.5,81035.5,43204.5,67418.5,36670.5,39977.5,13665.5,38855.5,42872.5,71409.5,22977.5,60643.5,79513.5,96132.5,73935.5,62432.5,40446.5,58606.5,83099.5,75969.5,69745.5,61575.5,58122.5,57490.5,111905.5,62175.5,60800.5,84115.5,73941.5,37932.5,16346.5,30509.5,13325.5,23379.5,-5717.5,64597.5,61058.5,53198.5,100178.5,31293.5,52294.5,59029.5,66648.5,55261.5,56192.5,60027.5,83772.5,69167.5,70350.5,59395.5,95623.5,70826.5,68342.5,45702.5,50532.5,61913.5,16427.5,50997.5,48057.5,74117.5,68418.5,69945.5,66611.5,46814.5,98499.5,80757.5,78092.5,84345.5,84967.5,83860.5,69071.5,81468.5,69814.5,79893.5,106271.5,41855.5,42474.5,35763.5,48539.5,62824.5,36715.5,17545.5,6481.5,25946.5,70773.5,71131.5,-4745.5,57323.5,60975.5,72002.5,92516.5,70762.5,97727.5,84274.5,64227.5,76353.5,83223.5,110692.5,107439.5,59464.5,49348.5,59559.5,65685.5,81180.5
7,00:35:08,37.0,48761.25,62641.25,90122.25,70708.25,101061.25,100510.25,92151.25,106645.25,90615.25,127633.25,122649.25,101164.25,100606.25,114004.25,118179.25,109123.25,102656.25,78087.25,146421.25,133213.25,69545.25,69765.25,80504.25,30717.25,-6642.75,64575.25,11147.25,62752.25,67636.25,84313.25,66311.25,70259.25,72026.25,57954.25,81162.25,74212.25,80035.25,108605.25,58811.25,72092.25,136057.25,109575.25,92848.25,106578.25,88527.25,30551.25,-37655.75,55289.25,39660.25,32481.25,651945.25,32475.25,69610.25,398746.25,57415.25,84408.25,89713.25,56985.25,79736.25,72813.25,94208.25,94363.25,59848.25,86611.25,102851.25,93212.25,86730.25,103599.25,62064.25,-11021.75,18126.25,18379.25,26522.25,25880.25,38080.25,652096.25,19987.25,50446.25,379817.25,94654.25,62745.25,38634.25,67309.25,77297.25,54574.25,82055.25,66442.25,79759.25,86936.25,100223.25,104089.25,107530.25,79703.25,73298.25,38102.25,61982.25,-11526.75,29363.25,173372.25,45515.25,612466.25,19247.25,68082.25,333915.25,76754.25,50504.25,91041.25,46034.25,93652.25,69230.25,71648.25,78081.25,51641.25,89265.25,68038.25,79335.25,58187.25,28672.25,36820.25,23403.25,-9790.75,24718.25,620700.25,55739.25,140.25,14556.25,78628.25,49061.25,74329.25,59390.25,52716.25,62315.25,62973.25,87474.25,72659.25,81585.25,83523.25,48606.25,78861.25,96706.25,77391.25,25599.25,39168.25,28979.25,-13761.75,37350.25,37202.25,673899.25,65783.25,66168.25,24887.25,40712.25,58815.25,52831.25,61226.25,44159.25,67205.25,55848.25,79980.25,57408.25,105169.25,83670.25,28954.25,105123.25,44665.25,3397.25,38768.25,30800.25,4939.25,14219.25,30369.25,7955.25,561103.25,7256.25,35069.25,12960.25,12733.25,58963.25,74402.25,37582.25,46964.25,58047.25,65119.25,35660.25,38673.25,84695.25,81089.25,67938.25,51538.25,31912.25,16323.25,10740.25,41067.25,20795.25,1799207.25,28232.25,17083.25,466888.25,49896.25,37232.25,23244.25,48446.25,18169.25,38920.25,67615.25,71102.25,73321.25,74150.25,48675.25,84312.25,30698.25,86969.25,40258.25,-11414.75,23612.25,21769.25,4051.25,77572.25,26204.25,1633137.25,14401.25,65744.25,324953.25,47049.25,53274.25,43407.25,46500.25,44813.25,45947.25,43737.25,52830.25,37457.25,88171.25,84922.25,51928.25,57592.25,16988.25,35283.25,36084.25,33783.25,43984.25,12595.25,61132.25,45907.25,1908493.25,74026.25,43068.25,51581.25,77944.25,90497.25,47268.25,67946.25,72298.25,46904.25,67981.25,65978.25,61225.25,87130.25,79934.25,70571.25,42030.25,39948.25,7999.25,7862.25,18715.25,54936.25,29918.25,23369.25,28551.25,61855.25,64061.25,74246.25,40199.25,73642.25,64968.25,69862.25,22563.25,71177.25,57569.25,35590.25,62986.25,99060.25,60924.25,94641.25,22804.25,37419.25,32410.25,37215.25,43528.25,52976.25,10145.25,42935.25,61458.25,68619.25,44883.25,90255.25,69168.25,53216.25,89672.25,66298.25,73906.25,44940.25,52767.25,55919.25,92999.25,58755.25,101561.25,91954.25,84007.25,30461.25,-852.75,21405.25,16280.25,7809.25,14441.25,53370.25,31112.25,61582.25,67339.25,25711.25,75502.25,83683.25,66172.25,60031.25,30244.25,42500.25,62222.25,67645.25,82643.25,77222.25,74693.25,35863.25,57607.25,46163.25,42571.25,51234.25,26610.25,38822.25,42755.25,39764.25,91700.25,59140.25,40223.25,61170.25,82896.25,70324.25,66114.25,70359.25,96313.25,78712.25,79577.25,67376.25,59633.25,87201.25,83812.25,30652.25,13723.25,44034.25,24763.25,58932.25,26046.25,-15073.75,25026.25,15879.25,78052.25,56281.25,6376.25,24524.25,42369.25,69381.25,81038.25,55812.25,72733.25,84838.25,69046.25,61917.25,59317.25,80316.25,121870.25,63417.25,30319.25,70034.25,75750.25,58995.25
8,00:40:10,37.0,58686.75,77038.75,100581.75,101351.75,105989.75,146978.75,143675.75,125427.75,94427.75,107486.75,120079.75,123138.75,113224.75,157008.75,132583.75,124710.75,131858.75,125268.75,143212.75,94792.75,65709.75,106438.75,59260.75,70563.75,5497.75,38367.75,26271.75,71859.75,85474.75,59342.75,89514.75,67775.75,82794.75,69480.75,68442.75,101441.75,100706.75,89258.75,53059.75,82665.75,118861.75,98008.75,57459.75,130370.75,84980.75,38549.75,-42710.25,68705.75,65541.75,39356.75,753513.75,57943.75,56783.75,421538.75,94878.75,102576.75,111607.75,84455.75,85989.75,93829.75,114344.75,101258.75,91553.75,106318.75,123597.75,96673.75,120689.75,114568.75,31809.75,-179.25,4339.75,44986.75,41666.75,44101.75,12478.75,704596.75,28701.75,67770.75,391393.75,99215.75,71920.75,66522.75,76913.75,97353.75,71015.75,106520.75,85975.75,93425.75,107337.75,77940.75,114923.75,95847.75,69502.75,99815.75,66213.75,29060.75,-7002.25,46211.75,187382.75,37058.75,687849.75,51532.75,105418.75,357870.75,73244.75,59629.75,113645.75,93693.75,108921.75,61518.75,57839.75,73504.75,71205.75,115641.75,80216.75,82081.75,68306.75,12074.75,35623.75,56931.75,17884.75,47341.75,655687.75,14378.75,29545.75,-7498.25,68239.75,60246.75,63231.75,78689.75,90933.75,71553.75,97799.75,92545.75,78476.75,83408.75,105028.75,67403.75,85748.75,98180.75,66457.75,35785.75,38642.75,53682.75,13688.75,29189.75,48388.75,725965.75,86194.75,36127.75,44137.75,82362.75,62047.75,88456.75,59587.75,74024.75,45982.75,73224.75,89399.75,81553.75,81218.75,85708.75,62290.75,109971.75,60656.75,27877.75,44310.75,14895.75,7171.75,25816.75,29015.75,39201.75,639932.75,32134.75,17881.75,-5594.25,4075.75,98602.75,66961.75,59584.75,58594.75,68520.75,50495.75,78433.75,41573.75,88955.75,63234.75,75856.75,50995.75,31127.75,23166.75,41690.75,65432.75,8554.75,2197635.75,39930.75,40359.75,517350.75,54141.75,56769.75,59265.75,74921.75,69502.75,77870.75,72557.75,100167.75,66777.75,101976.75,34679.75,82402.75,50232.75,92305.75,44038.75,17429.75,36236.75,43210.75,5049.75,53576.75,52828.75,1953762.75,47509.75,51752.75,379501.75,64048.75,55852.75,66191.75,70139.75,57327.75,72741.75,54867.75,77924.75,91435.75,111475.75,86069.75,90714.75,83942.75,73391.75,63310.75,49425.75,43859.75,87975.75,9029.75,63150.75,67484.75,2247681.75,91285.75,57812.75,70229.75,82090.75,107702.75,67518.75,90164.75,108646.75,67058.75,84574.75,72406.75,95200.75,53677.75,82004.75,95310.75,39436.75,38803.75,28220.75,47497.75,25540.75,74726.75,45879.75,54783.75,56765.75,56315.75,79679.75,90333.75,59429.75,82189.75,73909.75,92474.75,59085.75,89026.75,67802.75,91188.75,80917.75,95116.75,66621.75,72921.75,50083.75,30632.75,29728.75,27424.75,61355.75,46393.75,39634.75,67035.75,117008.75,74932.75,83780.75,66723.75,63846.75,60173.75,88417.75,102788.75,79074.75,65952.75,86026.75,99181.75,134325.75,48187.75,87143.75,110088.75,78758.75,47760.75,1787.75,27346.75,34612.75,30786.75,-9788.25,77476.75,49158.75,56235.75,97679.75,21835.75,67489.75,80148.75,78939.75,74541.75,44236.75,66456.75,73450.75,76552.75,78711.75,73671.75,82391.75,90865.75,64354.75,42631.75,50156.75,75977.75,23718.75,29941.75,39388.75,46408.75,79696.75,80028.75,78820.75,46866.75,99748.75,89677.75,106268.75,93724.75,74254.75,78004.75,102999.75,92742.75,67821.75,88542.75,112242.75,58046.75,10761.75,41109.75,43407.75,70600.75,69487.75,27123.75,35527.75,19134.75,76583.75,85640.75,6429.75,50086.75,77795.75,84453.75,91359.75,65659.75,91132.75,74332.75,87409.75,74548.75,78634.75,96465.75,113452.75,62590.75,31744.75,54950.75,49665.75,67446.75
9,00:45:11,37.0,84008.75,91554.75,87636.75,99275.75,137465.75,135227.75,129982.75,123314.75,90273.75,127891.75,143956.75,112782.75,107612.75,123868.75,146272.75,118288.75,108719.75,138333.75,157930.75,88025.75,72912.75,63445.75,55589.75,60584.75,3332.75,64774.75,6076.75,72132.75,72712.75,62088.75,56192.75,99360.75,54856.75,54958.75,82082.75,111403.75,76408.75,91032.75,65859.75,66091.75,127943.75,118020.75,53937.75,123085.75,89899.75,16096.75,-11613.25,67925.75,29661.75,76309.75,776133.75,46341.75,45183.75,418360.75,70814.75,89975.75,98302.75,70255.75,102295.75,61535.75,83813.75,60483.75,67665.75,112566.75,104036.75,99190.75,89960.75,81821.75,62040.75,7517.75,-12001.25,28618.75,23341.75,46981.75,30823.75,732673.75,29557.75,53802.75,444846.75,74680.75,82112.75,35511.75,49362.75,81276.75,89525.75,69598.75,72841.75,67939.75,78533.75,95285.75,102180.75,70953.75,61116.75,73840.75,41112.75,35737.75,52.75,41563.75,203118.75,27931.75,726158.75,22417.75,61749.75,362360.75,74845.75,49200.75,110402.75,85904.75,103200.75,75401.75,72065.75,88592.75,74981.75,107339.75,69373.75,103342.75,72899.75,35472.75,31867.75,60391.75,44423.75,35565.75,690563.75,13090.75,24470.75,-29778.25,44999.75,49373.75,72911.75,53120.75,64658.75,59992.75,98278.75,80099.75,52948.75,73929.75,77866.75,78167.75,72274.75,85090.75,82393.75,14019.75,62297.75,18598.75,9237.75,14720.75,34673.75,782763.75,42306.75,27834.75,29813.75,35781.75,44522.75,70560.75,62079.75,87272.75,71821.75,67023.75,101963.75,79135.75,83033.75,93640.75,74645.75,96350.75,43541.75,19622.75,21996.75,29907.75,-7982.25,17374.75,12379.75,4923.75,672715.75,27097.75,23902.75,-3667.25,18954.75,81552.75,56587.75,38398.75,77881.75,37398.75,44819.75,69779.75,44317.75,99427.75,66635.75,89172.75,52986.75,39951.75,61602.75,13131.75,63679.75,-5866.25,2536677.75,60222.75,46510.75,578353.75,57281.75,48589.75,49304.75,35970.75,51634.75,85207.75,56065.75,91079.75,71494.75,85714.75,56676.75,96666.75,40583.75,66015.75,57677.75,17101.75,19660.75,35296.75,23814.75,61722.75,40771.75,2288605.75,33246.75,43555.75,402700.75,45194.75,52043.75,28036.75,60135.75,49919.75,76489.75,57587.75,72458.75,59536.75,80032.75,77822.75,87892.75,80956.75,31232.75,64600.75,29205.75,34383.75,66619.75,-246.25,55932.75,26874.75,2691000.75,93587.75,36824.75,66503.75,67132.75,100436.75,80132.75,70643.75,103945.75,67265.75,68295.75,55539.75,91828.75,59293.75,92442.75,82317.75,35078.75,49773.75,26572.75,48914.75,32238.75,96252.75,42866.75,33704.75,27305.75,64658.75,55501.75,82786.75,28541.75,42551.75,77895.75,66570.75,69087.75,47048.75,79135.75,64782.75,64992.75,93819.75,70206.75,71712.75,42673.75,32755.75,31334.75,25636.75,51594.75,59347.75,16378.75,29613.75,77581.75,58066.75,67374.75,85920.75,39033.75,65097.75,93738.75,64276.75,79464.75,78977.75,77499.75,66807.75,111652.75,79808.75,97430.75,101437.75,98659.75,39035.75,26332.75,24363.75,49628.75,14605.75,-6985.25,83158.75,31082.75,50059.75,108397.75,39953.75,47390.75,76478.75,73800.75,56170.75,58851.75,49317.75,79849.75,82328.75,70700.75,87672.75,115744.75,95348.75,50704.75,28891.75,66519.75,76118.75,42557.75,58998.75,72908.75,35162.75,68664.75,80275.75,70630.75,65705.75,100803.75,83990.75,83698.75,91180.75,91699.75,92241.75,84704.75,84229.75,68423.75,82428.75,114756.75,55621.75,13291.75,52393.75,48460.75,61175.75,71982.75,16876.75,17852.75,14107.75,60277.75,84400.75,7999.75,66920.75,68553.75,82698.75,115166.75,68200.75,110761.75,84251.75,63279.75,67130.75,76632.75,117984.75,104292.75,88882.75,42611.75,38316.75,72843.75,69250.75
10,00:50:12,37.0,67343.25,76156.25,88557.25,90898.25,127782.25,131752.25,138467.25,104245.25,80012.25,93158.25,144677.25,112075.25,106437.25,106540.25,128839.25,131741.25,131880.25,113203.25,103399.25,112691.25,64900.25,91416.25,74333.25,52682.25,-8998.75,46194.25,30174.25,99364.25,90725.25,77218.25,59509.25,94759.25,21312.25,79456.25,91501.25,109432.25,97883.25,103746.25,59398.25,86999.25,121564.25,103304.25,62050.25,110011.25,74187.25,16544.25,-35769.75,43910.25,46605.25,36783.25,849629.25,27493.25,32781.25,471116.25,92001.25,102523.25,103250.25,72003.25,76560.25,59201.25,97285.25,86505.25,61102.25,108891.25,121304.25,107285.25,91220.25,92944.25,76285.25,13925.25,5300.25,41951.25,24737.25,35664.25,20052.25,806114.25,30855.25,75440.25,481110.25,94348.25,81353.25,48241.25,78434.25,73151.25,86709.25,89966.25,59599.25,75235.25,110939.25,83096.25,112761.25,103255.25,54949.25,91383.25,60654.25,25121.25,6566.25,17567.25,214655.25,33994.25,789578.25,28146.25,83257.25,403570.25,80996.25,62594.25,99805.25,61719.25,110019.25,90848.25,71760.25,97954.25,79389.25,86036.25,63328.25,48500.25,54682.25,12007.25,53043.25,31645.25,18591.25,34353.25,732039.25,13763.25,35785.25,-18880.75,38489.25,84617.25,36109.25,68272.25,48946.25,55500.25,69042.25,92228.25,59027.25,86847.25,75501.25,66702.25,84212.25,105970.25,95844.25,-894.75,47198.25,21050.25,15003.25,15705.25,42312.25,832630.25,35514.25,40500.25,-20141.75,54826.25,84283.25,80885.25,69993.25,72795.25,55111.25,88622.25,78601.25,64961.25,95322.25,120683.25,75963.25,99639.25,30428.25,41528.25,16417.25,1607.25,12745.25,12439.25,4907.25,1078.25,766376.25,3182.25,13691.25,-25205.75,30068.25,67167.25,72625.25,56306.25,57391.25,70694.25,55093.25,67407.25,50463.25,76945.25,71168.25,69359.25,36544.25,16252.25,27855.25,-2652.75,67348.25,10692.25,2902214.25,20615.25,28868.25,594364.25,55813.25,45318.25,51595.25,68651.25,49929.25,61000.25,62157.25,64242.25,85863.25,79650.25,74039.25,92554.25,48047.25,51224.25,36716.25,43598.25,28964.25,37228.25,1364.25,63538.25,27368.25,2548549.25,-1740.75,29020.25,413865.25,56456.25,44277.25,64598.25,51452.25,53711.25,79549.25,66331.25,68642.25,63528.25,73631.25,52722.25,68198.25,99453.25,44692.25,53234.25,17571.25,37427.25,82722.25,7280.25,45556.25,19118.25,3032511.25,70403.25,52345.25,71635.25,72205.25,86056.25,73641.25,80471.25,98394.25,74022.25,68271.25,59912.25,108604.25,70141.25,78869.25,65325.25,28572.25,23948.25,21241.25,56324.25,37838.25,75380.25,56583.25,45033.25,8448.25,62443.25,72205.25,54179.25,56727.25,56170.25,54070.25,86558.25,68895.25,85911.25,69948.25,89978.25,91712.25,98160.25,61275.25,88371.25,53076.25,39092.25,24115.25,23534.25,50565.25,46682.25,11546.25,7744.25,69767.25,78980.25,68552.25,99162.25,77788.25,27075.25,87010.25,72472.25,88965.25,80404.25,79715.25,65178.25,116751.25,57673.25,76550.25,107611.25,69424.25,35394.25,26520.25,31423.25,34645.25,12751.25,3039.25,72088.25,27888.25,53569.25,93788.25,31562.25,81116.25,59746.25,65863.25,67061.25,54284.25,34289.25,81963.25,106862.25,85769.25,89094.25,79594.25,102344.25,34414.25,38452.25,55969.25,72622.25,46158.25,51462.25,93365.25,28871.25,76772.25,64679.25,63059.25,75575.25,94041.25,103010.25,81884.25,101714.25,98304.25,78397.25,109407.25,79327.25,72779.25,95183.25,114975.25,78042.25,17076.25,51191.25,50848.25,88150.25,64820.25,9556.25,12974.25,24152.25,40522.25,89536.25,24955.25,63094.25,62806.25,98632.25,107190.25,69767.25,89162.25,82547.25,65585.25,88200.25,63180.25,85218.25,130335.25,79745.25,41921.25,78541.25,53329.25,56439.25
11,00:55:13,37.0,48982.0,68101.0,98920.0,95903.0,118974.0,123509.0,139104.0,125117.0,74943.0,114553.0,145688.0,77250.0,67370.0,107265.0,154858.0,135084.0,115482.0,114455.0,94781.0,118558.0,63915.0,92898.0,75644.0,22506.0,-13807.0,54665.0,23569.0,95764.0,67533.0,57286.0,64673.0,72397.0,46199.0,81300.0,94845.0,92520.0,112691.0,83225.0,49140.0,101085.0,114894.0,104241.0,65882.0,65948.0,61211.0,20102.0,-40124.0,32478.0,37003.0,31782.0,866215.0,56511.0,52038.0,440123.0,83224.0,97360.0,73862.0,78375.0,87971.0,71971.0,93845.0,55342.0,59099.0,104666.0,116822.0,120166.0,112371.0,86231.0,83347.0,4019.0,16003.0,44838.0,-949.0,40150.0,24177.0,799252.0,46389.0,41669.0,465857.0,72393.0,77814.0,56479.0,74156.0,107477.0,92888.0,84057.0,49604.0,90340.0,94372.0,84219.0,120523.0,87488.0,34851.0,100891.0,63967.0,20124.0,2569.0,28797.0,223723.0,25782.0,806596.0,39137.0,85157.0,401356.0,77673.0,51282.0,112339.0,71647.0,89822.0,82248.0,71382.0,96808.0,82826.0,110701.0,63302.0,67561.0,75013.0,42396.0,36453.0,38097.0,29147.0,38129.0,771671.0,18932.0,12316.0,-22318.0,41993.0,68312.0,59544.0,82234.0,63480.0,46575.0,77746.0,59900.0,85356.0,102104.0,105663.0,80109.0,79068.0,76694.0,60934.0,17248.0,42978.0,43928.0,5369.0,33749.0,39794.0,836559.0,48031.0,29946.0,-36199.0,60561.0,70894.0,52652.0,77365.0,73992.0,71155.0,63535.0,95441.0,84001.0,98386.0,96858.0,57646.0,84144.0,33463.0,28610.0,38784.0,21203.0,779.0,20154.0,14293.0,15375.0,761494.0,9799.0,25892.0,-20646.0,6363.0,82565.0,59777.0,54788.0,53699.0,51327.0,62584.0,66332.0,78027.0,81059.0,77587.0,31650.0,47389.0,23050.0,52186.0,9231.0,41274.0,6747.0,3232387.0,19596.0,31156.0,639404.0,77501.0,35475.0,65301.0,48417.0,70077.0,63034.0,55112.0,99621.0,89252.0,86198.0,57974.0,84980.0,61058.0,46614.0,55896.0,27808.0,24101.0,53054.0,-160.0,53059.0,45083.0,2822880.0,15703.0,57932.0,431328.0,65448.0,61401.0,52696.0,66626.0,47299.0,71951.0,60046.0,96204.0,60530.0,73241.0,75836.0,84111.0,69793.0,39998.0,57565.0,22605.0,29186.0,64153.0,-7214.0,54046.0,9247.0,3240041.0,74771.0,55292.0,67089.0,92966.0,95542.0,80801.0,89923.0,106942.0,76292.0,68099.0,51754.0,107772.0,73471.0,97331.0,90950.0,39029.0,36040.0,39699.0,42746.0,26009.0,53614.0,30433.0,40302.0,9958.0,43605.0,53965.0,73957.0,59445.0,71970.0,80749.0,70687.0,57231.0,63108.0,47124.0,57846.0,67371.0,93174.0,61246.0,67616.0,19058.0,49841.0,33933.0,26930.0,48008.0,42432.0,32494.0,25344.0,58239.0,78445.0,63403.0,92692.0,40715.0,53674.0,101442.0,75997.0,84418.0,58335.0,98809.0,67627.0,116382.0,58162.0,97885.0,78510.0,82406.0,47806.0,14201.0,18663.0,30616.0,9008.0,-7298.0,83073.0,20467.0,53319.0,85127.0,27995.0,64109.0,68518.0,75794.0,68038.0,58942.0,69221.0,81530.0,93776.0,52653.0,107999.0,76525.0,78695.0,39021.0,17034.0,59661.0,77250.0,35816.0,41921.0,62186.0,20543.0,63007.0,87132.0,53933.0,68186.0,110084.0,80509.0,85111.0,89389.0,72502.0,83337.0,109644.0,66751.0,90293.0,107007.0,95194.0,85602.0,10604.0,40139.0,56167.0,64114.0,46123.0,12711.0,40393.0,5129.0,43863.0,99996.0,12487.0,44994.0,102574.0,77961.0,98306.0,94096.0,81589.0,71991.0,53392.0,87320.0,68554.0,88490.0,114744.0,91107.0,48566.0,54326.0,58393.0,96335.0
12,01:00:15,37.0,65713.0,61701.0,96269.0,100122.0,118707.0,148354.0,128958.0,116988.0,102434.0,130419.0,143167.0,83169.0,86790.0,91622.0,147320.0,127983.0,155313.0,115219.0,68243.0,128616.0,79779.0,84114.0,103162.0,61669.0,6002.0,59238.0,26951.0,74187.0,101316.0,82322.0,69396.0,74030.0,35050.0,55797.0,86528.0,89086.0,103540.0,93192.0,84097.0,92038.0,128759.0,122097.0,77947.0,125835.0,78615.0,7861.0,-28844.0,63342.0,57598.0,36449.0,901411.0,52442.0,35730.0,456361.0,57919.0,94040.0,71852.0,82075.0,110978.0,59797.0,105833.0,80358.0,79561.0,118531.0,116176.0,109531.0,109814.0,127746.0,84376.0,14162.0,6821.0,83608.0,24931.0,64667.0,33328.0,880421.0,38787.0,55897.0,512603.0,103386.0,106562.0,65800.0,72239.0,115330.0,84571.0,91663.0,71134.0,78936.0,98198.0,115753.0,113184.0,76582.0,47465.0,108779.0,61292.0,41282.0,3496.0,41657.0,223850.0,46947.0,843053.0,30657.0,94041.0,434417.0,80563.0,73280.0,121436.0,75730.0,93734.0,88757.0,87331.0,107243.0,95529.0,115106.0,73041.0,48179.0,65657.0,13638.0,58056.0,75263.0,22992.0,30375.0,791810.0,20514.0,27539.0,-9546.0,41568.0,50755.0,63978.0,60670.0,60540.0,64541.0,82776.0,100155.0,66888.0,105922.0,78704.0,87277.0,81488.0,98465.0,51649.0,37710.0,42789.0,40529.0,6428.0,43046.0,40457.0,892175.0,43894.0,63882.0,-18843.0,47086.0,70064.0,60777.0,73551.0,77586.0,68125.0,88725.0,89320.0,89477.0,103498.0,99378.0,70692.0,77142.0,26780.0,4237.0,37165.0,41908.0,21356.0,5908.0,29199.0,4136.0,809821.0,30666.0,28250.0,-18209.0,50847.0,98333.0,78180.0,71711.0,77950.0,81590.0,62192.0,98574.0,60224.0,111328.0,89902.0,41990.0,72856.0,36095.0,46098.0,15720.0,74486.0,16124.0,3547451.0,53895.0,29759.0,674171.0,39885.0,55090.0,79093.0,44974.0,54782.0,76851.0,69974.0,97954.0,87318.0,91723.0,63336.0,106564.0,58442.0,58308.0,55656.0,31419.0,24441.0,30576.0,20431.0,73223.0,30571.0,3154532.0,20117.0,47954.0,459044.0,52551.0,60197.0,65604.0,71143.0,59207.0,73858.0,84427.0,87101.0,73358.0,102904.0,89030.0,98297.0,72715.0,33490.0,67370.0,29232.0,59439.0,20538.0,20317.0,57896.0,17172.0,3579037.0,95414.0,43371.0,98190.0,75055.0,101012.0,80697.0,94634.0,111023.0,66842.0,88922.0,51134.0,106894.0,91573.0,89645.0,86902.0,49289.0,34705.0,26141.0,45098.0,26545.0,63613.0,48900.0,58013.0,14004.0,66896.0,87797.0,85912.0,70556.0,85952.0,67232.0,93871.0,75863.0,92854.0,76786.0,68019.0,59197.0,98617.0,57729.0,104597.0,52975.0,48487.0,49340.0,27148.0,84123.0,50431.0,25166.0,44875.0,78955.0,77446.0,94309.0,88876.0,53258.0,63175.0,86318.0,92014.0,94949.0,78738.0,69245.0,82772.0,140854.0,102949.0,68779.0,109234.0,112891.0,38676.0,27085.0,47636.0,58839.0,21137.0,-872.0,61191.0,3863.0,64043.0,109155.0,59765.0,66359.0,98954.0,75411.0,62925.0,57450.0,60721.0,80931.0,80898.0,61398.0,105140.0,107556.0,71226.0,68476.0,54965.0,61368.0,89820.0,47793.0,32630.0,64616.0,38084.0,87801.0,63929.0,106251.0,78699.0,92504.0,102331.0,98688.0,85859.0,87187.0,82020.0,105109.0,77694.0,91448.0,61629.0,106591.0,61688.0,23638.0,64710.0,69116.0,65780.0,48240.0,35525.0,40144.0,17173.0,24396.0,75202.0,3371.0,58299.0,79064.0,74544.0,114454.0,71176.0,95913.0,99724.0,59258.0,77497.0,77166.0,94743.0,110543.0,77268.0,48440.0,77094.0,69085.0,44651.0
13,01:05:16,37.0,83931.5,74983.5,110547.5,92361.5,120431.5,136910.5,152205.5,113612.5,82666.5,117798.5,138450.5,78356.5,82314.5,126188.5,162498.5,162173.5,118727.5,125917.5,84501.5,105025.5,79304.5,103807.5,74679.5,75721.5,17704.5,32534.5,24219.5,50617.5,71507.5,103696.5,63950.5,93267.5,62315.5,88882.5,107342.5,104167.5,102768.5,113223.5,53104.5,103099.5,120619.5,110268.5,66777.5,95845.5,63217.5,-2667.5,-24616.5,50006.5,68464.5,48520.5,981952.5,61921.5,55932.5,477290.5,68578.5,98949.5,107283.5,92436.5,117227.5,69671.5,103883.5,52152.5,100592.5,103422.5,133272.5,111398.5,118953.5,92236.5,70781.5,12729.5,14554.5,33248.5,20355.5,54949.5,49797.5,950000.5,59100.5,54465.5,558965.5,111081.5,86577.5,33496.5,90577.5,67723.5,100585.5,91239.5,69155.5,107864.5,118130.5,116618.5,110188.5,103371.5,70924.5,97521.5,85065.5,54214.5,14578.5,36836.5,244927.5,31626.5,877807.5,48728.5,100285.5,409806.5,84052.5,90364.5,117573.5,78625.5,96760.5,79131.5,81479.5,90824.5,101210.5,123354.5,73393.5,68698.5,62109.5,47175.5,41365.5,34830.5,13608.5,44563.5,808530.5,25843.5,8343.5,-24993.5,32145.5,66623.5,85317.5,67696.5,63455.5,55796.5,73941.5,81495.5,77701.5,85123.5,114887.5,80656.5,68204.5,120288.5,48858.5,15678.5,53923.5,25609.5,6270.5,39433.5,54307.5,937550.5,58762.5,38172.5,-10134.5,50561.5,82347.5,94587.5,84001.5,101430.5,67288.5,97397.5,96193.5,78717.5,98015.5,120552.5,75791.5,57091.5,54131.5,40798.5,43128.5,17726.5,16153.5,18881.5,22954.5,13198.5,895092.5,46379.5,34143.5,-6368.5,35800.5,79360.5,65661.5,56490.5,74919.5,67088.5,55866.5,71581.5,59792.5,91684.5,86598.5,44639.5,46441.5,31716.5,45098.5,3714.5,43775.5,32244.5,3880091.5,68392.5,26341.5,730516.5,37465.5,56490.5,65124.5,86145.5,70190.5,99747.5,88924.5,104072.5,89678.5,95294.5,84993.5,109992.5,52038.5,52397.5,27033.5,8825.5,36375.5,43187.5,14153.5,45904.5,35013.5,3391375.5,12263.5,60233.5,478006.5,73503.5,66832.5,65717.5,76214.5,94279.5,91815.5,84728.5,94002.5,85457.5,100515.5,107074.5,85949.5,77915.5,41357.5,66696.5,43798.5,49442.5,22828.5,8448.5,86219.5,29559.5,3950815.5,82271.5,48448.5,106645.5,100190.5,129433.5,72578.5,85512.5,76647.5,80552.5,80695.5,66269.5,95728.5,94672.5,114820.5,86344.5,35614.5,46508.5,23816.5,55379.5,44186.5,67251.5,55028.5,47246.5,31437.5,83007.5,75640.5,88087.5,66123.5,73011.5,87318.5,114355.5,66016.5,81844.5,52056.5,68835.5,86242.5,80454.5,93646.5,95721.5,37489.5,43067.5,22168.5,36410.5,69406.5,37686.5,42754.5,39547.5,71346.5,73412.5,81014.5,102352.5,16426.5,48805.5,98288.5,89036.5,93226.5,86081.5,92494.5,93120.5,137064.5,91748.5,96947.5,90495.5,104061.5,72441.5,31914.5,30078.5,32175.5,56392.5,16568.5,92698.5,22952.5,64629.5,97802.5,57345.5,76579.5,78171.5,66772.5,80135.5,72785.5,64455.5,87602.5,99637.5,64832.5,110584.5,116752.5,111168.5,33988.5,46060.5,56189.5,49021.5,21072.5,48258.5,33613.5,38218.5,105671.5,93158.5,74158.5,75666.5,119064.5,111399.5,97573.5,112497.5,92962.5,83148.5,117084.5,106238.5,76630.5,56143.5,110860.5,66707.5,42731.5,52025.5,64984.5,79822.5,29498.5,28267.5,42702.5,18986.5,42418.5,85512.5,-693.5,62712.5,92962.5,95622.5,71046.5,75769.5,105525.5,107919.5,46970.5,97042.5,88656.5,105494.5,112202.5,72706.5,14942.5,94278.5,55087.5,70052.5
14,01:10:17,37.0,95925.75,102696.75,98721.75,109604.75,112758.75,151454.75,149579.75,125397.75,84341.75,132940.75,144125.75,94211.75,86065.75,90562.75,156304.75,151074.75,133874.75,148306.75,74104.75,108812.75,72193.75,102538.75,87473.75,72430.75,14475.75,63707.75,31951.75,81304.75,88645.75,76127.75,65143.75,63229.75,69441.75,86562.75,91007.75,85429.75,109549.75,97238.75,64936.75,82674.75,155727.75,128701.75,40542.75,95310.75,80092.75,25382.75,-32500.25,54022.75,54488.75,31939.75,1030660.75,88678.75,69117.75,501184.75,48290.75,94774.75,89610.75,101495.75,133528.75,68427.75,104672.75,57611.75,91970.75,117775.75,114060.75,135750.75,107786.75,92376.75,64123.75,18825.75,-11708.25,44487.75,37286.75,54004.75,44476.75,967958.75,33743.75,46920.75,581838.75,81502.75,66945.75,35503.75,75887.75,95741.75,103395.75,89355.75,82951.75,88755.75,78890.75,109384.75,101151.75,100163.75,63801.75,90221.75,69427.75,55016.75,15994.75,40525.75,238701.75,39203.75,940849.75,39319.75,45629.75,434843.75,100151.75,84922.75,105253.75,72039.75,106896.75,104383.75,67633.75,109958.75,97799.75,138231.75,86921.75,49275.75,36472.75,17412.75,50102.75,47154.75,16872.75,44836.75,854412.75,23744.75,29536.75,7322.75,49982.75,49060.75,64757.75,89816.75,64148.75,68613.75,78727.75,96771.75,98388.75,96135.75,96290.75,84457.75,107699.75,103391.75,71362.75,37376.75,37932.75,44010.75,42035.75,20280.75,50024.75,990831.75,70162.75,46485.75,15858.75,41595.75,74703.75,72963.75,102104.75,94944.75,76804.75,93545.75,112934.75,111226.75,138295.75,124796.75,71698.75,71400.75,54844.75,27315.75,58571.75,32979.75,29942.75,2123.75,42913.75,23613.75,925710.75,41426.75,32204.75,-939.25,42515.75,69032.75,82734.75,70055.75,94040.75,66627.75,71346.75,73703.75,56838.75,90542.75,108436.75,68254.75,73722.75,46707.75,38926.75,19113.75,40013.75,42499.75,4236908.75,55656.75,36984.75,750157.75,30410.75,37871.75,51898.75,81600.75,77027.75,84519.75,85508.75,102024.75,92689.75,111439.75,74122.75,99707.75,74155.75,59658.75,59650.75,65101.75,37536.75,63149.75,11131.75,63426.75,45583.75,3716997.75,35065.75,51775.75,514604.75,68655.75,67887.75,55700.75,82283.75,52717.75,86259.75,58133.75,88643.75,85154.75,88416.75,93089.75,100402.75,102762.75,34701.75,56780.75,58630.75,43637.75,39539.75,29109.75,56939.75,25373.75,4282165.75,110298.75,66142.75,74921.75,67539.75,135069.75,92298.75,99496.75,124718.75,90839.75,88316.75,76268.75,87945.75,97069.75,102236.75,62119.75,20390.75,27895.75,51481.75,45842.75,40266.75,81897.75,22991.75,69623.75,16121.75,71601.75,96711.75,109175.75,85946.75,80610.75,76251.75,87984.75,76675.75,84150.75,82353.75,90817.75,73698.75,140326.75,80886.75,84775.75,34130.75,34542.75,43423.75,50050.75,71814.75,47855.75,39409.75,31997.75,91190.75,100140.75,97398.75,104769.75,30293.75,81541.75,96754.75,88375.75,108859.75,92387.75,64115.75,85856.75,144886.75,88526.75,92814.75,101283.75,90066.75,45762.75,26929.75,35789.75,41573.75,38780.75,10843.75,93416.75,20241.75,67971.75,108823.75,72157.75,91097.75,101679.75,62481.75,90985.75,62192.75,69039.75,92224.75,119138.75,69880.75,88713.75,114086.75,77558.75,69923.75,71779.75,57462.75,65487.75,46908.75,27975.75,38990.75,53717.75,115676.75,107499.75,88722.75,94576.75,118787.75,127144.75,118859.75,111382.75,78978.75,88360.75,93702.75,82980.75,92231.75,64846.75,126005.75,81666.75,7327.75,42341.75,52455.75,73449.75,51834.75,16905.75,41286.75,20379.75,42162.75,105351.75,30085.75,73778.75,83245.75,90200.75,79301.75,99766.75,123950.75,103979.75,47777.75,118056.75,79940.75,104474.75,120163.75,73684.75,49768.75,67295.75,91408.75,64943.75
15,01:15:18,37.0,69074.5,77984.5,86443.5,86070.5,111666.5,143496.5,147096.5,102902.5,94502.5,120610.5,140604.5,100191.5,76895.5,120487.5,151901.5,126881.5,137873.5,139218.5,90202.5,103811.5,54768.5,97179.5,63511.5,64244.5,25365.5,51700.5,23416.5,78072.5,49301.5,84143.5,64411.5,71649.5,57102.5,83457.5,78039.5,88305.5,105870.5,97366.5,58581.5,88819.5,117998.5,120770.5,46187.5,80285.5,70896.5,19460.5,-37624.5,68377.5,56630.5,43546.5,1050296.5,54043.5,59715.5,472226.5,53315.5,95927.5,113073.5,57585.5,114080.5,70020.5,128616.5,54084.5,94061.5,96486.5,126177.5,97535.5,121184.5,81484.5,63108.5,-493.5,18657.5,36584.5,44658.5,40701.5,46200.5,978121.5,42102.5,45839.5,559951.5,105384.5,75791.5,49108.5,58525.5,87042.5,86244.5,71363.5,70025.5,68921.5,100265.5,84458.5,103132.5,77863.5,51611.5,97509.5,76352.5,57940.5,-20937.5,38200.5,268817.5,42683.5,943953.5,40880.5,69880.5,413581.5,72865.5,73265.5,77997.5,64697.5,82228.5,109626.5,74894.5,94657.5,75408.5,104467.5,62907.5,44493.5,39119.5,12749.5,23545.5,41656.5,18969.5,37643.5,860374.5,14243.5,15184.5,-15758.5,35457.5,69702.5,71576.5,91767.5,68772.5,47826.5,68819.5,50194.5,76259.5,87871.5,99174.5,70888.5,54822.5,91311.5,49373.5,27611.5,48723.5,44060.5,24653.5,48260.5,49015.5,987383.5,18719.5,31555.5,-30473.5,36488.5,42632.5,98553.5,65843.5,89816.5,71099.5,71741.5,84946.5,73493.5,109601.5,100807.5,88266.5,48626.5,35783.5,10052.5,32879.5,32406.5,34722.5,9935.5,-1180.5,-12456.5,914370.5,18954.5,20697.5,-30605.5,21339.5,88413.5,72403.5,48715.5,83314.5,62175.5,57467.5,80552.5,58674.5,90789.5,87568.5,31033.5,36484.5,52745.5,24030.5,28290.5,28309.5,14122.5,4483752.5,40608.5,41786.5,718513.5,42348.5,37568.5,54471.5,64066.5,60688.5,66454.5,58095.5,77007.5,76808.5,100519.5,73737.5,88383.5,61965.5,52996.5,31888.5,913.5,26304.5,24702.5,11555.5,22359.5,20328.5,3971099.5,25785.5,73689.5,488668.5,56187.5,57140.5,68140.5,64146.5,66138.5,98803.5,59051.5,93477.5,85100.5,98347.5,89087.5,98427.5,79371.5,58649.5,68702.5,27329.5,39153.5,15141.5,23132.5,70252.5,37141.5,4489399.5,86190.5,60594.5,25392.5,83593.5,121430.5,63123.5,74595.5,85738.5,91368.5,66678.5,77503.5,63349.5,92986.5,84449.5,19973.5,17443.5,39795.5,40890.5,42317.5,26696.5,65892.5,36699.5,62130.5,17496.5,84400.5,76880.5,82984.5,81425.5,53369.5,73144.5,84883.5,77086.5,85338.5,41518.5,84711.5,68460.5,93970.5,48666.5,67945.5,35994.5,27026.5,56811.5,41692.5,92647.5,51638.5,26613.5,40400.5,65810.5,96407.5,87666.5,103143.5,27413.5,51926.5,109460.5,96358.5,82076.5,69754.5,103476.5,70430.5,106728.5,79791.5,70266.5,107730.5,64908.5,29813.5,30985.5,-543.5,21797.5,31493.5,4142.5,101349.5,14838.5,48332.5,101337.5,50688.5,74867.5,91716.5,77130.5,81379.5,67360.5,59199.5,81459.5,80104.5,53466.5,85481.5,101023.5,92719.5,60271.5,44538.5,59334.5,82113.5,35132.5,39131.5,55495.5,45846.5,76425.5,68352.5,81491.5,51867.5,105101.5,85795.5,73518.5,79702.5,87558.5,91359.5,98294.5,66284.5,81836.5,33952.5,113179.5,47698.5,19218.5,41616.5,39218.5,65117.5,21198.5,1762.5,36375.5,269.5,40246.5,57063.5,22310.5,52537.5,82715.5,86058.5,71859.5,89139.5,96415.5,94453.5,51279.5,73877.5,81875.5,90556.5,100767.5,87826.5,31802.5,54898.5,87534.5,31842.5
16,01:20:20,37.0,70038.5,94349.5,132773.5,93984.5,123954.5,132591.5,108354.5,75872.5,91558.5,100553.5,149649.5,59874.5,75313.5,107269.5,139566.5,131762.5,147913.5,131401.5,97305.5,119809.5,60622.5,108704.5,72710.5,51745.5,11002.5,58588.5,38599.5,56306.5,73068.5,93018.5,58738.5,83570.5,64597.5,72450.5,79845.5,125689.5,80574.5,93837.5,74001.5,94806.5,143627.5,107940.5,62197.5,86070.5,72580.5,30517.5,-23843.5,63203.5,48658.5,51488.5,1066977.5,66454.5,69424.5,489519.5,44613.5,98365.5,113058.5,66049.5,74271.5,61210.5,119624.5,54863.5,96750.5,87173.5,131141.5,123941.5,107922.5,103942.5,47769.5,-9550.5,2876.5,64307.5,38201.5,45625.5,45023.5,1046021.5,43670.5,36923.5,619596.5,95404.5,73169.5,43342.5,61223.5,70409.5,91785.5,81920.5,79535.5,103533.5,88341.5,93341.5,112980.5,96720.5,63078.5,63670.5,55579.5,21326.5,7626.5,38781.5,259831.5,37946.5,964760.5,31047.5,87311.5,445079.5,63519.5,92038.5,115089.5,69195.5,113374.5,87679.5,86216.5,90682.5,83738.5,103628.5,58016.5,74777.5,36667.5,20048.5,21662.5,42921.5,42674.5,37914.5,886639.5,-2343.5,6043.5,-22475.5,23549.5,62191.5,65913.5,71009.5,57796.5,81370.5,65028.5,94604.5,91061.5,104898.5,107913.5,105535.5,94955.5,82465.5,48970.5,25409.5,63082.5,37742.5,22368.5,26977.5,46962.5,1050535.5,55637.5,9936.5,-13368.5,35149.5,55834.5,63924.5,81408.5,81583.5,66341.5,98837.5,92920.5,64058.5,113667.5,118874.5,81114.5,69399.5,54748.5,32852.5,30835.5,23027.5,27905.5,19034.5,35604.5,-4673.5,953805.5,12259.5,26835.5,-20799.5,19029.5,90651.5,54943.5,69388.5,99464.5,67852.5,37908.5,68820.5,44567.5,100819.5,40821.5,52313.5,49087.5,25590.5,17446.5,11532.5,55076.5,39871.5,4743619.5,33325.5,34894.5,777448.5,38630.5,36079.5,36323.5,47270.5,52158.5,62936.5,55477.5,94680.5,91649.5,83798.5,66114.5,100798.5,41553.5,42269.5,28997.5,15578.5,49103.5,28321.5,9812.5,44445.5,23844.5,4206416.5,30779.5,50785.5,506801.5,56060.5,74032.5,67358.5,73875.5,49051.5,91017.5,65865.5,92692.5,50085.5,109695.5,100942.5,83810.5,65970.5,44192.5,53911.5,12933.5,41968.5,34989.5,24476.5,20802.5,29138.5,4789049.5,97298.5,56757.5,42906.5,79252.5,109353.5,101006.5,70823.5,90011.5,69783.5,71293.5,110475.5,94953.5,90664.5,86601.5,21386.5,45928.5,33838.5,43516.5,41462.5,50256.5,65936.5,5947.5,54406.5,1434.5,67772.5,98346.5,93596.5,63699.5,83699.5,74927.5,85868.5,65060.5,81200.5,81581.5,72734.5,71471.5,90375.5,74010.5,72649.5,50391.5,56303.5,28572.5,26681.5,69915.5,44875.5,19002.5,48246.5,69185.5,68897.5,76377.5,95768.5,30611.5,68906.5,100144.5,84913.5,101927.5,77907.5,105138.5,77653.5,138065.5,84098.5,106856.5,86405.5,83865.5,53589.5,31511.5,22440.5,21067.5,37050.5,1622.5,79798.5,15186.5,68984.5,91808.5,59859.5,39834.5,78970.5,77130.5,66151.5,59401.5,63137.5,77628.5,93297.5,63681.5,91139.5,60782.5,74131.5,35403.5,40789.5,71680.5,47936.5,41684.5,62458.5,27474.5,43854.5,101930.5,93576.5,81486.5,84247.5,108591.5,73886.5,99475.5,84619.5,75485.5,70598.5,95649.5,104410.5,66368.5,54418.5,104023.5,48167.5,42888.5,45085.5,58438.5,69606.5,21515.5,17111.5,30048.5,18039.5,36982.5,62112.5,14272.5,76511.5,68234.5,90756.5,68355.5,112298.5,101629.5,104265.5,58080.5,93820.5,69574.5,89555.5,115652.5,92917.5,38112.5,79161.5,63411.5,57553.5
17,01:25:21,37.0,64620.25,73155.25,91384.25,117415.25,136711.25,139385.25,136554.25,89931.25,79261.25,142229.25,161408.25,79372.25,49401.25,135103.25,155392.25,151976.25,157855.25,105969.25,106509.25,142058.25,56732.25,94856.25,82221.25,65499.25,14865.25,59285.25,27249.25,89127.25,89377.25,92611.25,82499.25,72877.25,56187.25,91474.25,75449.25,73829.25,88504.25,72305.25,69530.25,99685.25,120058.25,111144.25,56583.25,120598.25,78478.25,17679.25,-21419.75,58031.25,35877.25,51532.25,1114565.25,66153.25,45319.25,533212.25,62449.25,98856.25,103282.25,68922.25,122879.25,58541.25,116435.25,71968.25,110836.25,121400.25,119292.25,114606.25,124279.25,78035.25,77818.25,7011.25,-3270.75,55849.25,39435.25,48315.25,49121.25,1080416.25,20076.25,58089.25,601637.25,81320.25,60405.25,22115.25,79359.25,75197.25,80125.25,87433.25,84817.25,74619.25,123159.25,109295.25,114393.25,110461.25,70011.25,69490.25,62546.25,40088.25,2897.25,51877.25,254746.25,57579.25,1015514.25,60323.25,72166.25,431677.25,71062.25,89020.25,66695.25,77044.25,90505.25,84820.25,93601.25,102168.25,76937.25,111133.25,65329.25,48391.25,49334.25,47475.25,43012.25,70078.25,47079.25,44545.25,929174.25,12893.25,36604.25,-33871.75,27872.25,52440.25,73681.25,62715.25,48088.25,61263.25,76244.25,79655.25,97953.25,94649.25,93881.25,106647.25,85513.25,103814.25,45650.25,12945.25,62667.25,43375.25,39299.25,40187.25,38405.25,1104918.25,44320.25,40583.25,-16956.75,23261.25,73817.25,78349.25,95953.25,79669.25,65698.25,92723.25,90670.25,109890.25,118075.25,109577.25,43750.25,68568.25,50556.25,29152.25,43120.25,47056.25,39273.25,32765.25,29536.25,28261.25,992853.25,38668.25,33579.25,-30182.75,19372.25,78225.25,72277.25,72034.25,88646.25,71453.25,79149.25,63936.25,50161.25,77492.25,48511.25,31179.25,60836.25,32985.25,43927.25,20868.25,47425.25,62717.25,4987672.25,24419.25,25335.25,806036.25,28578.25,33989.25,42986.25,72863.25,70715.25,67450.25,66194.25,111750.25,98424.25,98836.25,96833.25,96432.25,50579.25,36309.25,36579.25,26027.25,15189.25,32190.25,10822.25,58522.25,57826.25,4411429.25,39234.25,60485.25,478559.25,62610.25,61794.25,69849.25,81683.25,50941.25,94045.25,59144.25,105816.25,65314.25,89812.25,86029.25,77811.25,73627.25,53036.25,74419.25,37623.25,32901.25,52359.25,34584.25,48620.25,-10333.75,5036741.25,93896.25,57261.25,30649.25,91184.25,115743.25,75066.25,52585.25,89519.25,81117.25,90387.25,65419.25,88612.25,117616.25,77494.25,46706.25,30673.25,53389.25,20461.25,44452.25,22081.25,76695.25,14528.25,57707.25,22340.25,74550.25,88450.25,59412.25,62104.25,40865.25,71683.25,72030.25,68052.25,97117.25,65559.25,73506.25,80086.25,118427.25,34738.25,63587.25,46764.25,49577.25,52715.25,39239.25,51200.25,44429.25,55891.25,25808.25,78033.25,71886.25,69957.25,106521.25,19107.25,62595.25,96392.25,85484.25,94468.25,54348.25,70249.25,66488.25,133728.25,44521.25,74839.25,121091.25,73045.25,35579.25,12202.25,26915.25,37947.25,38093.25,-14648.75,82141.25,2992.25,64633.25,108722.25,80676.25,27755.25,73356.25,59655.25,61643.25,45484.25,34037.25,73198.25,92809.25,38551.25,94844.25,42924.25,49545.25,55914.25,56213.25,41539.25,72896.25,56313.25,42069.25,38921.25,38926.25,92090.25,75592.25,63364.25,76166.25,99381.25,73806.25,87310.25,96632.25,82251.25,64329.25,113584.25,82258.25,81889.25,53356.25,109169.25,32367.25,26115.25,42989.25,43531.25,60053.25,34640.25,11343.25,27458.25,24583.25,47352.25,49035.25,29078.25,83326.25,78492.25,84531.25,64656.25,101425.25,65512.25,83521.25,53449.25,68525.25,60125.25,97290.25,123551.25,60309.25,33181.25,63646.25,85607.25,87386.25
18,01:30:22,37.0,68537.5,57356.5,99730.5,88558.5,90001.5,122323.5,131359.5,68601.5,90291.5,122305.5,149576.5,47785.5,64718.5,94931.5,159543.5,124935.5,125040.5,129921.5,96106.5,115349.5,60766.5,65005.5,106669.5,62074.5,-5402.5,70259.5,25681.5,76811.5,62668.5,66519.5,69260.5,47471.5,48571.5,83473.5,75481.5,61661.5,72934.5,65181.5,48791.5,76011.5,91141.5,133711.5,72569.5,86472.5,66004.5,25734.5,-20298.5,63791.5,56509.5,12082.5,1096333.5,60486.5,51625.5,507103.5,50155.5,63357.5,96393.5,58171.5,94154.5,76759.5,105331.5,76401.5,69936.5,113266.5,127510.5,126411.5,141747.5,62655.5,88647.5,5920.5,-11356.5,42797.5,25321.5,42189.5,40939.5,1084897.5,28598.5,62600.5,637678.5,79528.5,67820.5,12947.5,45199.5,91104.5,81920.5,104874.5,75751.5,93207.5,99661.5,101423.5,118457.5,90075.5,76773.5,88078.5,71921.5,36527.5,-17195.5,17935.5,258766.5,25525.5,984783.5,16213.5,49173.5,431288.5,61458.5,81825.5,79430.5,59752.5,87014.5,90900.5,81244.5,92671.5,79879.5,99956.5,63596.5,60628.5,23818.5,30910.5,63131.5,85836.5,9839.5,24271.5,909309.5,-5560.5,30073.5,-38763.5,17855.5,62894.5,68242.5,52588.5,50199.5,36021.5,77696.5,71542.5,64602.5,84857.5,109408.5,75394.5,71896.5,93065.5,65920.5,24613.5,44608.5,41187.5,24601.5,37128.5,50764.5,1088507.5,25622.5,28488.5,-36623.5,32243.5,83303.5,72148.5,94753.5,86730.5,45540.5,99031.5,98699.5,75043.5,114053.5,112894.5,71514.5,35332.5,70708.5,26166.5,31796.5,43414.5,16257.5,15108.5,9194.5,3627.5,988012.5,47073.5,30708.5,-37181.5,49055.5,62962.5,50436.5,64765.5,82143.5,86215.5,58950.5,78197.5,53756.5,107975.5,69663.5,42855.5,47486.5,40562.5,48051.5,9534.5,17859.5,27668.5,5204229.5,40814.5,10356.5,819476.5,43421.5,50163.5,34713.5,72752.5,54188.5,66953.5,54983.5,112280.5,73290.5,92867.5,80998.5,98725.5,47478.5,50536.5,44762.5,35586.5,11635.5,34597.5,15486.5,38972.5,30081.5,4586879.5,19165.5,43636.5,479203.5,57185.5,67577.5,53136.5,58462.5,52810.5,77672.5,66603.5,99808.5,99545.5,90574.5,74741.5,78841.5,50174.5,58849.5,70322.5,25951.5,48823.5,33653.5,24705.5,48388.5,29580.5,5277008.5,94126.5,46855.5,61674.5,90731.5,118003.5,79498.5,74809.5,108562.5,80988.5,62614.5,50077.5,71883.5,76847.5,111154.5,30603.5,29293.5,49563.5,31090.5,22573.5,38670.5,65753.5,30124.5,61139.5,15947.5,81852.5,84276.5,92989.5,41754.5,55205.5,72827.5,89849.5,76692.5,94970.5,64027.5,98594.5,93427.5,102654.5,65220.5,38187.5,38422.5,43797.5,44413.5,40196.5,52389.5,49852.5,34268.5,37348.5,70067.5,74027.5,75428.5,91948.5,44499.5,61789.5,94562.5,101484.5,93088.5,82016.5,84246.5,86606.5,121914.5,24362.5,72990.5,107326.5,97366.5,34888.5,41572.5,20102.5,25512.5,48910.5,21854.5,91469.5,14461.5,60578.5,92846.5,71498.5,43088.5,84327.5,82600.5,67068.5,74590.5,72428.5,79700.5,102330.5,46046.5,125830.5,59751.5,67363.5,33991.5,49479.5,56612.5,83736.5,26642.5,29479.5,12903.5,36550.5,86517.5,75180.5,70212.5,66112.5,104599.5,85665.5,97652.5,98506.5,74641.5,64202.5,107241.5,88842.5,84227.5,51033.5,124826.5,75680.5,13046.5,47312.5,54661.5,62312.5,22326.5,12335.5,22100.5,29631.5,59395.5,62778.5,-4997.5,80684.5,76259.5,108886.5,69172.5,71182.5,98674.5,105269.5,63503.5,102867.5,84422.5,102248.5,81143.5,95512.5,31284.5,68998.5,80066.5,53461.5
19,01:35:23,37.0,65866.5,47155.5,96140.5,75164.5,104943.5,92424.5,135354.5,63502.5,58469.5,102970.5,132659.5,71198.5,48626.5,91655.5,165291.5,142410.5,133720.5,136101.5,82061.5,121168.5,75242.5,115272.5,82125.5,20359.5,13002.5,64844.5,16705.5,64976.5,77404.5,64826.5,35773.5,33419.5,39836.5,71803.5,94150.5,54728.5,55245.5,38629.5,43812.5,97530.5,98784.5,100099.5,78501.5,87388.5,86611.5,22106.5,-33826.5,44003.5,30539.5,32611.5,1087380.5,72270.5,38535.5,501119.5,62777.5,52649.5,86358.5,62564.5,105015.5,54340.5,81451.5,63923.5,103563.5,107694.5,102143.5,106139.5,118852.5,74758.5,33750.5,5824.5,5895.5,53327.5,-18182.5,56738.5,42522.5,1097155.5,22078.5,42227.5,597657.5,98644.5,83867.5,8019.5,42849.5,79123.5,79192.5,96980.5,64029.5,76131.5,85004.5,91126.5,88607.5,71692.5,54157.5,81645.5,69112.5,56736.5,2859.5,22392.5,264257.5,17271.5,995063.5,32336.5,45977.5,434747.5,80112.5,54115.5,91029.5,59359.5,73397.5,97933.5,80048.5,83328.5,78109.5,104064.5,59963.5,48911.5,28399.5,34388.5,40967.5,42567.5,10858.5,35484.5,976338.5,21921.5,21772.5,-41209.5,29892.5,50965.5,63549.5,50721.5,57468.5,61083.5,52776.5,70758.5,64918.5,89727.5,113601.5,66391.5,55349.5,101510.5,45591.5,410.5,62075.5,39650.5,14313.5,42915.5,37196.5,1133955.5,46394.5,17172.5,-25360.5,38446.5,20956.5,73889.5,84767.5,54021.5,60360.5,93011.5,112841.5,63127.5,83502.5,116750.5,57658.5,50338.5,41384.5,16809.5,37747.5,63253.5,6190.5,14067.5,5917.5,1382.5,1027032.5,13925.5,40732.5,-29810.5,24868.5,83253.5,64798.5,58017.5,56187.5,74877.5,49448.5,77794.5,50671.5,104721.5,57901.5,10090.5,53618.5,34830.5,52769.5,45061.5,31818.5,24731.5,5402366.5,28669.5,28291.5,827215.5,23800.5,54047.5,46860.5,77407.5,60337.5,64491.5,52442.5,93388.5,86136.5,86468.5,59140.5,92766.5,44414.5,55072.5,43560.5,31289.5,20208.5,33287.5,7681.5,49776.5,29787.5,4768085.5,6000.5,48074.5,507603.5,53326.5,45588.5,52424.5,64373.5,71185.5,60168.5,62172.5,59628.5,82622.5,90560.5,95697.5,90877.5,48051.5,34140.5,53739.5,29567.5,58498.5,43255.5,15945.5,38413.5,32299.5,5504548.5,92804.5,69640.5,42072.5,62447.5,101932.5,66951.5,46209.5,97997.5,76104.5,65544.5,70414.5,103867.5,82015.5,80969.5,33919.5,23962.5,40634.5,5101.5,47991.5,25793.5,87721.5,12747.5,52733.5,11541.5,66445.5,72512.5,88573.5,88626.5,51713.5,80079.5,86128.5,65125.5,94505.5,63705.5,60140.5,78386.5,81770.5,73320.5,57111.5,55993.5,39573.5,43525.5,46277.5,37982.5,29816.5,21012.5,33618.5,79649.5,77383.5,45726.5,93390.5,37486.5,63392.5,105586.5,91450.5,83868.5,80214.5,81528.5,66780.5,117729.5,30051.5,64471.5,112753.5,72262.5,38735.5,16509.5,48536.5,22800.5,15075.5,3814.5,81391.5,11943.5,63496.5,100864.5,66243.5,12320.5,34706.5,67291.5,87107.5,43708.5,63253.5,57538.5,83850.5,31347.5,97321.5,60967.5,60085.5,27207.5,41279.5,50476.5,55165.5,38368.5,29999.5,33657.5,12892.5,89710.5,79545.5,80350.5,62891.5,95794.5,79099.5,93923.5,124591.5,85933.5,66818.5,100139.5,94397.5,68135.5,55535.5,126702.5,61903.5,37134.5,50474.5,48458.5,51563.5,14842.5,25696.5,50573.5,8620.5,26528.5,54090.5,10024.5,47125.5,87025.5,81369.5,62688.5,78190.5,93576.5,110297.5,48635.5,99005.5,64748.5,101392.5,91563.5,74434.5,50521.5,88211.5,57058.5,46456.5
20,01:40:24,37.0,87451.75,58884.75,89325.75,92567.75,126100.75,104537.75,134105.75,57627.75,93195.75,146886.75,150629.75,88838.75,58869.75,97072.75,149457.75,151647.75,127138.75,111291.75,109327.75,113379.75,54304.75,93030.75,78061.75,46249.75,15728.75,61213.75,20148.75,65645.75,69094.75,69436.75,49827.75,52765.75,52477.75,79474.75,98886.75,54877.75,66871.75,46718.75,46660.75,82351.75,122583.75,121525.75,81605.75,94710.75,86676.75,12332.75,-18205.25,56494.75,52910.75,60294.75,1172894.75,58256.75,53717.75,528056.75,62305.75,90290.75,104100.75,68676.75,108104.75,55775.75,86690.75,77270.75,82614.75,119777.75,113753.75,119835.75,136650.75,75374.75,85180.75,4714.75,1157.75,49346.75,33068.75,59495.75,31781.75,1149809.75,27970.75,45598.75,628689.75,104990.75,79557.75,32541.75,79665.75,102906.75,87777.75,100065.75,92891.75,79632.75,83414.75,104997.75,117368.75,65284.75,65003.75,96589.75,62168.75,30145.75,10942.75,52057.75,279841.75,50794.75,1035888.75,27588.75,49356.75,440507.75,79745.75,48385.75,69927.75,51318.75,105487.75,62790.75,79836.75,89050.75,88569.75,118057.75,88450.75,58571.75,42266.75,22890.75,46384.75,50924.75,36637.75,49584.75,960118.75,19507.75,23032.75,-25598.25,29856.75,58684.75,74075.75,71181.75,73740.75,58764.75,73902.75,98891.75,81952.75,80474.75,110822.75,74745.75,58721.75,80592.75,29530.75,22465.75,78541.75,14889.75,15987.75,54021.75,29416.75,1131383.75,46396.75,25312.75,-22395.25,46449.75,24833.75,68162.75,89991.75,74588.75,56506.75,77030.75,115765.75,89153.75,86679.75,111570.75,65020.75,57502.75,64466.75,7602.75,32940.75,14882.75,26306.75,-9835.25,20651.75,44079.75,1036700.75,44823.75,13149.75,-32307.25,39485.75,80125.75,62513.75,42573.75,77115.75,43555.75,61399.75,86412.75,45097.75,84160.75,53285.75,43425.75,44051.75,42069.75,44320.75,33438.75,43725.75,42415.75,5626550.75,36988.75,23383.75,834419.75,29768.75,52143.75,22419.75,77085.75,66408.75,71744.75,53640.75,70935.75,79993.75,78907.75,73081.75,85868.75,41189.75,36601.75,16669.75,16035.75,25834.75,35671.75,22139.75,27290.75,36862.75,5054443.75,22029.75,68301.75,510576.75,60869.75,72451.75,52974.75,56694.75,58841.75,92003.75,50862.75,77380.75,63507.75,86518.75,76543.75,104215.75,46991.75,24464.75,54090.75,35385.75,35880.75,30813.75,16643.75,20922.75,19696.75,5684381.75,116196.75,68470.75,35136.75,83476.75,124643.75,59090.75,58227.75,65488.75,100816.75,56681.75,77627.75,74349.75,87696.75,68517.75,28776.75,11389.75,26333.75,29023.75,44449.75,41486.75,65159.75,23004.75,57408.75,22093.75,62011.75,94174.75,88968.75,39020.75,51006.75,53886.75,74855.75,67739.75,96395.75,22169.75,71976.75,62334.75,86951.75,66988.75,41213.75,50988.75,46740.75,12808.75,41658.75,65907.75,45089.75,28898.75,25891.75,70285.75,78964.75,88139.75,97237.75,37002.75,58510.75,88455.75,97148.75,84108.75,53302.75,66353.75,87578.75,127107.75,36476.75,82259.75,105783.75,59995.75,18468.75,23141.75,21345.75,31877.75,33183.75,-4134.25,88707.75,7243.75,61861.75,83208.75,57883.75,23691.75,41639.75,63714.75,69796.75,50725.75,36333.75,86863.75,92520.75,37718.75,91663.75,44038.75,49543.75,27987.75,40988.75,52901.75,71527.75,41671.75,39196.75,32367.75,30391.75,90028.75,86376.75,85611.75,66323.75,117070.75,100783.75,85516.75,61904.75,83153.75,63233.75,103759.75,67537.75,60249.75,26983.75,114189.75,59331.75,12548.75,49838.75,44310.75,65279.75,18260.75,-14691.25,45460.75,-3837.25,43413.75,50466.75,3614.75,51005.75,87460.75,77786.75,55903.75,83959.75,86977.75,71227.75,50687.75,72617.75,75866.75,105250.75,91413.75,65724.75,25026.75,64503.75,48806.75,44020.75
21,01:45:26,37.0,58240.75,52110.75,80635.75,85763.75,126709.75,56115.75,129381.75,81026.75,64537.75,120888.75,151970.75,58586.75,72584.75,117324.75,151956.75,150295.75,95084.75,117941.75,100951.75,102573.75,78695.75,75275.75,93722.75,53867.75,10981.75,55708.75,26613.75,61047.75,62261.75,41041.75,48713.75,51183.75,43440.75,51229.75,40787.75,63740.75,47647.75,36383.75,50093.75,80377.75,92715.75,134764.75,52112.75,81828.75,72702.75,16036.75,-36054.25,53903.75,35254.75,24272.75,1128413.75,45072.75,51172.75,510954.75,52373.75,75108.75,94016.75,73206.75,100933.75,41563.75,102902.75,69866.75,84678.75,108891.75,114131.75,113450.75,108297.75,78954.75,65652.75,12892.75,7124.75,38891.75,11102.75,52151.75,57101.75,1195564.75,21010.75,33092.75,607059.75,86953.75,77181.75,31504.75,38838.75,59775.75,83100.75,74809.75,83243.75,101082.75,92741.75,89176.75,88086.75,99904.75,39625.75,89953.75,62655.75,36642.75,-7929.25,45165.75,259861.75,30281.75,1051607.75,21586.75,72347.75,439647.75,78207.75,76046.75,82549.75,39135.75,99239.75,65303.75,65749.75,96844.75,94147.75,114434.75,68004.75,55688.75,37586.75,39481.75,21009.75,42614.75,6058.75,45726.75,939527.75,25108.75,26599.75,-33101.25,43864.75,57620.75,61227.75,86483.75,70522.75,46095.75,58206.75,92955.75,83477.75,66283.75,100180.75,69536.75,80069.75,83189.75,40508.75,16376.75,38814.75,40306.75,21555.75,30794.75,44277.75,1148474.75,32329.75,25019.75,-9037.25,35434.75,46110.75,74697.75,67675.75,62293.75,64270.75,72283.75,69923.75,95728.75,103439.75,91972.75,33067.75,67173.75,30181.75,14484.75,31442.75,41042.75,14356.75,16978.75,18875.75,9405.75,1035925.75,28618.75,21305.75,-20808.25,27378.75,72856.75,64460.75,24785.75,41886.75,55032.75,45669.75,62732.75,51716.75,77102.75,47848.75,51708.75,27034.75,33774.75,43229.75,24627.75,30493.75,29910.75,5764281.75,51330.75,15550.75,821937.75,30843.75,53788.75,27471.75,88089.75,44202.75,75826.75,56084.75,107238.75,83919.75,76910.75,77662.75,94373.75,49736.75,33504.75,21497.75,19589.75,12255.75,28204.75,23752.75,51189.75,25680.75,5074704.75,9612.75,36184.75,518757.75,74833.75,49232.75,48456.75,92001.75,45491.75,86111.75,64941.75,72599.75,75744.75,94585.75,77912.75,75889.75,60610.75,31092.75,74134.75,12659.75,49354.75,23600.75,11906.75,17844.75,26418.75,5866088.75,88722.75,39500.75,32357.75,84845.75,115707.75,65736.75,55780.75,92877.75,71811.75,87281.75,65719.75,82485.75,83819.75,88775.75,44565.75,14595.75,41101.75,31580.75,42262.75,40989.75,53422.75,27878.75,44222.75,-2971.25,69255.75,66292.75,78827.75,40517.75,49694.75,73890.75,80434.75,70221.75,102578.75,53423.75,54562.75,82875.75,92022.75,68393.75,77819.75,52439.75,32198.75,40009.75,22430.75,35806.75,25690.75,23466.75,33934.75,57356.75,87143.75,89003.75,79620.75,21884.75,27089.75,75820.75,83348.75,88079.75,82100.75,77174.75,80255.75,119601.75,37912.75,95125.75,109514.75,77167.75,18928.75,22522.75,15130.75,19731.75,4953.75,-796.25,58376.75,-1544.25,73298.75,92342.75,42952.75,23691.75,47797.75,47981.75,85658.75,52437.75,42749.75,67606.75,88862.75,36749.75,98144.75,50724.75,47127.75,65055.75,26056.75,45318.75,56055.75,30346.75,37124.75,29268.75,47299.75,78903.75,80659.75,76597.75,78969.75,103865.75,85650.75,92782.75,64452.75,83227.75,59761.75,96430.75,92940.75,83799.75,46509.75,115202.75,58958.75,36839.75,63217.75,46276.75,54352.75,16615.75,18633.75,29734.75,33603.75,27569.75,41424.75,-147.25,69661.75,89111.75,98450.75,55695.75,71384.75,87475.75,89155.75,57698.75,83108.75,85291.75,97624.75,88525.75,86366.75,27907.75,73655.75,42817.75,56600.75
22,01:50:27,37.0,68126.5,57701.5,86907.5,71522.5,91164.5,79451.5,101445.5,67363.5,57764.5,102872.5,124493.5,55431.5,58727.5,93334.5,150361.5,123977.5,118246.5,92653.5,67895.5,85055.5,65101.5,79134.5,79504.5,40976.5,13485.5,45324.5,5183.5,74338.5,54793.5,53762.5,56701.5,48470.5,50965.5,33849.5,42000.5,46630.5,63767.5,74955.5,58677.5,84852.5,108891.5,111117.5,58955.5,79155.5,68620.5,15157.5,-9349.5,33545.5,49566.5,16778.5,1170960.5,38234.5,58289.5,537811.5,63825.5,94530.5,89818.5,70924.5,110349.5,41283.5,92091.5,39610.5,88275.5,109743.5,121183.5,103366.5,103582.5,56954.5,63661.5,-7806.5,1998.5,29663.5,15641.5,44101.5,23185.5,1153655.5,22944.5,30130.5,654228.5,100456.5,71862.5,10223.5,71270.5,74221.5,92877.5,81826.5,75162.5,87258.5,99408.5,106828.5,116967.5,92572.5,43175.5,88548.5,30588.5,42008.5,983.5,57334.5,258763.5,25934.5,1066005.5,40996.5,46334.5,463670.5,73415.5,68461.5,91492.5,56659.5,76289.5,86240.5,70211.5,89243.5,89387.5,120061.5,73753.5,57587.5,24872.5,53230.5,27459.5,60991.5,23952.5,36557.5,992646.5,9448.5,-3191.5,-32849.5,30807.5,27926.5,65039.5,58217.5,67058.5,61559.5,68255.5,82398.5,91791.5,99117.5,81366.5,56638.5,89245.5,76909.5,51985.5,27050.5,33049.5,40597.5,38196.5,25077.5,48320.5,1150299.5,34923.5,40969.5,-7377.5,708.5,33277.5,75738.5,65897.5,79326.5,47327.5,73587.5,91152.5,71326.5,111184.5,98303.5,29395.5,39225.5,56739.5,38429.5,32663.5,15176.5,11104.5,17150.5,2507.5,3172.5,1073054.5,24175.5,33971.5,-36513.5,27158.5,62122.5,43431.5,25786.5,43945.5,58172.5,55072.5,46994.5,56196.5,85305.5,47357.5,33744.5,48836.5,26211.5,51853.5,28577.5,22530.5,19947.5,6003669.5,8514.5,31382.5,845942.5,48321.5,43311.5,22860.5,46798.5,48661.5,22915.5,66483.5,72276.5,83517.5,73690.5,78223.5,73987.5,34261.5,36223.5,27275.5,25131.5,18667.5,13779.5,22694.5,44763.5,24017.5,5260170.5,21434.5,64092.5,530479.5,56461.5,52173.5,50299.5,62515.5,37366.5,55534.5,60860.5,84198.5,72573.5,105511.5,82102.5,82304.5,48601.5,29637.5,63743.5,4660.5,64920.5,41051.5,6997.5,23105.5,6641.5,6096750.5,78407.5,55025.5,39720.5,59293.5,84043.5,77440.5,62070.5,71985.5,75744.5,85542.5,77741.5,82339.5,85384.5,86720.5,23312.5,5985.5,30175.5,34441.5,37016.5,16498.5,78138.5,24607.5,41698.5,4672.5,68976.5,90620.5,71412.5,45997.5,29987.5,70710.5,85166.5,66088.5,65010.5,62599.5,50656.5,89046.5,107715.5,65735.5,29181.5,47751.5,36443.5,30971.5,45723.5,20950.5,37045.5,31171.5,21100.5,96113.5,72288.5,82821.5,83348.5,34425.5,37905.5,105142.5,69911.5,70578.5,76239.5,89336.5,53923.5,108197.5,18323.5,72424.5,62362.5,50585.5,28298.5,25833.5,10703.5,-125.5,21456.5,-4901.5,66119.5,19821.5,85425.5,87742.5,40378.5,17420.5,46996.5,46899.5,85515.5,53950.5,59366.5,63574.5,81767.5,75531.5,116623.5,57811.5,40650.5,45945.5,53085.5,59654.5,48259.5,32585.5,49585.5,7358.5,39971.5,73034.5,33985.5,74579.5,32183.5,104262.5,63852.5,94495.5,79579.5,65075.5,55128.5,89569.5,100352.5,52845.5,49752.5,130112.5,55688.5,23055.5,44343.5,23784.5,29916.5,7033.5,14779.5,17885.5,10681.5,31771.5,48913.5,11841.5,65657.5,81496.5,85795.5,71638.5,61186.5,58124.5,90758.5,69186.5,71275.5,57170.5,126571.5,85038.5,79086.5,51350.5,80401.5,60388.5,68126.5
23,01:55:28,37.0,80951.5,51887.5,84843.5,74567.5,69390.5,69053.5,124661.5,47951.5,74207.5,132061.5,142775.5,73692.5,42002.5,106087.5,130812.5,131300.5,117313.5,60090.5,96827.5,59845.5,61629.5,76183.5,78112.5,48616.5,363.5,28889.5,26808.5,55684.5,46717.5,79456.5,54380.5,60420.5,38049.5,25981.5,57601.5,37171.5,64205.5,59533.5,59820.5,87147.5,105652.5,100600.5,46776.5,80032.5,66936.5,27141.5,-30631.5,33053.5,46935.5,22574.5,1185344.5,73251.5,43824.5,530465.5,32423.5,66821.5,89889.5,41390.5,96303.5,8308.5,84807.5,67628.5,66895.5,114806.5,112274.5,108178.5,116931.5,57390.5,54518.5,-1104.5,4594.5,41037.5,9530.5,43182.5,23989.5,1200508.5,29098.5,54133.5,639210.5,85213.5,53301.5,13750.5,72119.5,79606.5,77396.5,84800.5,77692.5,81790.5,96383.5,95410.5,111093.5,95579.5,63753.5,92174.5,80806.5,61742.5,6649.5,47101.5,297068.5,21576.5,1087279.5,9142.5,28238.5,450311.5,57598.5,70112.5,62185.5,54502.5,87899.5,83097.5,79423.5,105749.5,80934.5,103214.5,92702.5,54799.5,40551.5,22514.5,26468.5,45076.5,9922.5,31505.5,1016465.5,17840.5,16452.5,-28056.5,15459.5,53727.5,60725.5,58205.5,65168.5,50914.5,65343.5,71060.5,83673.5,71203.5,96676.5,76451.5,82260.5,93091.5,54176.5,1527.5,27185.5,29197.5,14646.5,11934.5,51873.5,1210953.5,23654.5,34624.5,-10190.5,16381.5,20463.5,70213.5,66853.5,64055.5,73493.5,85683.5,96018.5,64958.5,88079.5,117874.5,18705.5,49040.5,49268.5,37792.5,27361.5,2915.5,40464.5,7042.5,13959.5,9798.5,1087344.5,40834.5,28049.5,-48606.5,21897.5,57412.5,67190.5,30777.5,30111.5,76076.5,60204.5,76717.5,50105.5,79058.5,47947.5,30579.5,71803.5,35623.5,34093.5,24089.5,41519.5,31983.5,6119180.5,24143.5,34187.5,880621.5,24468.5,56255.5,38642.5,74558.5,33943.5,22356.5,62936.5,72662.5,93183.5,87308.5,65003.5,69730.5,47872.5,44726.5,55041.5,21969.5,28366.5,35465.5,35749.5,51447.5,35078.5,5501206.5,3524.5,51875.5,535011.5,60927.5,60234.5,33884.5,69220.5,21599.5,54230.5,67764.5,69804.5,63757.5,78107.5,93841.5,87931.5,55999.5,43168.5,66792.5,28888.5,39484.5,27586.5,34074.5,35181.5,15530.5,6267478.5,94481.5,53162.5,45029.5,55533.5,98112.5,72235.5,69620.5,76584.5,67043.5,58521.5,83248.5,98829.5,78337.5,101122.5,24273.5,9053.5,31650.5,35061.5,49374.5,55360.5,51176.5,18760.5,59301.5,-1985.5,86190.5,99197.5,68792.5,40703.5,56216.5,81385.5,77183.5,54214.5,56459.5,76294.5,80750.5,62706.5,121676.5,58585.5,61870.5,48158.5,21783.5,39045.5,19287.5,49767.5,31454.5,33680.5,30993.5,51019.5,65566.5,100178.5,102155.5,17959.5,37757.5,94800.5,79928.5,93102.5,75797.5,82452.5,81413.5,116833.5,31726.5,76532.5,64804.5,49798.5,41877.5,39218.5,27900.5,29339.5,14214.5,19091.5,92813.5,26456.5,65568.5,101010.5,68816.5,42200.5,41818.5,51645.5,76754.5,54182.5,59248.5,67630.5,87261.5,66921.5,86315.5,33422.5,41615.5,72278.5,27423.5,60691.5,82731.5,32081.5,27529.5,19008.5,47695.5,94393.5,77410.5,65931.5,35361.5,38930.5,59830.5,81341.5,97028.5,65293.5,74184.5,86930.5,65916.5,78726.5,35945.5,101989.5,61340.5,27250.5,51039.5,54777.5,37141.5,25704.5,13425.5,44697.5,26470.5,37972.5,47793.5,14058.5,73311.5,86878.5,101577.5,73394.5,87641.5,89945.5,81718.5,40085.5,71742.5,68741.5,93917.5,63780.5,74494.5,47733.5,78695.5,56087.5,58431.5
24,02:00:29,37.0,77425.25,36227.25,90277.25,61884.25,103552.25,69820.25,120486.25,100525.25,81933.25,118231.25,113300.25,62730.25,65980.25,92983.25,143228.25,158455.25,136875.25,67483.25,96164.25,80801.25,61080.25,88764.25,99412.25,54287.25,4778.25,49109.25,7684.25,56229.25,64211.25,38178.25,52938.25,40009.25,34237.25,40781.25,39795.25,64006.25,50332.25,76192.25,79617.25,96990.25,109779.25,101358.25,77743.25,89175.25,82241.25,18241.25,-25108.75,43049.25,68252.25,32071.25,1184760.25,63001.25,65883.25,563944.25,65841.25,66600.25,99215.25,50948.25,111176.25,50514.25,85201.25,74476.25,66900.25,99547.25,117370.25,110861.25,127588.25,87231.25,51428.25,7509.25,-641.75,30518.25,20856.25,45107.25,25152.25,1239816.25,37795.25,34270.25,659188.25,73438.25,74910.25,17539.25,73160.25,79118.25,77023.25,76094.25,62491.25,105570.25,111105.25,98008.25,103099.25,49792.25,53248.25,80978.25,68543.25,41037.25,-17651.75,35493.25,271426.25,30534.25,1106880.25,35921.25,58371.25,457146.25,72744.25,32245.25,86392.25,57640.25,84238.25,112982.25,74695.25,76059.25,66571.25,104460.25,65256.25,41083.25,27215.25,13390.25,32250.25,43971.25,31461.25,42569.25,1077815.25,366.25,8800.25,-36246.75,24529.25,43687.25,60287.25,68698.25,52953.25,60368.25,80038.25,77798.25,62818.25,93278.25,96880.25,52877.25,65796.25,57591.25,40238.25,10025.25,43644.25,43669.25,36151.25,23948.25,61039.25,1236103.25,27762.25,23859.25,-31311.75,45335.25,41888.25,59445.25,80397.25,56536.25,61501.25,71704.25,98054.25,94705.25,113738.25,98654.25,14628.25,33728.25,36282.25,23814.25,55657.25,43591.25,30697.25,19437.25,10454.25,-5415.75,1130399.25,20317.25,28910.25,-36921.75,18816.25,68085.25,34757.25,16575.25,52557.25,88318.25,55397.25,71419.25,75269.25,81250.25,66039.25,39055.25,47512.25,34823.25,37234.25,22257.25,46627.25,25072.25,6359180.25,35785.25,26050.25,922569.25,27288.25,76490.25,37700.25,41004.25,54860.25,24965.25,56564.25,95028.25,75643.25,102606.25,71854.25,73712.25,66635.25,45577.25,50082.25,12309.25,28643.25,12963.25,7777.25,35188.25,8269.25,5719651.25,-6386.75,47347.25,540565.25,64607.25,46418.25,58049.25,70570.25,24377.25,64947.25,62232.25,82584.25,91288.25,95356.25,120407.25,62369.25,37893.25,56628.25,56025.25,33536.25,55828.25,33279.25,45066.25,31494.25,36080.25,6440291.25,71905.25,56688.25,65509.25,81501.25,110999.25,55041.25,75173.25,108402.25,80874.25,78291.25,54739.25,101868.25,76322.25,92111.25,27491.25,33337.25,29260.25,33237.25,70063.25,37524.25,81264.25,21916.25,46753.25,32334.25,89992.25,80141.25,74271.25,36440.25,49805.25,64234.25,84988.25,60301.25,79094.25,53448.25,89360.25,96583.25,108734.25,71204.25,40590.25,64490.25,53559.25,48385.25,27979.25,45802.25,49933.25,21878.25,38538.25,58490.25,98798.25,97738.25,79611.25,32494.25,41666.25,108132.25,93724.25,71008.25,84030.25,87797.25,76681.25,138903.25,41489.25,81876.25,62602.25,49618.25,48309.25,25848.25,17554.25,21369.25,33181.25,-8481.75,75091.25,21387.25,63971.25,105108.25,39094.25,37013.25,47748.25,41680.25,92547.25,76321.25,59676.25,83345.25,97017.25,64407.25,87458.25,56323.25,52898.25,51345.25,39591.25,65901.25,79298.25,39359.25,46809.25,14895.25,25420.25,106804.25,59527.25,81072.25,963.25,55659.25,55062.25,111108.25,75159.25,53065.25,54092.25,89789.25,55731.25,74258.25,63359.25,119582.25,30996.25,23725.25,67818.25,58173.25,66743.25,14672.25,8355.25,66795.25,17385.25,49027.25,43673.25,-4009.75,73735.25,82298.25,103184.25,52598.25,98088.25,95139.25,109717.25,51342.25,104364.25,87941.25,118721.25,93245.25,67649.25,40681.25,87233.25,70120.25,56530.25
25,02:05:31,37.0,70519.25,82211.25,101742.25,89509.25,79094.25,94631.25,137439.25,59132.25,96791.25,108736.25,108671.25,65051.25,67392.25,109359.25,124551.25,160275.25,130525.25,72590.25,78163.25,108438.25,74441.25,90498.25,89382.25,44001.25,25390.25,54208.25,33763.25,75008.25,68731.25,64795.25,83832.25,75801.25,51793.25,29139.25,48293.25,68566.25,69261.25,57400.25,57766.25,103700.25,99202.25,137530.25,73250.25,102007.25,73334.25,16785.25,-20433.75,64506.25,69786.25,14378.25,1250622.25,50745.25,50027.25,566281.25,43414.25,72380.25,106068.25,96529.25,119793.25,65552.25,76226.25,62184.25,82315.25,128879.25,148539.25,140898.25,118944.25,86844.25,65331.25,-992.75,4641.25,62255.25,16433.25,68737.25,46255.25,1247143.25,27490.25,49615.25,690331.25,80912.25,64147.25,28679.25,78716.25,45652.25,66948.25,101102.25,69001.25,90978.25,131726.25,114872.25,124107.25,63489.25,69964.25,116072.25,63045.25,55698.25,-5073.75,43297.25,270548.25,39180.25,1089239.25,49807.25,56966.25,476951.25,94238.25,46969.25,73865.25,49419.25,102600.25,78033.25,94657.25,100113.25,90052.25,129517.25,83462.25,72169.25,30592.25,44213.25,56910.25,67839.25,57726.25,49379.25,1057406.25,16310.25,16411.25,-20765.75,51102.25,55138.25,71614.25,65918.25,74947.25,46284.25,83560.25,76088.25,95162.25,112932.25,102127.25,86485.25,78273.25,96475.25,54393.25,29765.25,43351.25,54991.25,37954.25,33490.25,34283.25,1250678.25,56255.25,44058.25,7090.25,27527.25,42509.25,62208.25,87710.25,94432.25,69922.25,88686.25,98602.25,76642.25,106605.25,122364.25,51179.25,62491.25,73178.25,39153.25,44051.25,45325.25,18706.25,7116.25,52535.25,28180.25,1117778.25,37433.25,25415.25,-34759.75,49160.25,99781.25,71076.25,24581.25,69652.25,54852.25,64660.25,70712.25,74096.25,80264.25,38264.25,62535.25,27767.25,48098.25,35758.25,21530.25,67353.25,17278.25,6518326.25,37250.25,33742.25,920757.25,31646.25,73060.25,37597.25,81382.25,67369.25,43553.25,94721.25,102656.25,85633.25,103307.25,90365.25,95399.25,59765.25,46853.25,33740.25,45689.25,56212.25,34571.25,17648.25,51753.25,23182.25,5813793.25,43364.25,38248.25,572280.25,92828.25,59006.25,70255.25,64354.25,65202.25,85368.25,79864.25,94142.25,101659.25,99459.25,86755.25,79543.25,50710.25,39107.25,66085.25,43100.25,53921.25,61073.25,23127.25,40871.25,19750.25,6655226.25,87282.25,45540.25,57580.25,80326.25,123291.25,68467.25,78393.25,116664.25,88416.25,96727.25,71225.25,91519.25,83675.25,94183.25,39771.25,51154.25,35734.25,53201.25,54288.25,38721.25,93852.25,52180.25,57348.25,19475.25,91377.25,102777.25,82807.25,54838.25,59562.25,72504.25,83819.25,92457.25,96729.25,79564.25,89144.25,86734.25,104889.25,69192.25,59294.25,61904.25,66453.25,32795.25,54075.25,54375.25,57505.25,54039.25,55177.25,61175.25,79922.25,84903.25,121248.25,55287.25,51768.25,107125.25,90298.25,87153.25,84682.25,113087.25,77991.25,148738.25,39897.25,110187.25,76143.25,52387.25,58601.25,32282.25,42560.25,49504.25,35984.25,46557.25,94290.25,30035.25,69717.25,99122.25,66354.25,42263.25,51318.25,35580.25,65655.25,68007.25,90308.25,87294.25,107648.25,71766.25,109774.25,73197.25,68962.25,49407.25,42813.25,53141.25,85534.25,41464.25,29348.25,56112.25,39115.25,112481.25,114623.25,118552.25,61485.25,72514.25,42796.25,98050.25,76570.25,57293.25,68040.25,115709.25,63001.25,51152.25,40509.25,122090.25,50989.25,33946.25,71194.25,49827.25,78774.25,19542.25,25565.25,32874.25,19999.25,55383.25,74024.25,35209.25,84448.25,100370.25,107417.25,94518.25,86033.25,111327.25,112362.25,64992.25,113026.25,74300.25,146196.25,88215.25,83949.25,31692.25,75075.25,90967.25,66181.25
26,02:10:32,37.0,92033.75,75927.75,104894.75,81387.75,72039.75,83294.75,160781.75,65066.75,72938.75,121429.75,107507.75,80424.75,64101.75,97244.75,160221.75,158789.75,152494.75,70183.75,100397.75,91582.75,86206.75,95630.75,83227.75,33575.75,-723.25,68415.75,36232.75,73719.75,91814.75,74434.75,71120.75,76219.75,81417.75,40313.75,55567.75,55298.75,63730.75,58172.75,87278.75,88342.75,91786.75,113690.75,47021.75,71897.75,76146.75,16507.75,-39744.25,44954.75,64336.75,41014.75,1224450.75,53388.75,66286.75,560917.75,67770.75,81547.75,80652.75,66490.75,110450.75,46507.75,101294.75,57021.75,85265.75,126149.75,135453.75,112182.75,119325.75,82596.75,59757.75,15109.75,8126.75,20786.75,31178.75,55429.75,40817.75,1284488.75,57021.75,74167.75,679414.75,81829.75,64743.75,31920.75,67420.75,56522.75,78162.75,85360.75,86709.75,106774.75,76540.75,111164.75,103726.75,47415.75,46891.75,89253.75,66732.75,44310.75,-812.25,36872.75,272120.75,42542.75,1124707.75,43184.75,64825.75,486217.75,86646.75,59527.75,79141.75,26542.75,89597.75,68560.75,67344.75,90109.75,64117.75,140862.75,106126.75,54831.75,11728.75,21825.75,33729.75,43926.75,21361.75,51263.75,1074205.75,11296.75,27872.75,-20465.25,40033.75,60592.75,49879.75,65990.75,71574.75,54829.75,91538.75,77034.75,57709.75,104057.75,97794.75,74996.75,57661.75,56099.75,31905.75,20846.75,38414.75,26138.75,27406.75,32728.75,49544.75,1281521.75,48273.75,28475.75,-31344.25,15280.75,49422.75,63159.75,57448.75,59574.75,68834.75,70405.75,92239.75,86330.75,105456.75,76668.75,13443.75,66982.75,26130.75,-2622.25,11325.75,10680.75,45926.75,18013.75,27418.75,31002.75,1190993.75,24899.75,21110.75,-23506.25,25738.75,39857.75,43287.75,45388.75,59216.75,60645.75,64521.75,61416.75,43822.75,92459.75,50942.75,41743.75,48438.75,24097.75,45048.75,18747.75,60403.75,22372.75,6690877.75,16817.75,42014.75,935786.75,40439.75,56154.75,44006.75,44588.75,37537.75,20684.75,66876.75,67796.75,78951.75,101286.75,67566.75,89163.75,42311.75,41641.75,35404.75,17658.75,18725.75,25109.75,8906.75,56017.75,47405.75,5925645.75,20154.75,31581.75,570085.75,49950.75,61002.75,73215.75,43143.75,49755.75,64313.75,47492.75,68528.75,66907.75,85604.75,88786.75,59843.75,35678.75,44185.75,54997.75,37636.75,45799.75,41516.75,7892.75,5862.75,29708.75,6729120.75,101565.75,53930.75,62345.75,97743.75,102792.75,64453.75,60039.75,95540.75,69553.75,65557.75,58431.75,92117.75,56156.75,72472.75,36488.75,19488.75,27557.75,18597.75,15405.75,35625.75,78134.75,33063.75,38018.75,8698.75,84193.75,91532.75,88024.75,47947.75,27822.75,92081.75,82191.75,44560.75,77594.75,50312.75,81090.75,67292.75,102062.75,64808.75,61595.75,43627.75,29668.75,16953.75,-7173.25,36230.75,27933.75,9244.75,25597.75,43641.75,69390.75,56713.75,107374.75,3069.75,36419.75,80363.75,87895.75,72298.75,69837.75,101722.75,82127.75,122357.75,28678.75,63233.75,53490.75,55653.75,17083.75,30535.75,378.75,18106.75,28104.75,16748.75,69098.75,1395.75,48400.75,79916.75,49437.75,22604.75,52830.75,42552.75,68146.75,39165.75,54115.75,63422.75,73914.75,45970.75,95257.75,50725.75,31640.75,48882.75,63990.75,29314.75,53880.75,51676.75,44314.75,30222.75,45511.75,105195.75,53416.75,82962.75,15664.75,83216.75,38966.75,89627.75,51148.75,42197.75,65858.75,115823.75,38407.75,32023.75,26443.75,103679.75,66217.75,19523.75,42925.75,28254.75,48046.75,27671.75,-6185.25,52382.75,27346.75,50349.75,42147.75,24052.75,69203.75,76066.75,49230.75,73272.75,90963.75,82456.75,106402.75,27213.75,48668.75,66309.75,94944.75,84489.75,72834.75,22794.75,59008.75,58291.75,56621.75
27,02:15:33,37.0,76253.25,63349.25,110194.25,43185.25,61016.25,90418.25,133859.25,48335.25,93075.25,74336.25,115293.25,72435.25,69228.25,109040.25,136419.25,125040.25,112101.25,72734.25,76545.25,79134.25,59026.25,88228.25,85245.25,10109.25,16081.25,28996.25,21102.25,66270.25,82178.25,69454.25,62150.25,58919.25,55057.25,47652.25,61943.25,55574.25,44494.25,72788.25,62432.25,72442.25,96588.25,132230.25,71768.25,84909.25,80113.25,28601.25,-38075.75,52444.25,50276.25,38851.25,1232380.25,70144.25,54068.25,581168.25,70529.25,77964.25,95343.25,80825.25,103946.25,42803.25,63067.25,56098.25,100763.25,117363.25,110321.25,90596.25,104380.25,72508.25,64089.25,-1240.75,10715.25,28371.25,2507.25,44319.25,41152.25,1319761.25,46133.25,53724.25,686374.25,81044.25,85729.25,18315.25,63994.25,62526.25,77939.25,94332.25,65482.25,88923.25,92585.25,101554.25,88622.25,64730.25,44113.25,67507.25,53056.25,21086.25,22782.25,49811.25,291666.25,29580.25,1145677.25,50974.25,60792.25,488326.25,72248.25,58279.25,72284.25,31042.25,90655.25,86124.25,63795.25,109968.25,62103.25,131426.25,85922.25,32378.25,36681.25,35880.25,25476.25,56943.25,34134.25,42629.25,1106741.25,11733.25,25795.25,-36448.75,10673.25,29305.25,40117.25,63323.25,69880.25,73801.25,49066.25,76940.25,80164.25,105159.25,92197.25,95548.25,35773.25,68729.25,53816.25,20447.25,40735.25,22056.25,28005.25,36854.25,43867.25,1292531.25,11898.25,18065.25,-8832.75,24076.25,55110.25,56276.25,85145.25,71526.25,80037.25,81275.25,116620.25,75956.25,106856.25,96919.25,48718.25,44057.25,49725.25,15473.25,42397.25,31315.25,22605.25,17107.25,24749.25,20913.25,1181550.25,42490.25,46607.25,-30957.75,13043.25,55175.25,21930.25,50449.25,69716.25,39471.25,60480.25,53428.25,30143.25,97069.25,64482.25,44425.25,47995.25,20247.25,23838.25,18894.25,39319.25,4152.25,6826195.25,28700.25,41071.25,987059.25,25719.25,40866.25,31584.25,53953.25,38460.25,34182.25,40612.25,82803.25,92347.25,98878.25,90678.25,99038.25,71589.25,38488.25,29999.25,-14211.75,37698.25,19506.25,12713.25,39623.25,42421.25,6151297.25,13422.25,41079.25,575190.25,48205.25,43222.25,46996.25,48596.25,29545.25,57060.25,58336.25,80553.25,73000.25,87106.25,81301.25,109012.25,46287.25,16264.25,69322.25,33133.25,33201.25,46545.25,19436.25,19287.25,12747.25,6862879.25,91541.25,61122.25,37039.25,77809.25,115605.25,63297.25,73973.25,108760.25,85988.25,71105.25,95330.25,98537.25,92808.25,99577.25,39197.25,14378.25,27443.25,11246.25,55488.25,39400.25,72164.25,29195.25,40903.25,19733.25,83801.25,75292.25,77921.25,49544.25,47233.25,58482.25,100873.25,76090.25,69275.25,62092.25,84528.25,80547.25,106350.25,57666.25,51384.25,34420.25,34926.25,36299.25,24301.25,58751.25,49178.25,40985.25,32813.25,31152.25,104112.25,60462.25,109382.25,25740.25,41964.25,47679.25,84610.25,80887.25,70315.25,65191.25,86893.25,132724.25,25802.25,77091.25,43143.25,47923.25,39021.25,20339.25,17744.25,46138.25,42751.25,9380.25,94519.25,9193.25,61149.25,84088.25,36989.25,46599.25,57851.25,39736.25,76921.25,43490.25,59981.25,74994.25,81312.25,48911.25,60722.25,71689.25,53037.25,54727.25,44266.25,66959.25,85979.25,42381.25,27322.25,40254.25,19384.25,127412.25,56798.25,103762.25,40991.25,73468.25,43574.25,99189.25,38525.25,43863.25,29761.25,94206.25,48787.25,11544.25,44115.25,116239.25,28944.25,32206.25,25096.25,40722.25,41123.25,34795.25,-3506.75,40136.25,31466.25,45580.25,37587.25,18391.25,75309.25,79543.25,45097.25,82798.25,79275.25,107469.25,88664.25,53195.25,107264.25,89338.25,102950.25,88038.25,67202.25,23849.25,83460.25,74557.25,41508.25
28,02:20:34,37.0,74274.0,76563.0,97405.0,34774.0,90351.0,106393.0,144683.0,81478.0,86411.0,93196.0,120686.0,78096.0,43531.0,72477.0,130936.0,117564.0,126317.0,76593.0,78847.0,79439.0,76217.0,80844.0,78061.0,41633.0,17138.0,77933.0,20109.0,76421.0,66149.0,52613.0,63379.0,86376.0,52045.0,27495.0,67935.0,80174.0,61323.0,71282.0,61804.0,102732.0,86969.0,140705.0,49461.0,65434.0,81848.0,31832.0,-18930.0,67333.0,62737.0,37185.0,1275145.0,62904.0,55763.0,583216.0,67074.0,73762.0,111853.0,97807.0,112116.0,34456.0,77284.0,72958.0,71073.0,113973.0,119814.0,117471.0,102796.0,46916.0,51587.0,-18474.0,5572.0,10782.0,49417.0,65001.0,45077.0,1295837.0,24498.0,72339.0,700127.0,87071.0,41158.0,26102.0,69235.0,50314.0,75807.0,97948.0,73053.0,98915.0,107653.0,106451.0,80208.0,59728.0,40072.0,95326.0,63141.0,39295.0,12966.0,41774.0,310927.0,28891.0,1164152.0,43668.0,59358.0,484955.0,74203.0,36149.0,72529.0,52635.0,93079.0,71377.0,82160.0,102348.0,93453.0,112137.0,75710.0,39605.0,38201.0,24873.0,33418.0,39141.0,44052.0,54719.0,1123517.0,31610.0,44209.0,-25207.0,45190.0,44498.0,36597.0,60733.0,61598.0,54660.0,51977.0,86538.0,64364.0,98622.0,89696.0,49467.0,48970.0,52864.0,39553.0,27871.0,50230.0,27984.0,28772.0,42930.0,50589.0,1331904.0,62276.0,16100.0,-28748.0,29397.0,52618.0,48402.0,73836.0,68000.0,69202.0,99231.0,112307.0,91547.0,93265.0,87790.0,26547.0,24621.0,53226.0,-3471.0,9120.0,10782.0,4202.0,26511.0,20302.0,4023.0,1188423.0,40149.0,49128.0,-1500.0,45042.0,60703.0,39676.0,25959.0,39633.0,55492.0,59876.0,76900.0,46563.0,75334.0,61672.0,44595.0,62242.0,27879.0,27836.0,3952.0,58135.0,36232.0,6921456.0,33065.0,33782.0,941952.0,37953.0,41121.0,44558.0,37542.0,57816.0,25182.0,58954.0,59279.0,79057.0,92276.0,74035.0,82062.0,62521.0,8084.0,29597.0,10970.0,19281.0,26771.0,23266.0,54058.0,39686.0,6244809.0,27185.0,44117.0,565608.0,47603.0,39528.0,55683.0,38964.0,31684.0,49956.0,37144.0,78285.0,71531.0,75246.0,55955.0,98853.0,28062.0,36529.0,73621.0,28916.0,18430.0,39556.0,9774.0,21276.0,26193.0,6955800.0,92977.0,61319.0,41428.0,97532.0,90924.0,33090.0,60103.0,87340.0,59018.0,89701.0,65727.0,79480.0,75804.0,89413.0,31702.0,1980.0,13472.0,21264.0,45530.0,39580.0,54447.0,14498.0,72014.0,15303.0,58376.0,82721.0,86451.0,36860.0,35403.0,55559.0,86517.0,49801.0,84284.0,65425.0,103266.0,64323.0,93650.0,68204.0,60355.0,50261.0,42006.0,26604.0,9748.0,67688.0,44131.0,20543.0,39764.0,60103.0,67763.0,90511.0,62520.0,-4094.0,29600.0,74814.0,68026.0,69626.0,60141.0,55906.0,68789.0,109880.0,17924.0,79974.0,40021.0,41757.0,39870.0,2748.0,5372.0,34335.0,16319.0,9608.0,86407.0,14500.0,72474.0,83752.0,59439.0,41149.0,48057.0,16467.0,51378.0,56510.0,49143.0,84193.0,75344.0,54549.0,36916.0,55871.0,45824.0,32424.0,33795.0,52296.0,59183.0,27715.0,42455.0,39430.0,34131.0,90402.0,46055.0,85028.0,11624.0,48828.0,57864.0,101756.0,23103.0,25145.0,21332.0,85168.0,49666.0,39593.0,43484.0,102128.0,26023.0,-7550.0,17969.0,50837.0,23362.0,23901.0,12510.0,27365.0,36119.0,54781.0,68866.0,17279.0,64653.0,74056.0,53471.0,75097.0,107370.0,74954.0,93809.0,32686.0,78678.0,59685.0,96806.0,77029.0,82294.0,28398.0,68827.0,52185.0,26418.0
29,02:25:36,37.0,73256.5,58583.5,74111.5,37727.5,49873.5,59171.5,123461.5,56168.5,68024.5,86242.5,74325.5,46560.5,30923.5,74378.5,122558.5,151148.5,111099.5,64048.5,64746.5,79592.5,60562.5,82539.5,70688.5,43737.5,29131.5,30198.5,6917.5,46762.5,60899.5,37954.5,44410.5,47279.5,50860.5,18907.5,44833.5,38578.5,54714.5,40427.5,41036.5,74752.5,69439.5,96116.5,51529.5,93853.5,58594.5,19556.5,-31592.5,43735.5,22328.5,28905.5,1249156.5,29256.5,51254.5,588756.5,61918.5,53708.5,78245.5,69038.5,97374.5,36915.5,68873.5,15762.5,80269.5,95505.5,92291.5,108223.5,93641.5,47755.5,39546.5,-6389.5,18425.5,6852.5,-949.5,25590.5,6162.5,1295707.5,46635.5,35521.5,706040.5,66173.5,45518.5,1388.5,54656.5,48749.5,60655.5,69997.5,61717.5,87996.5,77115.5,103756.5,84594.5,27971.5,59313.5,93337.5,54784.5,38685.5,1176.5,14518.5,289015.5,37413.5,1159873.5,12645.5,39740.5,503780.5,59966.5,18598.5,52452.5,19080.5,90584.5,69003.5,69292.5,100669.5,81618.5,103585.5,70440.5,63004.5,43314.5,39300.5,44559.5,44064.5,16095.5,50992.5,1130246.5,5666.5,-3770.5,-33886.5,24465.5,25061.5,48059.5,52988.5,38174.5,55158.5,51193.5,83831.5,75666.5,72597.5,70505.5,60921.5,34171.5,37408.5,61274.5,-2127.5,39740.5,36470.5,20085.5,40922.5,49845.5,1320060.5,35134.5,18969.5,-17729.5,21253.5,43237.5,35888.5,56164.5,79862.5,38439.5,77361.5,76884.5,88533.5,96356.5,104163.5,27083.5,34822.5,59335.5,7449.5,21450.5,29333.5,35232.5,7527.5,12801.5,-1281.5,1190531.5,29520.5,-5675.5,-34803.5,25150.5,36476.5,24076.5,21920.5,51658.5,29429.5,42014.5,54615.5,32479.5,81094.5,45108.5,36667.5,42016.5,24642.5,29938.5,16407.5,20771.5,18948.5,7034722.5,36646.5,5779.5,968224.5,23409.5,39522.5,19682.5,46209.5,67281.5,17476.5,53879.5,27786.5,67297.5,83530.5,48767.5,90322.5,39834.5,48509.5,45630.5,-2155.5,25167.5,26387.5,24117.5,42578.5,20936.5,6293072.5,18158.5,16271.5,561639.5,26896.5,38856.5,66448.5,61681.5,38906.5,30198.5,52109.5,84699.5,93936.5,102004.5,76720.5,101558.5,38487.5,24592.5,65232.5,36262.5,30244.5,22667.5,4751.5,22708.5,24838.5,7052851.5,94581.5,41242.5,40329.5,76373.5,90693.5,75223.5,63613.5,108864.5,72329.5,99543.5,72829.5,80616.5,93700.5,87155.5,24029.5,4919.5,48402.5,24395.5,51290.5,28752.5,42087.5,11346.5,42669.5,-1204.5,59566.5,76773.5,77903.5,42783.5,28151.5,60027.5,77168.5,74650.5,82223.5,48441.5,63186.5,94854.5,104560.5,60417.5,36228.5,32406.5,43154.5,35157.5,40959.5,55543.5,58038.5,23266.5,43969.5,24956.5,91013.5,75849.5,72595.5,8313.5,47080.5,75808.5,74707.5,60081.5,60361.5,82768.5,74586.5,104374.5,37039.5,80645.5,76852.5,42448.5,18573.5,30948.5,31171.5,34988.5,33344.5,13884.5,69771.5,494.5,43241.5,100243.5,50084.5,39698.5,60690.5,44363.5,65647.5,52541.5,68484.5,69871.5,91251.5,51341.5,42874.5,45875.5,44068.5,46431.5,53539.5,46228.5,47686.5,39639.5,37265.5,21076.5,21572.5,87209.5,50858.5,82344.5,42236.5,61752.5,47063.5,92456.5,52610.5,54416.5,20923.5,89515.5,58907.5,28377.5,48364.5,117903.5,39034.5,44081.5,69694.5,30921.5,45004.5,13448.5,14348.5,35075.5,22453.5,32950.5,36644.5,27084.5,74573.5,99196.5,55785.5,65857.5,85905.5,83265.5,93026.5,21407.5,67359.5,80972.5,90912.5,86467.5,49234.5,28077.5,68322.5,69496.5,50104.5
