EndyLab/tRNACAD/experimental_data/220616_init-Met_conc-series.csv
,Time,Temperature(¡C),A1,A2,A3,A4,A5,A6,A7,A8,A9,A10,A11,A12,A13,A14,A15,A16,A17,A18,A19,A20,A21,A22,A23,A24,B1,B2,B3,B4,B5,B6,B7,B8,B9,B10,B11,B12,B13,B14,B15,B16,B17,B18,B19,B20,B21,B22,B23,B24,C1,C2,C3,C4,C5,C6,C7,C8,C9,C10,C11,C12,C13,C14,C15,C16,C17,C18,C19,C20,C21,C22,C23,C24,D1,D2,D3,D4,D5,D6,D7,D8,D9,D10,D11,D12,D13,D14,D15,D16,D17,D18,D19,D20,D21,D22,D23,D24,E1,E2,E3,E4,E5,E6,E7,E8,E9,E10,E11,E12,E13,E14,E15,E16,E17,E18,E19,E20,E21,E22,E23,E24,F1,F2,F3,F4,F5,F6,F7,F8,F9,F10,F11,F12,F13,F14,F15,F16,F17,F18,F19,F20,F21,F22,F23,F24,G1,G2,G3,G4,G5,G6,G7,G8,G9,G10,G11,G12,G13,G14,G15,G16,G17,G18,G19,G20,G21,G22,G23,G24,H1,H2,H3,H4,H5,H6,H7,H8,H9,H10,H11,H12,H13,H14,H15,H16,H17,H18,H19,H20,H21,H22,H23,H24,I1,I2,I3,I4,I5,I6,I7,I8,I9,I10,I11,I12,I13,I14,I15,I16,I17,I18,I19,I20,I21,I22,I23,I24,J1,J2,J3,J4,J5,J6,J7,J8,J9,J10,J11,J12,J13,J14,J15,J16,J17,J18,J19,J20,J21,J22,J23,J24,K1,K2,K3,K4,K5,K6,K7,K8,K9,K10,K11,K12,K13,K14,K15,K16,K17,K18,K19,K20,K21,K22,K23,K24,L1,L2,L3,L4,L5,L6,L7,L8,L9,L10,L11,L12,L13,L14,L15,L16,L17,L18,L19,L20,L21,L22,L23,L24,M1,M2,M3,M4,M5,M6,M7,M8,M9,M10,M11,M12,M13,M14,M15,M16,M17,M18,M19,M20,M21,M22,M23,M24,N1,N2,N3,N4,N5,N6,N7,N8,N9,N10,N11,N12,N13,N14,N15,N16,N17,N18,N19,N20,N21,N22,N23,N24,O1,O2,O3,O4,O5,O6,O7,O8,O9,O10,O11,O12,O13,O14,O15,O16,O17,O18,O19,O20,O21,O22,O23,O24,P1,P2,P3,P4,P5,P6,P7,P8,P9,P10,P11,P12,P13,P14,P15,P16,P17,P18,P19,P20,P21,P22,P23,P24
0,00:00:00,37.0,545494.0,576671.0,500210.0,511631.0,645248.0,657797.0,642497.0,407947.0,404743.0,616087.0,645312.0,631805.0,609987.0,702045.0,716728.0,649918.0,561017.0,711304.0,747303.0,667496.0,605792.0,613519.0,619939.0,638391.0,352332.0,342413.0,382315.0,358580.0,487258.0,431273.0,406229.0,328908.0,301928.0,408903.0,436704.0,517584.0,487616.0,525158.0,444450.0,544900.0,477758.0,509431.0,499316.0,579733.0,482373.0,475495.0,525957.0,608210.0,378767.0,422313.0,454394.0,427529.0,446246.0,461721.0,464753.0,461798.0,441110.0,500132.0,539775.0,500126.0,482524.0,487610.0,388962.0,493163.0,506214.0,555283.0,533718.0,552394.0,577552.0,481826.0,541671.0,570094.0,358791.0,317812.0,351013.0,343094.0,351059.0,352771.0,365343.0,446568.0,343390.0,311713.0,409891.0,405122.0,407252.0,433924.0,363288.0,417925.0,403670.0,437865.0,411063.0,426171.0,424824.0,468235.0,413403.0,494857.0,182090.0,349987.0,373953.0,394762.0,392231.0,414215.0,423872.0,360615.0,403405.0,403260.0,442302.0,457779.0,448080.0,438946.0,386447.0,430983.0,387197.0,470877.0,398030.0,418551.0,443672.0,454527.0,469730.0,490201.0,233969.0,186606.0,281735.0,261343.0,-66061.0,-72234.0,-102715.0,-53691.0,-70449.0,-65886.0,-61791.0,-13292.0,-19459.0,20972.0,-31518.0,-35969.0,-4903.0,23443.0,8196.0,25911.0,370241.0,372406.0,406059.0,450617.0,234346.0,263852.0,385977.0,12686.0,47408.0,35023.0,9822.0,3248.0,28561.0,6769.0,18.0,40034.0,55941.0,-16723.0,35314.0,42357.0,45447.0,7643.0,56847.0,46172.0,372786.0,366009.0,449594.0,442112.0,374598.0,307855.0,262282.0,-60716.0,-85851.0,-87376.0,-61535.0,-92650.0,-18511.0,-44835.0,-41473.0,-36311.0,-58603.0,-41037.0,-40451.0,-17743.0,-4495.0,-7615.0,46899.0,305875.0,298851.0,333167.0,486624.0,483306.0,313210.0,283141.0,367098.0,45559.0,17293.0,27903.0,-13721.0,5781.0,32626.0,2729.0,-6647.0,55117.0,33316.0,12246.0,5483.0,20530.0,11848.0,49994.0,54023.0,46868.0,399288.0,408049.0,364618.0,464292.0,201563.0,127301.0,115128.0,170252.0,-63772.0,-78825.0,-92425.0,-59555.0,-66616.0,-9925.0,-16431.0,28919.0,20199.0,40729.0,-38935.0,-4144.0,13185.0,11583.0,11697.0,23287.0,337848.0,348649.0,406113.0,427841.0,236252.0,252209.0,237194.0,321466.0,342928.0,363193.0,381020.0,393577.0,482959.0,455690.0,485578.0,328105.0,370641.0,484814.0,387369.0,376969.0,431385.0,448857.0,453818.0,502979.0,432447.0,347433.0,435146.0,463220.0,353936.0,310720.0,264301.0,315577.0,293067.0,347527.0,339903.0,349445.0,328646.0,441339.0,370476.0,404273.0,373177.0,406321.0,368407.0,373095.0,406224.0,432655.0,417127.0,430035.0,360533.0,401277.0,455245.0,472596.0,410127.0,329397.0,380518.0,365791.0,345780.0,399943.0,395490.0,438830.0,424665.0,441719.0,482141.0,471497.0,441391.0,470733.0,422809.0,432655.0,583980.0,514033.0,512599.0,445937.0,394058.0,446324.0,457571.0,531386.0,270465.0,184798.0,235197.0,361908.0,353768.0,334391.0,403849.0,389665.0,401581.0,417803.0,442515.0,450128.0,428118.0,462293.0,413604.0,444549.0,468745.0,483830.0,473492.0,424067.0,440508.0,479865.0,456479.0,523814.0,372590.0,357143.0,297231.0,449352.0,467817.0,390221.0,467104.0,478656.0,587859.0,533494.0,577915.0,556935.0,495837.0,627252.0,541791.0,561358.0,572617.0,522122.0,528355.0,546879.0,526384.0,484208.0,549065.0,509331.0,385698.0,367101.0,419568.0,439489.0,453360.0,511992.0,432118.0,420950.0,484824.0,573377.0,600161.0,414683.0,390970.0,507947.0,600813.0,587696.0,526045.0,633603.0,578405.0,518000.0,566217.0,570970.0,643740.0,577036.0
1,00:05:01,37.0,606616.578947368,608230.578947368,579667.578947368,553053.578947368,725882.578947368,766519.578947368,682893.578947368,462475.578947368,484188.578947368,686918.578947368,738362.578947368,707788.578947368,691164.578947368,805713.578947368,810058.578947368,728012.578947368,642823.578947368,785088.578947368,849934.578947368,747296.578947368,670636.578947368,748927.578947368,705614.578947368,727206.578947368,390950.578947368,388080.578947368,411926.578947368,396328.578947368,526980.578947368,457753.578947368,467434.578947368,379484.578947368,308996.578947368,445628.578947368,473407.578947368,560414.578947368,565170.578947368,561402.578947368,523494.578947368,599456.578947368,548565.578947368,547237.578947368,558102.578947368,630973.578947368,528536.578947368,563806.578947368,600096.578947368,622359.578947368,443754.578947368,420691.578947368,498922.578947368,466260.578947368,454249.578947368,510547.578947368,499253.578947368,526986.578947368,450985.578947368,553779.578947368,607251.578947368,577900.578947368,546646.578947368,526930.578947368,440422.578947368,535284.578947368,591816.578947368,620052.578947368,590865.578947368,648491.578947368,640870.578947368,536780.578947368,558208.578947368,584274.578947368,345404.578947368,351000.578947368,359151.578947368,366687.578947368,360350.578947368,391305.578947368,391696.578947368,486632.578947368,383128.578947368,360775.578947368,432870.578947368,471077.578947368,440908.578947368,470353.578947368,366116.578947368,444179.578947368,428056.578947368,489232.578947368,471680.578947368,444336.578947368,479210.578947368,527828.578947368,498313.578947368,519698.578947368,187348.578947368,377676.578947368,398292.578947368,428649.578947368,447426.578947368,460328.578947368,480814.578947368,392384.578947368,442889.578947368,429500.578947368,474778.578947368,491668.578947368,458781.578947368,451476.578947368,438785.578947368,461820.578947368,405802.578947368,507670.578947368,466304.578947368,503629.578947368,470574.578947368,492000.578947368,549372.578947368,519799.578947368,241896.578947368,192876.578947368,320326.578947368,455669.578947368,-96386.4210526317,-56146.4210526317,-91264.4210526317,-54301.4210526317,-72005.4210526317,-62785.4210526317,-71528.4210526317,11368.5789473683,-100108.421052632,75253.5789473683,-28183.4210526317,-53232.4210526317,29694.5789473683,40842.5789473683,44655.5789473683,19487.5789473683,414294.578947368,419442.578947368,453712.578947368,542713.578947368,230521.578947368,269202.578947368,464348.578947368,8287.57894736831,73242.5789473683,38293.5789473683,22934.5789473683,15431.5789473683,39732.5789473683,37819.5789473683,-5552.42105263169,34209.5789473683,75539.5789473683,-21201.4210526317,26477.5789473683,20562.5789473683,35144.5789473683,49335.5789473683,75304.5789473683,66131.5789473683,412721.578947368,428054.578947368,443193.578947368,474546.578947368,390475.578947368,286500.578947368,311539.578947368,-86340.4210526317,-106417.421052632,-102753.421052632,-83976.4210526317,-109045.421052632,-33224.4210526317,-87816.4210526317,-129881.421052632,-119599.421052632,-55889.4210526317,-35516.4210526317,171.578947368311,-40644.4210526317,5238.57894736831,-5287.42105263169,56946.5789473683,549582.578947368,346360.578947368,355609.578947368,525973.578947368,543564.578947368,312967.578947368,305144.578947368,370955.578947368,53870.5789473683,-5634.42105263169,31581.5789473683,-6005.42105263169,31732.5789473683,51814.5789473683,-67187.4210526317,-61872.4210526317,58804.5789473683,23201.5789473683,37151.5789473683,18960.5789473683,41188.5789473683,8468.57894736831,83498.5789473683,45328.5789473683,46224.5789473683,432301.578947368,474923.578947368,432674.578947368,503859.578947368,234015.578947368,134118.578947368,114356.578947368,345241.578947368,-107744.421052632,-69405.4210526317,-83623.4210526317,-55485.4210526317,-66011.4210526317,-42854.4210526317,-33181.4210526317,45056.5789473683,35968.5789473683,125319.578947368,-31998.4210526317,27649.5789473683,35928.5789473683,18302.5789473683,57176.5789473683,24523.5789473683,384150.578947368,383093.578947368,446073.578947368,493988.578947368,257627.578947368,283439.578947368,221571.578947368,352640.578947368,373353.578947368,369880.578947368,427222.578947368,407260.578947368,518118.578947368,482786.578947368,524710.578947368,367338.578947368,395401.578947368,539137.578947368,391409.578947368,402276.578947368,468034.578947368,464596.578947368,488555.578947368,541463.578947368,468925.578947368,405193.578947368,474414.578947368,504915.578947368,379327.578947368,341298.578947368,285228.578947368,326941.578947368,312191.578947368,331427.578947368,350130.578947368,343577.578947368,345987.578947368,448725.578947368,422502.578947368,400365.578947368,387255.578947368,421108.578947368,395772.578947368,408352.578947368,436522.578947368,487110.578947368,450446.578947368,480120.578947368,405881.578947368,423914.578947368,481228.578947368,521910.578947368,456724.578947368,335000.578947368,429892.578947368,402311.578947368,376616.578947368,425135.578947368,451873.578947368,455866.578947368,453757.578947368,470518.578947368,515962.578947368,515905.578947368,455703.578947368,512245.578947368,450988.578947368,424305.578947368,622998.578947368,532554.578947368,559015.578947368,497706.578947368,440275.578947368,486329.578947368,530776.578947368,582050.578947368,281023.578947368,185274.578947368,247229.578947368,378391.578947368,363530.578947368,353755.578947368,425724.578947368,455308.578947368,473120.578947368,453031.578947368,454531.578947368,454858.578947368,479280.578947368,494209.578947368,470843.578947368,499982.578947368,486274.578947368,552658.578947368,499760.578947368,481942.578947368,488714.578947368,501537.578947368,517473.578947368,532756.578947368,407928.578947368,390906.578947368,311338.578947368,502095.578947368,515536.578947368,443737.578947368,489043.578947368,516977.578947368,659889.578947368,573440.578947368,607890.578947368,613726.578947368,549352.578947368,717349.578947368,587889.578947368,608719.578947368,649203.578947368,571398.578947368,554733.578947368,596390.578947368,603231.578947368,559736.578947368,637873.578947368,533079.578947368,430012.578947368,407958.578947368,443776.578947368,487153.578947368,462771.578947368,512370.578947368,467044.578947368,441884.578947368,534536.578947368,613408.578947368,670096.578947368,468931.578947368,426014.578947368,620253.578947368,662317.578947368,655650.578947368,565863.578947368,689086.578947368,641769.578947368,607772.578947368,596600.578947368,606816.578947368,704317.578947368,627239.578947368
2,00:10:02,37.0,672743.543859649,709427.543859649,661571.543859649,625767.543859649,806146.543859649,861478.543859649,782262.543859649,547281.543859649,560067.543859649,756614.543859649,867076.543859649,772844.543859649,790396.543859649,866650.543859649,895556.543859649,790436.543859649,741558.543859649,854694.543859649,937982.543859649,849446.543859649,752825.543859649,817961.543859649,808356.543859649,791284.543859649,434716.543859649,425916.543859649,467226.543859649,463865.543859649,598028.543859649,529552.543859649,485495.543859649,424459.543859649,369582.543859649,522284.543859649,555304.543859649,620793.543859649,601779.543859649,617715.543859649,593452.543859649,639564.543859649,621429.543859649,633255.543859649,641716.543859649,703394.543859649,579066.543859649,616059.543859649,677931.543859649,691999.543859649,476459.543859649,502179.543859649,536038.543859649,525674.543859649,544001.543859649,546962.543859649,563835.543859649,577568.543859649,521487.543859649,603809.543859649,661310.543859649,639823.543859649,596867.543859649,613042.543859649,515102.543859649,623036.543859649,653668.543859649,701945.543859649,648094.543859649,699076.543859649,720116.543859649,624556.543859649,630550.543859649,679496.543859649,417786.543859649,409995.543859649,421712.543859649,421319.543859649,414366.543859649,417619.543859649,444862.543859649,525978.543859649,426532.543859649,399010.543859649,507601.543859649,514441.543859649,447554.543859649,525259.543859649,443574.543859649,473737.543859649,499424.543859649,520166.543859649,534864.543859649,532898.543859649,549946.543859649,566746.543859649,536523.543859649,607330.543859649,234116.543859649,429278.543859649,491358.543859649,470271.543859649,472238.543859649,520402.543859649,519954.543859649,433708.543859649,473406.543859649,508054.543859649,549894.543859649,537167.543859649,535418.543859649,523820.543859649,480970.543859649,521116.543859649,484783.543859649,569278.543859649,505197.543859649,512380.543859649,550118.543859649,558081.543859649,605016.543859649,617005.543859649,264270.543859649,220237.543859649,357957.543859649,860908.543859649,-79839.4561403508,-36696.4561403508,-85781.4561403508,-1058.45614035078,-55753.4561403508,-65008.4561403508,-23329.4561403508,78624.5438596492,-41178.4561403508,171766.543859649,14967.5438596492,-3288.45614035078,82324.5438596492,84164.5438596492,48788.5438596492,51323.5438596492,495512.543859649,504330.543859649,524142.543859649,579351.543859649,291230.543859649,329586.543859649,493124.543859649,49443.5438596492,88310.5438596492,85666.5438596492,16676.5438596492,51789.5438596492,-18103.4561403508,7190.54385964922,26974.5438596492,2091.54385964922,96248.5438596492,12906.5438596492,55936.5438596492,73580.5438596492,58826.5438596492,93422.5438596492,79881.5438596492,77932.5438596492,445879.543859649,483347.543859649,528333.543859649,551497.543859649,436066.543859649,312901.543859649,347004.543859649,-83862.4561403508,-174754.456140351,-95335.4561403508,-26703.4561403508,-78598.4561403508,-129442.456140351,-36366.4561403508,-124287.456140351,-104187.456140351,-128994.456140351,-15830.4561403508,-71751.4561403508,-55832.4561403508,-23810.4561403508,17839.5438596492,-34773.4561403508,991670.543859649,346987.543859649,406835.543859649,606668.543859649,642165.543859649,339516.543859649,341968.543859649,458177.543859649,65852.5438596492,10942.5438596492,81397.5438596492,3823.54385964922,-60468.4561403508,-26653.4561403508,-88272.4561403508,-49883.4561403508,-25513.4561403508,-3884.45614035078,-29671.4561403508,35385.5438596492,98624.5438596492,34013.5438596492,110488.543859649,75882.5438596492,10480.5438596492,420190.543859649,475956.543859649,471632.543859649,556416.543859649,250282.543859649,140728.543859649,144046.543859649,660376.543859649,-105043.456140351,-78400.4561403508,-76796.4561403508,-65658.4561403508,-46256.4561403508,-3146.45614035078,-95325.4561403508,49797.5438596492,67291.5438596492,155309.543859649,-20049.4561403508,38642.5438596492,29179.5438596492,20908.5438596492,69285.5438596492,42456.5438596492,417326.543859649,462390.543859649,487990.543859649,508171.543859649,292493.543859649,302202.543859649,253127.543859649,364632.543859649,422599.543859649,423104.543859649,466884.543859649,429895.543859649,593854.543859649,540899.543859649,551727.543859649,380905.543859649,471199.543859649,581494.543859649,472097.543859649,461604.543859649,522715.543859649,541632.543859649,510037.543859649,571348.543859649,516098.543859649,452175.543859649,512111.543859649,551182.543859649,452234.543859649,379783.543859649,321980.543859649,347456.543859649,367150.543859649,398019.543859649,406214.543859649,413170.543859649,387912.543859649,496298.543859649,453527.543859649,466657.543859649,460147.543859649,463010.543859649,432028.543859649,441178.543859649,468010.543859649,538347.543859649,506402.543859649,556536.543859649,488334.543859649,499846.543859649,543153.543859649,570892.543859649,524839.543859649,387166.543859649,448255.543859649,456341.543859649,425290.543859649,481098.543859649,477780.543859649,532852.543859649,505177.543859649,502087.543859649,588121.543859649,490530.543859649,518817.543859649,532178.543859649,534252.543859649,488218.543859649,668749.543859649,583332.543859649,597656.543859649,528810.543859649,469584.543859649,544425.543859649,566885.543859649,643029.543859649,352293.543859649,222604.543859649,295084.543859649,421361.543859649,427368.543859649,383852.543859649,485209.543859649,488521.543859649,508176.543859649,508792.543859649,513059.543859649,526987.543859649,481840.543859649,496949.543859649,508572.543859649,555802.543859649,571027.543859649,588153.543859649,570025.543859649,537282.543859649,537455.543859649,598820.543859649,559777.543859649,575558.543859649,435291.543859649,445625.543859649,360350.543859649,541080.543859649,546249.543859649,474272.543859649,528362.543859649,559371.543859649,712259.543859649,644064.543859649,661783.543859649,642260.543859649,579258.543859649,753710.543859649,654015.543859649,661559.543859649,680148.543859649,645519.543859649,639212.543859649,643306.543859649,645265.543859649,605438.543859649,642182.543859649,566295.543859649,458827.543859649,437197.543859649,473765.543859649,500562.543859649,504266.543859649,589269.543859649,474442.543859649,484888.543859649,589646.543859649,690054.543859649,728714.543859649,495898.543859649,447702.543859649,633234.543859649,722348.543859649,731115.543859649,626963.543859649,711922.543859649,668029.543859649,681807.543859649,646140.543859649,683930.543859649,757080.543859649,643030.543859649
3,00:15:04,37.0,677631.701754386,760375.701754386,711291.701754386,672095.701754386,854245.701754386,909277.701754386,845465.701754386,602324.701754386,607217.701754386,815127.701754386,911162.701754386,867947.701754386,838776.701754386,964577.701754386,986967.701754386,885806.701754386,784270.701754386,943013.701754386,1024610.70175439,925983.701754386,804411.701754386,883248.701754386,861576.701754386,804383.701754386,483853.701754386,479671.701754386,482780.701754386,511005.701754386,677665.701754386,587908.701754386,538329.701754386,477063.701754386,439945.701754386,541620.701754386,575560.701754386,660543.701754386,666477.701754386,651809.701754386,647363.701754386,677448.701754386,690543.701754386,687533.701754386,696723.701754386,790498.701754386,675863.701754386,690281.701754386,738887.701754386,688220.701754386,559177.701754386,542017.701754386,615937.701754386,574952.701754386,600362.701754386,610474.701754386,629315.701754386,634247.701754386,560644.701754386,666024.701754386,708249.701754386,691136.701754386,686674.701754386,652749.701754386,572579.701754386,681665.701754386,718099.701754386,752087.701754386,685335.701754386,737458.701754386,795130.701754386,696183.701754386,720161.701754386,725662.701754386,457490.701754386,451043.701754386,496647.701754386,468924.701754386,460491.701754386,473112.701754386,496873.701754386,594259.701754386,440010.701754386,451774.701754386,533646.701754386,584877.701754386,539550.701754386,576287.701754386,504636.701754386,560172.701754386,562787.701754386,572613.701754386,613835.701754386,589141.701754386,582978.701754386,681223.701754386,614232.701754386,659962.701754386,250987.701754386,462775.701754386,529633.701754386,536469.701754386,558444.701754386,563239.701754386,579531.701754386,483589.701754386,553380.701754386,562301.701754386,584877.701754386,608259.701754386,573394.701754386,590236.701754386,545394.701754386,578009.701754386,524060.701754386,648124.701754386,602436.701754386,583079.701754386,599670.701754386,631482.701754386,666173.701754386,674438.701754386,302007.701754386,281858.701754386,396949.701754386,1525968.70175439,-32589.2982456139,17768.7017543861,-39632.2982456139,48080.7017543861,-69273.2982456139,-15398.2982456139,3970.70175438607,152327.701754386,-78087.2982456139,245701.701754386,63598.7017543861,46015.7017543861,126572.701754386,83984.7017543861,106725.701754386,134916.701754386,525896.701754386,550250.701754386,548283.701754386,626295.701754386,321105.701754386,375374.701754386,544834.701754386,99807.7017543861,120376.701754386,-6787.29824561393,97879.7017543861,-10181.2982456139,10675.7017543861,14139.7017543861,95863.7017543861,9377.70175438607,38347.7017543861,54839.7017543861,81517.7017543861,68846.7017543861,97514.7017543861,54027.7017543861,151095.701754386,44977.7017543861,502572.701754386,533421.701754386,570509.701754386,622322.701754386,426833.701754386,378214.701754386,383193.701754386,-63610.2982456139,-166524.298245614,-65944.2982456139,-163244.298245614,-142813.298245614,-111485.298245614,-31887.2982456139,-146282.298245614,-48393.2982456139,-100554.298245614,-128034.298245614,-92518.2982456139,-77248.2982456139,-72763.2982456139,-42520.2982456139,-23813.2982456139,1639500.70175439,363883.701754386,440825.701754386,655430.701754386,698018.701754386,401020.701754386,348867.701754386,446717.701754386,36323.7017543861,35078.7017543861,-65249.2982456139,82266.7017543861,-54276.2982456139,-7098.29824561393,-51190.2982456139,-30023.2982456139,9236.70175438607,15147.7017543861,-11030.2982456139,-36751.2982456139,-32482.2982456139,58255.7017543861,15782.7017543861,8132.70175438607,23067.7017543861,478812.701754386,511871.701754386,536567.701754386,626803.701754386,256184.701754386,164720.701754386,177638.701754386,1177594.70175439,-36318.2982456139,255.701754386071,-43065.2982456139,5912.70175438607,-100731.298245614,-92965.2982456139,-63593.2982456139,88512.7017543861,24563.7017543861,195830.701754386,54926.7017543861,93540.7017543861,-57393.2982456139,93880.7017543861,1417.70175438607,104771.701754386,469024.701754386,484777.701754386,552247.701754386,601132.701754386,362941.701754386,329546.701754386,286523.701754386,398019.701754386,457480.701754386,472140.701754386,526226.701754386,478084.701754386,615763.701754386,564449.701754386,619403.701754386,421859.701754386,492360.701754386,622851.701754386,474573.701754386,512739.701754386,588979.701754386,603565.701754386,583580.701754386,640054.701754386,544802.701754386,529397.701754386,559301.701754386,617866.701754386,496676.701754386,461159.701754386,385110.701754386,406967.701754386,407534.701754386,443322.701754386,426900.701754386,449445.701754386,463319.701754386,570362.701754386,499095.701754386,517172.701754386,463084.701754386,496789.701754386,466033.701754386,508691.701754386,538373.701754386,618767.701754386,544963.701754386,597642.701754386,496749.701754386,549723.701754386,605615.701754386,640492.701754386,539793.701754386,453711.701754386,504987.701754386,501181.701754386,469789.701754386,529780.701754386,556408.701754386,561898.701754386,534931.701754386,561178.701754386,626941.701754386,592379.701754386,560034.701754386,633385.701754386,559797.701754386,522844.701754386,736215.701754386,644927.701754386,692198.701754386,605460.701754386,517438.701754386,595955.701754386,613683.701754386,671091.701754386,361883.701754386,230572.701754386,311877.701754386,459757.701754386,456128.701754386,420447.701754386,553400.701754386,504167.701754386,560725.701754386,533302.701754386,565309.701754386,551319.701754386,552844.701754386,592795.701754386,539359.701754386,576527.701754386,620999.701754386,625419.701754386,581740.701754386,562435.701754386,570720.701754386,633448.701754386,667459.701754386,602501.701754386,469903.701754386,471181.701754386,412750.701754386,608994.701754386,612862.701754386,520015.701754386,606939.701754386,623375.701754386,763085.701754386,696678.701754386,711935.701754386,683057.701754386,622793.701754386,827498.701754386,721729.701754386,719076.701754386,730616.701754386,708849.701754386,683568.701754386,697652.701754386,720277.701754386,657800.701754386,674528.701754386,633205.701754386,484935.701754386,466689.701754386,514794.701754386,560922.701754386,557243.701754386,624558.701754386,536144.701754386,546012.701754386,617984.701754386,728348.701754386,800911.701754386,548619.701754386,523120.701754386,671750.701754386,755493.701754386,738121.701754386,699640.701754386,741841.701754386,728461.701754386,765906.701754386,712338.701754386,737328.701754386,808490.701754386,651853.701754386
4,00:20:05,37.0,740485.403508772,813979.403508772,754614.403508772,726556.403508772,942092.403508772,996952.403508772,887114.403508772,658226.403508772,677435.403508772,892631.403508772,973397.403508772,915128.403508772,898479.403508772,1042187.40350877,1037191.40350877,958591.403508772,833682.403508772,1012874.40350877,1081057.40350877,991721.403508772,875834.403508772,965970.403508772,906604.403508772,859924.403508772,515692.403508772,508684.403508772,519340.403508772,560848.403508772,695677.403508772,623609.403508772,596536.403508772,517812.403508772,450034.403508772,583828.403508772,617060.403508772,733173.403508772,746837.403508772,694898.403508772,667756.403508772,743826.403508772,735272.403508772,746176.403508772,738648.403508772,824640.403508772,712390.403508772,738671.403508772,785341.403508772,768190.403508772,595551.403508772,597869.403508772,658426.403508772,633071.403508772,651711.403508772,662576.403508772,670073.403508772,664791.403508772,648011.403508772,719009.403508772,776148.403508772,754205.403508772,707014.403508772,720858.403508772,623153.403508772,723503.403508772,764604.403508772,828503.403508772,765085.403508772,821188.403508772,834777.403508772,743826.403508772,761961.403508772,708563.403508772,431739.403508772,473577.403508772,535931.403508772,522866.403508772,524750.403508772,497962.403508772,534221.403508772,633807.403508772,511246.403508772,480124.403508772,574974.403508772,632698.403508772,574074.403508772,630352.403508772,568509.403508772,580242.403508772,582598.403508772,625102.403508772,662954.403508772,561221.403508772,616077.403508772,695863.403508772,653033.403508772,721001.403508772,282547.403508772,471784.403508772,555270.403508772,577616.403508772,604978.403508772,623178.403508772,625657.403508772,528098.403508772,617232.403508772,632908.403508772,683932.403508772,697031.403508772,657202.403508772,657365.403508772,603837.403508772,626798.403508772,583295.403508772,721811.403508772,632614.403508772,575020.403508772,649544.403508772,701849.403508772,725781.403508772,727560.403508772,326920.403508772,307938.403508772,424502.403508772,2277092.40350877,-72662.5964912281,32377.4035087719,-51546.5964912281,114625.403508772,-84771.5964912281,11299.4035087719,-11030.5964912281,122535.403508772,-41376.5964912281,289745.403508772,99514.4035087719,73167.4035087719,168725.403508772,165387.403508772,160290.403508772,107471.403508772,580822.403508772,612648.403508772,577485.403508772,693208.403508772,267784.403508772,361767.403508772,539460.403508772,-20609.5964912281,24488.4035087719,-11161.5964912281,13257.4035087719,-18511.5964912281,9111.40350877191,30450.4035087719,25050.4035087719,31589.4035087719,61087.4035087719,22385.4035087719,112465.403508772,75697.4035087719,128442.403508772,85931.4035087719,78409.4035087719,49666.4035087719,538555.403508772,525552.403508772,631570.403508772,680395.403508772,468586.403508772,388414.403508772,400502.403508772,-79022.5964912281,-142527.596491228,-108649.596491228,-104287.596491228,-111116.596491228,-82742.5964912281,13170.4035087719,-102154.596491228,7472.40350877191,-115521.596491228,-91859.5964912281,-56728.5964912281,-64925.5964912281,-43613.5964912281,-12158.5964912281,44487.4035087719,2536366.40350877,432382.403508772,446986.403508772,665623.403508772,706514.403508772,453745.403508772,378362.403508772,547871.403508772,-16036.5964912281,-50993.5964912281,-29812.5964912281,-1202.59649122809,-35739.5964912281,31537.4035087719,-3411.59649122809,-15336.5964912281,46672.4035087719,52531.4035087719,-16574.5964912281,-15535.5964912281,42980.4035087719,-4636.59649122809,42727.4035087719,46514.4035087719,27662.4035087719,475730.403508772,570195.403508772,639032.403508772,696131.403508772,300994.403508772,192147.403508772,195076.403508772,1768284.40350877,-111569.596491228,11477.4035087719,-73277.5964912281,-45655.5964912281,-95426.5964912281,-64388.5964912281,-63435.5964912281,123214.403508772,20411.4035087719,227545.403508772,-20723.5964912281,138882.403508772,-19127.5964912281,122900.403508772,7632.40350877191,14016.4035087719,465762.403508772,551004.403508772,534010.403508772,676176.403508772,354771.403508772,335563.403508772,335345.403508772,463594.403508772,520360.403508772,518763.403508772,568911.403508772,534615.403508772,685368.403508772,616763.403508772,655317.403508772,505573.403508772,555663.403508772,694754.403508772,572945.403508772,556638.403508772,636603.403508772,639814.403508772,654632.403508772,722373.403508772,614630.403508772,463524.403508772,624686.403508772,660812.403508772,483384.403508772,440257.403508772,404948.403508772,432956.403508772,431072.403508772,454290.403508772,452233.403508772,505291.403508772,464385.403508772,620444.403508772,548765.403508772,558983.403508772,549521.403508772,560757.403508772,517446.403508772,574274.403508772,575136.403508772,632949.403508772,605635.403508772,634562.403508772,551751.403508772,592749.403508772,679317.403508772,706550.403508772,579702.403508772,494500.403508772,529768.403508772,539919.403508772,525931.403508772,578087.403508772,597151.403508772,619382.403508772,576477.403508772,620573.403508772,684198.403508772,635966.403508772,609145.403508772,690020.403508772,626885.403508772,613126.403508772,798012.403508772,713124.403508772,720362.403508772,663064.403508772,609359.403508772,631792.403508772,695365.403508772,677854.403508772,419040.403508772,295367.403508772,364332.403508772,499484.403508772,495539.403508772,467128.403508772,586536.403508772,566349.403508772,611442.403508772,582338.403508772,601854.403508772,627292.403508772,599089.403508772,602882.403508772,600371.403508772,674581.403508772,609908.403508772,688650.403508772,650902.403508772,629719.403508772,638654.403508772,604305.403508772,653367.403508772,674441.403508772,509161.403508772,517408.403508772,446954.403508772,671914.403508772,656025.403508772,586496.403508772,647282.403508772,684160.403508772,822973.403508772,712752.403508772,807142.403508772,772490.403508772,683085.403508772,869664.403508772,782283.403508772,780641.403508772,806858.403508772,743421.403508772,743421.403508772,765456.403508772,761847.403508772,691685.403508772,723920.403508772,658305.403508772,528610.403508772,474448.403508772,506855.403508772,635230.403508772,617113.403508772,666560.403508772,563424.403508772,586255.403508772,682952.403508772,761692.403508772,826442.403508772,579925.403508772,550069.403508772,681991.403508772,807756.403508772,809611.403508772,731432.403508772,813309.403508772,784442.403508772,778162.403508772,764824.403508772,795003.403508772,863603.403508772,707089.403508772
5,00:25:06,37.0,761436.403508772,863122.403508772,795891.403508772,787183.403508772,980496.403508772,993480.403508772,929215.403508772,697873.403508772,689514.403508772,962500.403508772,1019903.40350877,957327.403508772,952961.403508772,1044814.40350877,1049432.40350877,1030392.40350877,872897.403508772,1049340.40350877,1099166.40350877,1045689.40350877,903095.403508772,972898.403508772,960189.403508772,850718.403508772,567841.403508772,569957.403508772,579083.403508772,581874.403508772,790335.403508772,655063.403508772,633102.403508772,581823.403508772,493333.403508772,641084.403508772,648131.403508772,766609.403508772,738540.403508772,768171.403508772,721697.403508772,756836.403508772,753712.403508772,764843.403508772,815295.403508772,848142.403508772,752111.403508772,788408.403508772,854166.403508772,820328.403508772,563269.403508772,630793.403508772,710243.403508772,667118.403508772,685432.403508772,688395.403508772,696954.403508772,722018.403508772,682428.403508772,665148.403508772,790117.403508772,780936.403508772,748274.403508772,739942.403508772,649804.403508772,758831.403508772,829641.403508772,854776.403508772,785040.403508772,865147.403508772,861786.403508772,705081.403508772,786920.403508772,750863.403508772,478199.403508772,559478.403508772,590262.403508772,529579.403508772,593653.403508772,519088.403508772,589064.403508772,680113.403508772,533823.403508772,498226.403508772,622859.403508772,620744.403508772,597174.403508772,635889.403508772,559071.403508772,656102.403508772,646234.403508772,678823.403508772,685088.403508772,665578.403508772,679626.403508772,736985.403508772,710172.403508772,797099.403508772,319173.403508772,506985.403508772,583918.403508772,603772.403508772,627399.403508772,608103.403508772,640973.403508772,556340.403508772,644596.403508772,619957.403508772,641087.403508772,677216.403508772,660166.403508772,671202.403508772,611007.403508772,698400.403508772,602272.403508772,734735.403508772,681138.403508772,610188.403508772,643824.403508772,706938.403508772,731474.403508772,700882.403508772,367231.403508772,294698.403508772,481416.403508772,3256938.40350877,-67592.5964912281,79822.4035087719,-111019.596491228,53594.4035087719,-50777.5964912281,-27511.5964912281,-23328.5964912281,146970.403508772,-33916.5964912281,381222.403508772,24429.4035087719,23003.4035087719,23531.4035087719,204306.403508772,48893.4035087719,62077.4035087719,613987.403508772,648485.403508772,646292.403508772,620837.403508772,313544.403508772,392750.403508772,586942.403508772,-4278.59649122809,7066.40350877191,-3781.59649122809,25614.4035087719,16944.4035087719,10479.4035087719,79528.4035087719,46186.4035087719,40155.4035087719,88790.4035087719,-7192.59649122809,6361.40350877191,47792.4035087719,45912.4035087719,55817.4035087719,67214.4035087719,77784.4035087719,553753.403508772,520544.403508772,604037.403508772,611171.403508772,495939.403508772,436513.403508772,406343.403508772,-76473.5964912281,-118843.596491228,-87706.5964912281,-106882.596491228,-99094.5964912281,-46513.5964912281,48088.4035087719,-91785.5964912281,12040.4035087719,-105048.596491228,-73828.5964912281,-39937.5964912281,-51045.5964912281,-50701.5964912281,37035.4035087719,54578.4035087719,3676154.40350877,443584.403508772,476646.403508772,699216.403508772,692083.403508772,484611.403508772,391603.403508772,555284.403508772,-9625.59649122809,-47365.5964912281,-16864.5964912281,11873.4035087719,-8379.59649122809,39234.4035087719,33182.4035087719,47744.4035087719,59416.4035087719,40221.4035087719,-8651.59649122809,36113.4035087719,36826.4035087719,-21910.5964912281,43981.4035087719,60494.4035087719,73797.4035087719,534571.403508772,583242.403508772,583229.403508772,594297.403508772,343766.403508772,199132.403508772,252859.403508772,2631844.40350877,-105621.596491228,44832.4035087719,-93012.5964912281,-16851.5964912281,-89951.5964912281,-13511.5964912281,-37674.5964912281,148344.403508772,47330.4035087719,287079.403508772,-4682.59649122809,172610.403508772,8045.40350877191,15287.4035087719,71137.4035087719,28036.4035087719,503910.403508772,552529.403508772,548240.403508772,671465.403508772,381382.403508772,421735.403508772,373179.403508772,484585.403508772,538055.403508772,549763.403508772,586203.403508772,572670.403508772,694968.403508772,642552.403508772,690032.403508772,544357.403508772,577274.403508772,718023.403508772,532692.403508772,572301.403508772,644419.403508772,658997.403508772,669921.403508772,707026.403508772,630760.403508772,494881.403508772,624841.403508772,698965.403508772,483061.403508772,441692.403508772,432741.403508772,460513.403508772,461830.403508772,508538.403508772,480415.403508772,556616.403508772,508141.403508772,647325.403508772,551588.403508772,582388.403508772,545317.403508772,578269.403508772,541582.403508772,553466.403508772,623709.403508772,656720.403508772,640944.403508772,679145.403508772,587480.403508772,536697.403508772,690183.403508772,727993.403508772,609803.403508772,509567.403508772,578679.403508772,550996.403508772,558918.403508772,591282.403508772,615672.403508772,608653.403508772,635698.403508772,630105.403508772,715566.403508772,680361.403508772,644604.403508772,670448.403508772,635009.403508772,608703.403508772,833862.403508772,748312.403508772,739105.403508772,652460.403508772,565272.403508772,641209.403508772,677672.403508772,673911.403508772,439401.403508772,295036.403508772,402848.403508772,502418.403508772,534726.403508772,492722.403508772,594827.403508772,607290.403508772,626808.403508772,601270.403508772,646230.403508772,633418.403508772,636846.403508772,642308.403508772,601715.403508772,657512.403508772,580030.403508772,687594.403508772,690209.403508772,661339.403508772,686190.403508772,639490.403508772,691028.403508772,671370.403508772,535492.403508772,548743.403508772,469158.403508772,655815.403508772,668114.403508772,606287.403508772,665702.403508772,675376.403508772,841306.403508772,770774.403508772,777373.403508772,802267.403508772,704631.403508772,903494.403508772,804377.403508772,805368.403508772,800588.403508772,759202.403508772,767974.403508772,795907.403508772,771516.403508772,727048.403508772,744732.403508772,672850.403508772,556254.403508772,534673.403508772,535539.403508772,635075.403508772,647100.403508772,706699.403508772,588246.403508772,594547.403508772,726772.403508772,789488.403508772,875806.403508772,619771.403508772,593427.403508772,700702.403508772,832962.403508772,809216.403508772,749585.403508772,872550.403508772,799854.403508772,793623.403508772,715494.403508772,817490.403508772,937147.403508772,738501.403508772
6,00:30:07,37.0,803154.140350877,794538.140350877,813664.140350877,804332.140350877,967284.140350877,1054465.14035088,961374.140350877,671714.140350877,690948.140350877,983105.140350877,1026246.14035088,987675.140350877,962196.140350877,1077190.14035088,1073068.14035088,1043831.14035088,906452.140350877,1047709.14035088,1119504.14035088,1097554.14035088,927646.140350877,997958.140350877,1000800.14035088,926224.140350877,560231.140350877,545257.140350877,613310.140350877,601632.140350877,758838.140350877,670118.140350877,628429.140350877,587847.140350877,530743.140350877,663471.140350877,661376.140350877,774720.140350877,731443.140350877,767613.140350877,708793.140350877,835467.140350877,774923.140350877,802864.140350877,829542.140350877,901456.140350877,775539.140350877,792108.140350877,878331.140350877,839628.140350877,524524.140350877,624283.140350877,696358.140350877,586602.140350877,707870.140350877,703788.140350877,682730.140350877,731974.140350877,658926.140350877,704826.140350877,785534.140350877,847737.140350877,750703.140350877,774115.140350877,654044.140350877,765998.140350877,776884.140350877,862584.140350877,805633.140350877,806209.140350877,900151.140350877,690687.140350877,804535.140350877,736377.140350877,458572.140350877,515347.140350877,554274.140350877,568314.140350877,561794.140350877,550739.140350877,567456.140350877,677823.140350877,534075.140350877,501106.140350877,618119.140350877,634788.140350877,621808.140350877,661654.140350877,575987.140350877,623918.140350877,629847.140350877,690802.140350877,713152.140350877,651285.140350877,711976.140350877,756069.140350877,693726.140350877,734302.140350877,258273.140350877,513799.140350877,606866.140350877,627150.140350877,631169.140350877,631249.140350877,643011.140350877,552493.140350877,648874.140350877,653534.140350877,672324.140350877,721457.140350877,680538.140350877,704941.140350877,611546.140350877,676733.140350877,614924.140350877,756637.140350877,615797.140350877,588072.140350877,659367.140350877,654774.140350877,691840.140350877,659300.140350877,343376.140350877,305170.140350877,463650.140350877,4186152.14035088,-74019.8596491227,14595.1403508773,-79999.8596491227,65741.1403508773,-84762.8596491227,-56962.8596491227,-40721.8596491227,131177.140350877,-23701.8596491227,396971.140350877,41664.1403508773,14775.1403508773,28324.1403508773,187478.140350877,45466.1403508773,88998.1403508773,568970.140350877,554259.140350877,655812.140350877,654707.140350877,305213.140350877,382159.140350877,576032.140350877,-16439.8596491227,15575.1403508773,21407.1403508773,19448.1403508773,14468.1403508773,31777.1403508773,30439.1403508773,22719.1403508773,61414.1403508773,92964.1403508773,-26336.8596491227,20900.1403508773,54038.1403508773,38782.1403508773,79088.1403508773,72866.1403508773,82152.1403508773,522011.140350877,519359.140350877,624742.140350877,619948.140350877,462454.140350877,452654.140350877,435075.140350877,-102986.859649123,-138885.859649123,-95811.8596491227,-126564.859649123,-94618.8596491227,-54574.8596491227,46618.1403508773,-105527.859649123,35557.1403508773,-76261.8596491227,-73224.8596491227,-69527.8596491227,-64312.8596491227,-33047.8596491227,40717.1403508773,54938.1403508773,4673034.14035088,434108.140350877,507766.140350877,691045.140350877,705144.140350877,473316.140350877,402688.140350877,552180.140350877,5313.14035087731,-10705.8596491227,-4092.85964912269,-16999.8596491227,9532.14035087731,24167.1403508773,10390.1403508773,13520.1403508773,64572.1403508773,63950.1403508773,17258.1403508773,44774.1403508773,53716.1403508773,23320.1403508773,60630.1403508773,73237.1403508773,87826.1403508773,559333.140350877,595728.140350877,606388.140350877,632668.140350877,286244.140350877,233515.140350877,241876.140350877,3454486.14035088,-109545.859649123,6588.14035087731,-90957.8596491227,1518.14035087731,-95071.8596491227,-34156.8596491227,-67453.8596491227,181789.140350877,31152.1403508773,302828.140350877,-74168.8596491227,26912.1403508773,7580.14035087731,25806.1403508773,34057.1403508773,49176.1403508773,500136.140350877,547155.140350877,532296.140350877,645548.140350877,413956.140350877,356609.140350877,375989.140350877,487988.140350877,543401.140350877,547720.140350877,624300.140350877,620741.140350877,703970.140350877,634452.140350877,688484.140350877,515654.140350877,599680.140350877,743936.140350877,590863.140350877,592528.140350877,656110.140350877,684587.140350877,705516.140350877,650419.140350877,639576.140350877,505832.140350877,682007.140350877,617428.140350877,477117.140350877,463971.140350877,455783.140350877,487550.140350877,446788.140350877,507385.140350877,503464.140350877,532882.140350877,514828.140350877,622933.140350877,573020.140350877,599153.140350877,561422.140350877,584186.140350877,561152.140350877,580019.140350877,608166.140350877,652005.140350877,658254.140350877,684745.140350877,608594.140350877,558422.140350877,702261.140350877,754262.140350877,596452.140350877,538894.140350877,567614.140350877,567319.140350877,573997.140350877,615401.140350877,642035.140350877,640438.140350877,625076.140350877,640602.140350877,739281.140350877,715716.140350877,632410.140350877,700278.140350877,651823.140350877,623048.140350877,835133.140350877,746012.140350877,756512.140350877,680156.140350877,580056.140350877,670397.140350877,722406.140350877,690749.140350877,384811.140350877,294812.140350877,400897.140350877,526434.140350877,570394.140350877,504918.140350877,566510.140350877,582146.140350877,653140.140350877,625076.140350877,645526.140350877,644949.140350877,631732.140350877,631683.140350877,658052.140350877,670763.140350877,628422.140350877,721416.140350877,693515.140350877,666718.140350877,655015.140350877,647205.140350877,753811.140350877,723389.140350877,502209.140350877,545830.140350877,477857.140350877,681856.140350877,717378.140350877,601276.140350877,677727.140350877,704892.140350877,851536.140350877,782991.140350877,829489.140350877,790752.140350877,714977.140350877,945769.140350877,831651.140350877,849235.140350877,822775.140350877,794921.140350877,779084.140350877,796464.140350877,805624.140350877,778073.140350877,741192.140350877,719084.140350877,550425.140350877,543568.140350877,551400.140350877,648016.140350877,665503.140350877,690424.140350877,613061.140350877,581403.140350877,712000.140350877,826038.140350877,866161.140350877,618286.140350877,587200.140350877,709508.140350877,841650.140350877,844494.140350877,744955.140350877,861850.140350877,803058.140350877,824568.140350877,725296.140350877,835324.140350877,873646.140350877,756464.140350877
7,00:35:09,37.0,752674.561403509,786722.561403509,827576.561403509,802435.561403509,975775.561403509,1067090.56140351,977647.561403509,677755.561403509,731435.561403509,975687.561403509,1018346.56140351,991177.561403509,974481.561403509,1088929.56140351,1084625.56140351,1000499.56140351,889392.561403509,1082672.56140351,1134899.56140351,1058606.56140351,941754.561403509,970133.561403509,969401.561403509,903723.561403509,561156.561403509,554211.561403509,582851.561403509,598954.561403509,745327.561403509,674966.561403509,582322.561403509,607091.561403509,455951.561403509,644427.561403509,685358.561403509,805027.561403509,787760.561403509,752602.561403509,731806.561403509,811383.561403509,755844.561403509,793824.561403509,721224.561403509,870208.561403509,745154.561403509,822699.561403509,778317.561403509,813256.561403509,561015.561403509,646827.561403509,730516.561403509,614168.561403509,694802.561403509,730189.561403509,700035.561403509,691466.561403509,670371.561403509,695405.561403509,832428.561403509,789135.561403509,757394.561403509,781030.561403509,670330.561403509,760725.561403509,827564.561403509,865241.561403509,815332.561403509,813468.561403509,775545.561403509,686306.561403509,800627.561403509,736619.561403509,485065.561403509,567457.561403509,562416.561403509,573874.561403509,577049.561403509,525204.561403509,574466.561403509,672671.561403509,554842.561403509,525625.561403509,600243.561403509,662996.561403509,643057.561403509,701519.561403509,603965.561403509,634059.561403509,646743.561403509,697582.561403509,664030.561403509,684913.561403509,676481.561403509,758036.561403509,729291.561403509,765540.561403509,279528.561403509,508401.561403509,628065.561403509,626640.561403509,647465.561403509,667592.561403509,699643.561403509,564951.561403509,646037.561403509,615821.561403509,699897.561403509,708303.561403509,678502.561403509,677944.561403509,626802.561403509,659264.561403509,627844.561403509,759594.561403509,638591.561403509,637684.561403509,677807.561403509,630987.561403509,687091.561403509,717358.561403509,392140.561403509,320000.561403509,412216.561403509,4919335.56140351,-55923.4385964912,46511.5614035088,-62198.4385964912,100247.561403509,-82676.4385964912,-21508.4385964912,-67571.4385964912,145821.561403509,-64943.4385964912,238243.561403509,-1716.43859649124,-888.438596491236,20393.5614035088,107149.561403509,52781.5614035088,75406.5614035088,571498.561403509,574934.561403509,618056.561403509,641184.561403509,303147.561403509,369515.561403509,581757.561403509,-20910.4385964912,24115.5614035088,-16690.4385964912,7136.56140350876,23884.5614035088,20066.5614035088,39802.5614035088,55812.5614035088,45887.5614035088,126799.561403509,7188.56140350876,5659.56140350876,64508.5614035088,54469.5614035088,74759.5614035088,61040.5614035088,78508.5614035088,540653.561403509,555818.561403509,603616.561403509,638250.561403509,492149.561403509,467426.561403509,410138.561403509,-112880.438596491,-126340.438596491,-82509.4385964912,-86366.4385964912,-95114.4385964912,-61578.4385964912,70479.5614035088,-63386.4385964912,21062.5614035088,-83656.4385964912,-80103.4385964912,-63447.4385964912,-68505.4385964912,-31466.4385964912,39339.5614035088,52295.5614035088,5706899.56140351,450157.561403509,477824.561403509,683953.561403509,683108.561403509,478105.561403509,395799.561403509,503030.561403509,23231.5614035088,-29802.4385964912,-13390.4385964912,-8256.43859649124,18699.5614035088,63820.5614035088,-3762.43859649124,1398.56140350876,65020.5614035088,61528.5614035088,6308.56140350876,15580.5614035088,56368.5614035088,14051.5614035088,76200.5614035088,55674.5614035088,65877.5614035088,566945.561403509,607105.561403509,546712.561403509,635569.561403509,290419.561403509,236266.561403509,236329.561403509,4136221.56140351,-93833.4385964912,8801.56140350876,-107323.438596491,16531.5614035088,-73237.4385964912,-7695.43859649124,-66739.4385964912,167257.561403509,-16431.4385964912,339771.561403509,-58401.4385964912,11185.5614035088,21178.5614035088,23281.5614035088,27537.5614035088,47899.5614035088,507118.561403509,531435.561403509,554388.561403509,626932.561403509,393547.561403509,356545.561403509,371830.561403509,499030.561403509,539193.561403509,549539.561403509,617559.561403509,608130.561403509,726880.561403509,653129.561403509,710945.561403509,499227.561403509,567203.561403509,731885.561403509,592498.561403509,594466.561403509,687945.561403509,652029.561403509,687829.561403509,646770.561403509,677913.561403509,531160.561403509,667980.561403509,600703.561403509,454067.561403509,473227.561403509,422061.561403509,470571.561403509,477061.561403509,524866.561403509,520689.561403509,545926.561403509,516753.561403509,637342.561403509,575253.561403509,620304.561403509,567010.561403509,592085.561403509,523256.561403509,588032.561403509,622075.561403509,666543.561403509,640323.561403509,648564.561403509,580932.561403509,555881.561403509,706427.561403509,741503.561403509,647016.561403509,527656.561403509,573989.561403509,580049.561403509,566947.561403509,636111.561403509,637580.561403509,669731.561403509,640640.561403509,667653.561403509,697230.561403509,682987.561403509,651208.561403509,724564.561403509,673954.561403509,651508.561403509,847374.561403509,759016.561403509,767864.561403509,710180.561403509,619247.561403509,695194.561403509,707655.561403509,714001.561403509,382596.561403509,311763.561403509,404355.561403509,516815.561403509,522435.561403509,481970.561403509,609470.561403509,601232.561403509,660078.561403509,618552.561403509,640853.561403509,643237.561403509,636568.561403509,672612.561403509,644888.561403509,666958.561403509,623268.561403509,709253.561403509,699154.561403509,672232.561403509,661016.561403509,652492.561403509,742644.561403509,700052.561403509,525770.561403509,537292.561403509,496507.561403509,677929.561403509,712428.561403509,611405.561403509,679719.561403509,711176.561403509,860689.561403509,792146.561403509,858447.561403509,820097.561403509,724774.561403509,906035.561403509,823931.561403509,830650.561403509,840465.561403509,815181.561403509,807408.561403509,812523.561403509,809743.561403509,747522.561403509,750025.561403509,710157.561403509,557850.561403509,580433.561403509,519508.561403509,634666.561403509,615029.561403509,724125.561403509,597759.561403509,641877.561403509,743558.561403509,823341.561403509,870034.561403509,604341.561403509,586455.561403509,749749.561403509,838518.561403509,846091.561403509,763462.561403509,881122.561403509,773728.561403509,825731.561403509,753393.561403509,826490.561403509,848301.561403509,771119.561403509
8,00:40:10,37.0,763833.385964912,843861.385964912,842364.385964912,818770.385964912,1014469.38596491,1060563.38596491,977585.385964912,738397.385964912,732394.385964912,997599.385964912,1047994.38596491,1000389.38596491,987087.385964912,1007889.38596491,1089712.38596491,1025655.38596491,894804.385964912,1068659.38596491,1151473.38596491,1072726.38596491,937449.385964912,1044471.38596491,998337.385964912,917311.385964912,571668.385964912,586861.385964912,586425.385964912,605783.385964912,789717.385964912,713008.385964912,607489.385964912,599312.385964912,452528.385964912,683627.385964912,699769.385964912,742086.385964912,754254.385964912,750912.385964912,745969.385964912,816286.385964912,775095.385964912,832695.385964912,757351.385964912,890196.385964912,779752.385964912,824815.385964912,742751.385964912,821489.385964912,546973.385964912,583773.385964912,721301.385964912,614303.385964912,683759.385964912,708477.385964912,727015.385964912,749504.385964912,707572.385964912,709988.385964912,835916.385964912,825621.385964912,783778.385964912,789890.385964912,686414.385964912,796002.385964912,840837.385964912,882156.385964912,836402.385964912,826171.385964912,816371.385964912,704831.385964912,858336.385964912,740763.385964912,505162.385964912,520877.385964912,577820.385964912,556861.385964912,595546.385964912,559723.385964912,575976.385964912,716189.385964912,564999.385964912,552874.385964912,604835.385964912,660335.385964912,654810.385964912,670013.385964912,574067.385964912,625220.385964912,657567.385964912,673689.385964912,690522.385964912,675102.385964912,682576.385964912,784964.385964912,737938.385964912,800533.385964912,292922.385964912,484548.385964912,589428.385964912,588121.385964912,638394.385964912,646774.385964912,664835.385964912,558134.385964912,684831.385964912,661864.385964912,701950.385964912,706270.385964912,661022.385964912,689851.385964912,611600.385964912,668203.385964912,642851.385964912,768984.385964912,691988.385964912,643419.385964912,687993.385964912,677473.385964912,686668.385964912,702835.385964912,326537.385964912,311163.385964912,441728.385964912,5834315.38596491,-41097.6140350876,62398.3859649124,-104588.614035088,84486.3859649124,-59551.6140350876,-24757.6140350876,-45896.6140350876,154097.385964912,-75504.6140350876,260947.385964912,-14419.6140350876,71123.3859649124,23003.3859649124,5211.38596491236,49590.3859649124,37686.3859649124,577642.385964912,544477.385964912,615115.385964912,683783.385964912,297842.385964912,396409.385964912,554582.385964912,-3785.61403508764,2667.38596491236,-3614.61403508764,-3089.61403508764,20303.3859649124,12806.3859649124,48430.3859649124,13091.3859649124,43209.3859649124,102708.385964912,3274.38596491236,4970.38596491236,63095.3859649124,36667.3859649124,75695.3859649124,76898.3859649124,111363.385964912,558250.385964912,531787.385964912,598877.385964912,623694.385964912,500411.385964912,421766.385964912,413580.385964912,-106206.614035088,-106554.614035088,-70201.6140350876,-98470.6140350876,-74776.6140350876,-75852.6140350876,66366.3859649124,-87418.6140350876,38175.3859649124,-104118.614035088,-82579.6140350876,-54931.6140350876,-50786.6140350876,-26236.6140350876,37247.3859649124,65346.3859649124,6829826.38596491,457121.385964912,496789.385964912,690233.385964912,683292.385964912,480940.385964912,409068.385964912,513306.385964912,17628.3859649124,-38811.6140350876,5050.38596491236,-30122.6140350876,-1553.61403508764,23133.3859649124,11279.3859649124,2507.38596491236,85467.3859649124,35665.3859649124,14992.3859649124,23809.3859649124,80292.3859649124,7709.38596491236,102148.385964912,80082.3859649124,68479.3859649124,551179.385964912,619165.385964912,541530.385964912,660141.385964912,354558.385964912,269481.385964912,260375.385964912,4878493.38596491,-85868.6140350876,9.3859649123624,-119690.614035088,24924.3859649124,-81411.6140350876,-20247.6140350876,-54510.6140350876,187202.385964912,28823.3859649124,291936.385964912,-32834.6140350876,15385.3859649124,9745.38596491236,30398.3859649124,6960.38596491236,44321.3859649124,516870.385964912,560622.385964912,566390.385964912,635983.385964912,431094.385964912,358954.385964912,376492.385964912,517783.385964912,559589.385964912,582277.385964912,622035.385964912,620608.385964912,728525.385964912,683711.385964912,672929.385964912,534352.385964912,603417.385964912,748433.385964912,606855.385964912,614934.385964912,668475.385964912,666084.385964912,679646.385964912,693722.385964912,689683.385964912,524534.385964912,670750.385964912,674426.385964912,489861.385964912,462870.385964912,440231.385964912,478196.385964912,466127.385964912,530204.385964912,523997.385964912,546227.385964912,539957.385964912,666432.385964912,596272.385964912,612147.385964912,568133.385964912,636321.385964912,576262.385964912,573875.385964912,635673.385964912,712844.385964912,637134.385964912,724067.385964912,641351.385964912,574173.385964912,694623.385964912,777688.385964912,644321.385964912,551208.385964912,575232.385964912,580381.385964912,585348.385964912,637219.385964912,640954.385964912,674623.385964912,664236.385964912,670353.385964912,747833.385964912,714911.385964912,654043.385964912,727085.385964912,656366.385964912,655456.385964912,834311.385964912,756126.385964912,779708.385964912,706362.385964912,624341.385964912,646524.385964912,743883.385964912,741211.385964912,417360.385964912,298375.385964912,370111.385964912,557229.385964912,541466.385964912,492183.385964912,647715.385964912,616908.385964912,661787.385964912,635293.385964912,666617.385964912,676441.385964912,647105.385964912,695305.385964912,657557.385964912,683294.385964912,627560.385964912,764633.385964912,734917.385964912,675409.385964912,727041.385964912,649569.385964912,726811.385964912,685543.385964912,535914.385964912,592854.385964912,493049.385964912,690788.385964912,706872.385964912,620608.385964912,724345.385964912,749833.385964912,902898.385964912,804163.385964912,816669.385964912,777091.385964912,722951.385964912,926682.385964912,854718.385964912,840278.385964912,856386.385964912,781147.385964912,819788.385964912,835589.385964912,829610.385964912,763212.385964912,784399.385964912,717653.385964912,555307.385964912,490108.385964912,570649.385964912,662503.385964912,653192.385964912,720394.385964912,578469.385964912,646041.385964912,732475.385964912,792952.385964912,871565.385964912,637599.385964912,595286.385964912,717978.385964912,791413.385964912,882295.385964912,793329.385964912,897244.385964912,800605.385964912,830412.385964912,747005.385964912,871005.385964912,879954.385964912,771947.385964912
9,00:45:11,37.0,790635.736842105,802375.736842105,835633.736842105,797632.736842105,973839.736842105,1056951.73684211,980535.736842105,714161.736842105,735875.736842105,977471.736842105,1041319.73684211,976165.736842105,1010307.73684211,966603.736842105,1121811.73684211,1042173.73684211,908973.736842105,1071433.73684211,1136242.73684211,1064709.73684211,955205.736842105,1027103.73684211,1005637.73684211,906215.736842105,591311.736842105,534408.736842105,550066.736842105,601735.736842105,825677.736842105,689536.736842105,577413.736842105,628784.736842105,430158.736842105,647357.736842105,673171.736842105,773009.736842105,758718.736842105,795437.736842105,692191.736842105,810318.736842105,775148.736842105,798010.736842105,695943.736842105,901634.736842105,731572.736842105,780729.736842105,760013.736842105,818971.736842105,543675.736842105,578523.736842105,707379.736842105,627233.736842105,714010.736842105,651938.736842105,719831.736842105,744236.736842105,677571.736842105,662648.736842105,791257.736842105,836547.736842105,730256.736842105,767421.736842105,648679.736842105,783984.736842105,842519.736842105,867751.736842105,797819.736842105,834417.736842105,776313.736842105,675918.736842105,811547.736842105,789278.736842105,487866.736842105,527969.736842105,530982.736842105,547650.736842105,568452.736842105,538275.736842105,530762.736842105,672333.736842105,564162.736842105,510852.736842105,611695.736842105,672705.736842105,621742.736842105,681831.736842105,576048.736842105,640209.736842105,645420.736842105,705906.736842105,687280.736842105,653330.736842105,628999.736842105,750929.736842105,649345.736842105,686748.736842105,274323.736842105,430447.736842105,518562.736842105,594274.736842105,669048.736842105,612498.736842105,624623.736842105,547781.736842105,651769.736842105,636381.736842105,699412.736842105,689608.736842105,664067.736842105,695147.736842105,628639.736842105,668654.736842105,627184.736842105,701274.736842105,603982.736842105,598727.736842105,677944.736842105,655711.736842105,679177.736842105,691424.736842105,301549.736842105,331738.736842105,424817.736842105,6780416.73684211,-82635.2631578948,68725.7368421052,-95032.2631578948,77776.7368421052,-52130.2631578948,-31389.2631578948,-55574.2631578948,176771.736842105,-56708.2631578948,269091.736842105,-28410.2631578948,41965.7368421052,51940.7368421052,51966.7368421052,68317.7368421052,85462.7368421052,548223.736842105,545313.736842105,607014.736842105,653824.736842105,317749.736842105,374741.736842105,584361.736842105,1743.73684210517,28359.7368421052,-11207.2631578948,9726.73684210517,40198.7368421052,28241.7368421052,42804.7368421052,-5812.26315789483,49645.7368421052,115238.736842105,4541.73684210517,26217.7368421052,47082.7368421052,40314.7368421052,69159.7368421052,67182.7368421052,82933.7368421052,546538.736842105,551025.736842105,601489.736842105,635032.736842105,477771.736842105,426113.736842105,386715.736842105,-94060.2631578948,-99133.2631578948,-92242.2631578948,-91851.2631578948,-108518.263157895,-73088.2631578948,71457.7368421052,-100994.263157895,59875.7368421052,-109598.263157895,-96343.2631578948,-53016.2631578948,-55065.2631578948,-20905.2631578948,67319.7368421052,16472.7368421052,7950174.73684211,448109.736842105,446603.736842105,646127.736842105,692388.736842105,464018.736842105,376723.736842105,530670.736842105,-5376.26315789483,1303.73684210517,-3976.26315789483,-32910.2631578948,17984.7368421052,43618.7368421052,8214.73684210517,3700.73684210517,71980.7368421052,31754.7368421052,33893.7368421052,28892.7368421052,67367.7368421052,13263.7368421052,81024.7368421052,50158.7368421052,65137.7368421052,558489.736842105,618851.736842105,537757.736842105,656431.736842105,341337.736842105,227509.736842105,198884.736842105,5761215.73684211,-93034.2631578948,11354.7368421052,-118699.263157895,22659.7368421052,-89018.2631578948,13704.7368421052,-45791.2631578948,206076.736842105,32965.7368421052,327545.736842105,-33724.2631578948,41430.7368421052,17239.7368421052,59293.7368421052,11517.7368421052,67182.7368421052,528329.736842105,502560.736842105,559857.736842105,625903.736842105,451741.736842105,386211.736842105,388128.736842105,458312.736842105,564034.736842105,585110.736842105,621188.736842105,589118.736842105,709267.736842105,655262.736842105,662946.736842105,478254.736842105,633743.736842105,725634.736842105,579006.736842105,580104.736842105,694755.736842105,615745.736842105,684161.736842105,692661.736842105,621285.736842105,502115.736842105,660432.736842105,634751.736842105,521216.736842105,475416.736842105,450197.736842105,465335.736842105,481862.736842105,513161.736842105,524760.736842105,563240.736842105,527321.736842105,661524.736842105,564157.736842105,604435.736842105,583048.736842105,577194.736842105,574482.736842105,577210.736842105,643482.736842105,665111.736842105,651230.736842105,705120.736842105,538690.736842105,580868.736842105,616703.736842105,656569.736842105,656288.736842105,535379.736842105,578489.736842105,589551.736842105,558431.736842105,600529.736842105,618975.736842105,699789.736842105,632900.736842105,668488.736842105,713505.736842105,704118.736842105,657517.736842105,745135.736842105,652489.736842105,630347.736842105,853029.736842105,776489.736842105,758892.736842105,697830.736842105,612351.736842105,604452.736842105,739822.736842105,711823.736842105,411333.736842105,305787.736842105,383982.736842105,503046.736842105,541612.736842105,493840.736842105,641175.736842105,616609.736842105,642359.736842105,617841.736842105,638914.736842105,642202.736842105,658944.736842105,669630.736842105,681156.736842105,657449.736842105,635606.736842105,744641.736842105,679922.736842105,699252.736842105,696062.736842105,643003.736842105,719107.736842105,714537.736842105,559524.736842105,602481.736842105,514819.736842105,704243.736842105,713439.736842105,632230.736842105,697156.736842105,723940.736842105,849874.736842105,794589.736842105,848983.736842105,808258.736842105,740637.736842105,929005.736842105,809475.736842105,838232.736842105,858772.736842105,806193.736842105,815288.736842105,806627.736842105,824921.736842105,766010.736842105,768703.736842105,707586.736842105,588735.736842105,510146.736842105,551635.736842105,678921.736842105,632366.736842105,721119.736842105,607994.736842105,634956.736842105,757073.736842105,813508.736842105,895694.736842105,608962.736842105,599414.736842105,748717.736842105,742268.736842105,846001.736842105,776126.736842105,860362.736842105,811086.736842105,832319.736842105,721896.736842105,850993.736842105,881245.736842105,750613.736842105
10,00:50:12,37.0,812574.526315789,819067.526315789,825887.526315789,835473.526315789,1004565.52631579,1078781.52631579,977673.526315789,709215.526315789,726657.526315789,1002435.52631579,1045783.52631579,956455.526315789,1006723.52631579,1027162.52631579,1123607.52631579,1025926.52631579,883411.526315789,1094717.52631579,1162636.52631579,1081169.52631579,938917.526315789,1039904.52631579,994821.526315789,900762.526315789,588433.526315789,561401.526315789,547177.526315789,545997.526315789,782109.526315789,673452.526315789,577108.526315789,618531.526315789,425419.526315789,654720.526315789,678092.526315789,767401.526315789,761030.526315789,798425.526315789,731408.526315789,827194.526315789,806337.526315789,809402.526315789,714880.526315789,887498.526315789,723960.526315789,805234.526315789,771647.526315789,842529.526315789,552507.526315789,594484.526315789,732108.526315789,610596.526315789,679864.526315789,648773.526315789,713597.526315789,726383.526315789,705640.526315789,676529.526315789,828902.526315789,827352.526315789,794141.526315789,783220.526315789,658733.526315789,788923.526315789,842824.526315789,895202.526315789,827785.526315789,851690.526315789,836717.526315789,713663.526315789,748929.526315789,750550.526315789,492661.526315789,524717.526315789,544832.526315789,549080.526315789,556154.526315789,548576.526315789,579439.526315789,690406.526315789,561969.526315789,533602.526315789,604441.526315789,645253.526315789,642153.526315789,658456.526315789,583686.526315789,601692.526315789,661765.526315789,685556.526315789,680517.526315789,644760.526315789,646976.526315789,756407.526315789,671419.526315789,711915.526315789,294365.526315789,436529.526315789,548697.526315789,564777.526315789,648327.526315789,622553.526315789,633817.526315789,531192.526315789,659433.526315789,590315.526315789,700692.526315789,720965.526315789,658569.526315789,697847.526315789,656029.526315789,650082.526315789,654370.526315789,714757.526315789,628063.526315789,643436.526315789,720375.526315789,655494.526315789,665988.526315789,662140.526315789,279673.526315789,352978.526315789,425181.526315789,7490728.52631579,-85013.4736842106,11679.5263157894,-92816.4736842106,102101.526315789,-71620.4736842106,-79147.4736842106,-71650.4736842106,191294.526315789,-82365.4736842106,285202.526315789,-40479.4736842106,19670.5263157894,27405.5263157894,42597.5263157894,34537.5263157894,71238.5263157894,577554.526315789,543786.526315789,583418.526315789,637684.526315789,320201.526315789,389358.526315789,580086.526315789,-5403.47368421056,53554.5263157894,-6290.47368421056,20043.5263157894,12726.5263157894,54597.5263157894,57044.5263157894,1961.52631578944,65549.5263157894,118079.526315789,5646.52631578944,35327.5263157894,67083.5263157894,49937.5263157894,74131.5263157894,72034.5263157894,70141.5263157894,529392.526315789,535998.526315789,623564.526315789,618181.526315789,505208.526315789,424537.526315789,418309.526315789,-90254.4736842106,-127088.473684211,-66481.4736842106,-100841.473684211,-94128.4736842106,-70179.4736842106,90034.5263157894,-82788.4736842106,44181.5263157894,-98861.4736842106,-82003.4736842106,-63220.4736842106,-44860.4736842106,-48311.4736842106,44647.5263157894,36237.5263157894,8887264.52631579,446127.526315789,482532.526315789,684017.526315789,715462.526315789,497066.526315789,361258.526315789,517933.526315789,8019.52631578944,-24064.4736842106,-206.473684210563,-9785.47368421056,3402.52631578944,39058.5263157894,10373.5263157894,3175.52631578944,79627.5263157894,44254.5263157894,38429.5263157894,15570.5263157894,68976.5263157894,13613.5263157894,86422.5263157894,58764.5263157894,75034.5263157894,559499.526315789,605208.526315789,555571.526315789,655191.526315789,306773.526315789,251137.526315789,227827.526315789,6526425.52631579,-80122.4736842106,17061.5263157894,-104187.473684211,24143.5263157894,-103213.473684211,20159.5263157894,-39126.4736842106,225245.526315789,26939.5263157894,309387.526315789,-30184.4736842106,38425.5263157894,10118.5263157894,31344.5263157894,-460.473684210563,23049.5263157894,516668.526315789,545717.526315789,565090.526315789,658342.526315789,378763.526315789,368198.526315789,415823.526315789,447128.526315789,563159.526315789,556664.526315789,620571.526315789,624574.526315789,740525.526315789,673356.526315789,669229.526315789,512225.526315789,616169.526315789,711680.526315789,590232.526315789,641495.526315789,676296.526315789,685812.526315789,721127.526315789,658081.526315789,627247.526315789,487023.526315789,572959.526315789,651598.526315789,512255.526315789,474262.526315789,441677.526315789,482369.526315789,513433.526315789,501298.526315789,561765.526315789,558938.526315789,529638.526315789,684903.526315789,619231.526315789,600243.526315789,568513.526315789,601293.526315789,563879.526315789,598095.526315789,569476.526315789,706969.526315789,610805.526315789,672167.526315789,543371.526315789,578270.526315789,617011.526315789,698679.526315789,621617.526315789,559369.526315789,563539.526315789,605046.526315789,583385.526315789,633652.526315789,637083.526315789,661157.526315789,642592.526315789,656236.526315789,743987.526315789,704170.526315789,665775.526315789,720731.526315789,651736.526315789,667410.526315789,839949.526315789,751933.526315789,773336.526315789,726563.526315789,627199.526315789,634827.526315789,674523.526315789,707968.526315789,395230.526315789,321860.526315789,409977.526315789,554252.526315789,545610.526315789,476522.526315789,605356.526315789,601508.526315789,666524.526315789,604975.526315789,650172.526315789,655096.526315789,622612.526315789,674243.526315789,698338.526315789,660573.526315789,651524.526315789,722571.526315789,704428.526315789,675969.526315789,693233.526315789,612861.526315789,713907.526315789,695783.526315789,534820.526315789,573185.526315789,517700.526315789,697012.526315789,703007.526315789,636898.526315789,688636.526315789,720084.526315789,900296.526315789,801013.526315789,862108.526315789,795202.526315789,731767.526315789,955560.526315789,841144.526315789,823103.526315789,879803.526315789,707923.526315789,779095.526315789,840293.526315789,849275.526315789,694653.526315789,749790.526315789,703283.526315789,570494.526315789,502718.526315789,547695.526315789,641289.526315789,652907.526315789,722105.526315789,605275.526315789,648264.526315789,728170.526315789,812422.526315789,918805.526315789,629229.526315789,612720.526315789,726940.526315789,807789.526315789,846668.526315789,757648.526315789,901035.526315789,812996.526315789,827878.526315789,738120.526315789,842806.526315789,880651.526315789,746744.526315789
11,00:55:14,37.0,775294.596491228,854398.596491228,837691.596491228,827198.596491228,1027337.59649123,1069272.59649123,983163.596491228,653109.596491228,730974.596491228,1002048.59649123,1034876.59649123,948051.596491228,981507.596491228,1010710.59649123,1156902.59649123,1040594.59649123,897696.596491228,1051376.59649123,1163302.59649123,1058034.59649123,957139.596491228,939463.596491228,996874.596491228,888940.596491228,582882.596491228,532890.596491228,571446.596491228,560945.596491228,804824.596491228,667626.596491228,555694.596491228,571746.596491228,439971.596491228,667458.596491228,668159.596491228,775077.596491228,782898.596491228,816392.596491228,705603.596491228,825691.596491228,790984.596491228,840602.596491228,755333.596491228,892596.596491228,722186.596491228,808231.596491228,765751.596491228,838518.596491228,542473.596491228,602090.596491228,677306.596491228,615012.596491228,733089.596491228,658000.596491228,730773.596491228,731474.596491228,692622.596491228,692272.596491228,849552.596491228,796661.596491228,781338.596491228,773764.596491228,715663.596491228,796588.596491228,827376.596491228,886878.596491228,861390.596491228,826334.596491228,835789.596491228,739097.596491228,764644.596491228,812709.596491228,481796.596491228,550743.596491228,567064.596491228,544545.596491228,562294.596491228,562695.596491228,580832.596491228,695609.596491228,536209.596491228,554374.596491228,622894.596491228,657538.596491228,635432.596491228,703407.596491228,573628.596491228,642929.596491228,649039.596491228,662600.596491228,688537.596491228,696476.596491228,622563.596491228,754428.596491228,675694.596491228,725709.596491228,278514.596491228,445615.596491228,557479.596491228,560229.596491228,686833.596491228,618030.596491228,611358.596491228,548514.596491228,674084.596491228,641170.596491228,709268.596491228,688608.596491228,694373.596491228,683868.596491228,663162.596491228,667783.596491228,629897.596491228,719443.596491228,621106.596491228,649087.596491228,674556.596491228,667878.596491228,705929.596491228,687510.596491228,331999.596491228,311532.596491228,421695.596491228,8270105.59649123,-73282.4035087719,34053.5964912281,-80920.4035087719,110538.596491228,-78411.4035087719,-75920.4035087719,-68330.4035087719,186449.596491228,-82669.4035087719,299917.596491228,-26290.4035087719,59962.5964912281,52335.5964912281,43008.5964912281,42030.5964912281,84080.5964912281,560616.596491228,560470.596491228,601538.596491228,669824.596491228,316974.596491228,344300.596491228,565949.596491228,-16531.4035087719,41636.5964912281,-1975.40350877191,18125.5964912281,33658.5964912281,47580.5964912281,66307.5964912281,776.596491228091,38227.5964912281,113768.596491228,18360.5964912281,51191.5964912281,53920.5964912281,56088.5964912281,45620.5964912281,81116.5964912281,71828.5964912281,558356.596491228,558028.596491228,616672.596491228,685783.596491228,490007.596491228,417155.596491228,432665.596491228,-80392.4035087719,-135678.403508772,-51413.4035087719,-117606.403508772,-102337.403508772,-72030.4035087719,91863.5964912281,-99115.4035087719,57042.5964912281,-89430.4035087719,-77932.4035087719,-33635.4035087719,-40790.4035087719,-47901.4035087719,72410.5964912281,20224.5964912281,9845893.59649123,461454.596491228,481894.596491228,684848.596491228,746987.596491228,456678.596491228,393318.596491228,519699.596491228,13857.5964912281,-23223.4035087719,-22219.4035087719,-5616.40350877191,9914.59649122809,74518.5964912281,1780.59649122809,10104.5964912281,53692.5964912281,51359.5964912281,45620.5964912281,-130.403508771909,55738.5964912281,3600.59649122809,87695.5964912281,62411.5964912281,74489.5964912281,554089.596491228,625258.596491228,566312.596491228,659569.596491228,337774.596491228,232755.596491228,203655.596491228,7141449.59649123,-113526.403508772,41303.5964912281,-98966.4035087719,-1828.40350877191,-85742.4035087719,-25707.4035087719,-46341.4035087719,260153.596491228,32910.5964912281,339640.596491228,-31214.4035087719,50889.5964912281,20294.5964912281,36898.5964912281,23676.5964912281,69386.5964912281,533640.596491228,532356.596491228,552744.596491228,657888.596491228,425262.596491228,361980.596491228,396461.596491228,464682.596491228,559098.596491228,589415.596491228,608740.596491228,627047.596491228,734087.596491228,668692.596491228,667969.596491228,476212.596491228,634517.596491228,670471.596491228,604603.596491228,584730.596491228,678592.596491228,681884.596491228,711973.596491228,679574.596491228,627544.596491228,546374.596491228,610173.596491228,667178.596491228,528702.596491228,450637.596491228,439137.596491228,480037.596491228,480449.596491228,507518.596491228,528456.596491228,555358.596491228,535703.596491228,668648.596491228,559107.596491228,629995.596491228,545855.596491228,609737.596491228,584147.596491228,584264.596491228,603471.596491228,674273.596491228,611008.596491228,710460.596491228,545000.596491228,600987.596491228,639918.596491228,687931.596491228,648167.596491228,577856.596491228,603707.596491228,604708.596491228,554598.596491228,634916.596491228,701168.596491228,698507.596491228,647844.596491228,676746.596491228,742592.596491228,722504.596491228,699813.596491228,750330.596491228,672430.596491228,652609.596491228,870069.596491228,750536.596491228,810650.596491228,723250.596491228,605087.596491228,616856.596491228,696287.596491228,715028.596491228,399537.596491228,317366.596491228,412545.596491228,571746.596491228,547190.596491228,513988.596491228,640012.596491228,635907.596491228,679994.596491228,655039.596491228,635227.596491228,668067.596491228,665055.596491228,660525.596491228,647501.596491228,672663.596491228,644185.596491228,724158.596491228,723717.596491228,666941.596491228,698320.596491228,641959.596491228,712800.596491228,707765.596491228,555461.596491228,589430.596491228,528296.596491228,685992.596491228,751626.596491228,639536.596491228,704553.596491228,735488.596491228,873721.596491228,789103.596491228,868584.596491228,812358.596491228,749469.596491228,938371.596491228,837842.596491228,881468.596491228,871470.596491228,720915.596491228,835122.596491228,839991.596491228,859212.596491228,694559.596491228,733333.596491228,710548.596491228,606852.596491228,500094.596491228,558168.596491228,669818.596491228,655856.596491228,746478.596491228,624656.596491228,610303.596491228,741943.596491228,806872.596491228,911125.596491228,653968.596491228,592516.596491228,781818.596491228,788194.596491228,876954.596491228,776595.596491228,903342.596491228,847333.596491228,838926.596491228,780433.596491228,874999.596491228,888040.596491228,805852.596491228
12,01:00:15,37.0,759936.666666667,819861.666666667,797134.666666667,748028.666666667,998845.666666667,1020554.66666667,937278.666666667,650959.666666667,710040.666666667,963887.666666667,1024467.66666667,875288.666666667,950141.666666667,992841.666666667,1012988.66666667,979099.666666667,856220.666666667,1030638.66666667,1131636.66666667,1040187.66666667,904700.666666667,899385.666666667,962871.666666667,868313.666666667,507991.666666667,563354.666666667,519102.666666667,527871.666666667,752183.666666667,665934.666666667,575038.666666667,509735.666666667,420944.666666667,647804.666666667,626299.666666667,766427.666666667,743087.666666667,768573.666666667,651960.666666667,766175.666666667,754908.666666667,767410.666666667,704428.666666667,857511.666666667,680776.666666667,761413.666666667,729867.666666667,767180.666666667,524392.666666667,541870.666666667,644881.666666667,612565.666666667,673057.666666667,615292.666666667,688485.666666667,698610.666666667,673357.666666667,694078.666666667,790568.666666667,742413.666666667,744763.666666667,760842.666666667,634260.666666667,758889.666666667,789682.666666667,836582.666666667,778018.666666667,787399.666666667,791695.666666667,696432.666666667,732289.666666667,708786.666666667,461174.666666667,486065.666666667,518101.666666667,522994.666666667,507286.666666667,535707.666666667,527754.666666667,670257.666666667,504215.666666667,517071.666666667,602488.666666667,638831.666666667,587832.666666667,657460.666666667,568443.666666667,594359.666666667,607621.666666667,661268.666666667,612056.666666667,642005.666666667,587587.666666667,684034.666666667,580579.666666667,679699.666666667,244524.666666667,423161.666666667,520817.666666667,538215.666666667,628956.666666667,599338.666666667,620412.666666667,495327.666666667,640841.666666667,599426.666666667,704359.666666667,650515.666666667,634974.666666667,658323.666666667,645760.666666667,612674.666666667,582559.666666667,687699.666666667,601688.666666667,594863.666666667,655881.666666667,606792.666666667,641539.666666667,627198.666666667,285612.666666667,250685.666666667,422568.666666667,9056925.66666667,-92782.3333333333,35046.6666666667,-96883.3333333333,118351.666666667,-82018.3333333333,-64582.3333333333,-51104.3333333333,206190.666666667,-60474.3333333333,306701.666666667,-46150.3333333333,26241.6666666667,20636.6666666667,40179.6666666667,19286.6666666667,52687.6666666667,529687.666666667,518312.666666667,561211.666666667,599876.666666667,304880.666666667,358422.666666667,570729.666666667,-5858.33333333326,60728.6666666667,8771.66666666674,24927.6666666667,33322.6666666667,43014.6666666667,57779.6666666667,19259.6666666667,28538.6666666667,118755.666666667,4743.66666666674,10830.6666666667,44834.6666666667,56082.6666666667,69586.6666666667,69888.6666666667,58477.6666666667,491880.666666667,518218.666666667,589926.666666667,617777.666666667,454726.666666667,397512.666666667,396234.666666667,-74582.3333333333,-106026.333333333,-100374.333333333,-100333.333333333,-83829.3333333333,-74335.3333333333,84556.6666666667,-106370.333333333,57476.6666666667,-116824.333333333,-64482.3333333333,-40392.3333333333,-64524.3333333333,-43244.3333333333,23774.6666666667,31522.6666666667,10546258.6666667,439667.666666667,470263.666666667,664115.666666667,669347.666666667,420783.666666667,385469.666666667,450728.666666667,22924.6666666667,-2182.33333333326,-4638.33333333326,-614.333333333256,-13282.3333333333,66983.6666666667,29907.6666666667,6546.66666666674,53733.6666666667,83255.6666666667,20369.6666666667,3886.66666666674,75700.6666666667,4875.66666666674,56895.6666666667,46764.6666666667,56944.6666666667,528157.666666667,598831.666666667,539394.666666667,653505.666666667,311646.666666667,183037.666666667,179368.666666667,7831484.66666667,-51737.3333333333,31864.6666666667,-102228.333333333,24498.6666666667,-91695.3333333333,-15358.3333333333,-32555.3333333333,259668.666666667,20940.6666666667,354957.666666667,-4712.33333333326,35841.6666666667,-4276.33333333326,38023.6666666667,-6019.33333333326,19214.6666666667,514108.666666667,481557.666666667,516241.666666667,620817.666666667,396750.666666667,364239.666666667,343132.666666667,437697.666666667,512255.666666667,519816.666666667,592357.666666667,559189.666666667,727194.666666667,644015.666666667,627877.666666667,470254.666666667,583309.666666667,634360.666666667,556058.666666667,548223.666666667,646458.666666667,665603.666666667,623244.666666667,630439.666666667,577171.666666667,509139.666666667,572351.666666667,639828.666666667,499139.666666667,408733.666666667,386643.666666667,464482.666666667,401234.666666667,474193.666666667,523156.666666667,543518.666666667,468728.666666667,634344.666666667,558098.666666667,559790.666666667,518853.666666667,572002.666666667,540135.666666667,558796.666666667,557284.666666667,665070.666666667,557369.666666667,589177.666666667,514977.666666667,550474.666666667,596857.666666667,652484.666666667,599769.666666667,519197.666666667,571026.666666667,573509.666666667,571211.666666667,607584.666666667,595006.666666667,656663.666666667,615283.666666667,612077.666666667,705343.666666667,621100.666666667,631484.666666667,691410.666666667,667311.666666667,642370.666666667,820041.666666667,709441.666666667,744807.666666667,687755.666666667,590546.666666667,608494.666666667,615835.666666667,651460.666666667,407163.666666667,307063.666666667,320909.666666667,522325.666666667,521861.666666667,473900.666666667,606633.666666667,587044.666666667,651891.666666667,589486.666666667,601697.666666667,633231.666666667,653885.666666667,643284.666666667,629691.666666667,653420.666666667,613589.666666667,698485.666666667,681076.666666667,657294.666666667,609416.666666667,617306.666666667,668072.666666667,677448.666666667,531046.666666667,529892.666666667,489162.666666667,668365.666666667,691217.666666667,623275.666666667,698177.666666667,686291.666666667,825553.666666667,765077.666666667,770241.666666667,793136.666666667,720005.666666667,906512.666666667,807679.666666667,802487.666666667,830453.666666667,695276.666666667,781170.666666667,775425.666666667,785224.666666667,660712.666666667,723775.666666667,682209.666666667,568565.666666667,506854.666666667,504365.666666667,643200.666666667,625155.666666667,701605.666666667,574252.666666667,613945.666666667,713400.666666667,784034.666666667,845958.666666667,599967.666666667,556639.666666667,693880.666666667,743597.666666667,818077.666666667,748669.666666667,845683.666666667,758698.666666667,797252.666666667,698362.666666667,836815.666666667,819882.666666667,729051.666666667
13,01:05:16,37.0,745764.228070176,823931.228070176,782641.228070176,716179.228070176,964252.228070176,979060.228070176,948936.228070176,662675.228070176,587448.228070176,979389.228070176,1031243.22807018,873139.228070176,941369.228070176,952706.228070176,1039247.22807018,963616.228070176,872192.228070176,1064757.22807018,1115097.22807018,1039972.22807018,909665.228070176,873024.228070176,954298.228070176,886845.228070176,501516.228070176,505347.228070176,523501.228070176,527323.228070176,723851.228070176,631513.228070176,564863.228070176,520539.228070176,409627.228070176,635834.228070176,617866.228070176,750572.228070176,732811.228070176,737885.228070176,644761.228070176,799449.228070176,773781.228070176,783307.228070176,670351.228070176,773341.228070176,697868.228070176,775981.228070176,755631.228070176,790637.228070176,516447.228070176,585959.228070176,621185.228070176,596926.228070176,703847.228070176,608499.228070176,701709.228070176,649433.228070176,671613.228070176,664464.228070176,774059.228070176,764605.228070176,748453.228070176,776262.228070176,626775.228070176,762095.228070176,786575.228070176,874828.228070176,806403.228070176,809326.228070176,772726.228070176,648418.228070176,751384.228070176,751546.228070176,436432.228070176,509713.228070176,515180.228070176,536647.228070176,485452.228070176,512737.228070176,499826.228070176,684268.228070176,497267.228070176,505812.228070176,599105.228070176,648051.228070176,609241.228070176,618033.228070176,576160.228070176,609437.228070176,600464.228070176,649233.228070176,612260.228070176,597364.228070176,606441.228070176,676452.228070176,630978.228070176,691815.228070176,246972.228070176,436741.228070176,520464.228070176,551536.228070176,622516.228070176,589502.228070176,628602.228070176,509379.228070176,656098.228070176,575242.228070176,671691.228070176,635285.228070176,642184.228070176,659271.228070176,622171.228070176,621473.228070176,585417.228070176,695431.228070176,604740.228070176,603372.228070176,579678.228070176,632227.228070176,652889.228070176,666129.228070176,287417.228070176,270442.228070176,428349.228070176,9690459.22807018,-90799.7719298245,46210.2280701755,-110709.771929824,143361.228070176,-68166.7719298245,-76226.7719298245,-55000.7719298245,199162.228070176,-59268.7719298245,330538.228070176,-9748.77192982449,30513.2280701755,41788.2280701755,44158.2280701755,22698.2280701755,90683.2280701755,492407.228070176,528127.228070176,582209.228070176,652501.228070176,302433.228070176,371058.228070176,542406.228070176,9479.22807017551,23503.2280701755,5887.22807017551,18513.2280701755,33760.2280701755,47156.2280701755,57689.2280701755,14588.2280701755,54832.2280701755,74243.2280701755,16519.2280701755,54250.2280701755,65967.2280701755,53856.2280701755,62898.2280701755,54205.2280701755,82659.2280701755,535939.228070176,530937.228070176,572117.228070176,615064.228070176,463819.228070176,374275.228070176,366021.228070176,-78340.7719298245,-128408.771929824,-95099.7719298245,-92624.7719298245,-114194.771929824,-90335.7719298245,100187.228070176,-91421.7719298245,55761.2280701755,-90369.7719298245,-79180.7719298245,-52221.7719298245,-57166.7719298245,-28124.7719298245,25961.2280701755,37700.2280701755,11626984.2280702,484079.228070176,478384.228070176,653989.228070176,718091.228070176,417664.228070176,363149.228070176,473502.228070176,-113.771929824492,-15472.7719298245,-8382.77192982449,-10547.7719298245,-26747.7719298245,36021.2280701755,973.228070175508,16055.2280701755,53761.2280701755,60643.2280701755,57019.2280701755,29984.2280701755,69873.2280701755,6435.22807017551,59876.2280701755,48717.2280701755,60389.2280701755,545278.228070176,596002.228070176,535939.228070176,627010.228070176,293982.228070176,175578.228070176,182801.228070176,8441340.22807018,-112912.771929824,51278.2280701755,-98312.7719298245,30010.2280701755,-93478.7719298245,1670.22807017551,-45555.7719298245,220024.228070176,38701.2280701755,330149.228070176,-26944.7719298245,42258.2280701755,35027.2280701755,43208.2280701755,-754.771929824492,5389.22807017551,484018.228070176,495377.228070176,536917.228070176,618999.228070176,336605.228070176,359426.228070176,387350.228070176,442957.228070176,532191.228070176,510178.228070176,595926.228070176,569697.228070176,683657.228070176,641868.228070176,644195.228070176,474933.228070176,597374.228070176,637214.228070176,570319.228070176,575077.228070176,662559.228070176,633956.228070176,621422.228070176,654134.228070176,596416.228070176,530454.228070176,571238.228070176,628673.228070176,482649.228070176,411369.228070176,385208.228070176,458819.228070176,416370.228070176,501146.228070176,486603.228070176,541397.228070176,468123.228070176,648631.228070176,555820.228070176,591298.228070176,536279.228070176,591363.228070176,542865.228070176,557977.228070176,590018.228070176,651507.228070176,585507.228070176,580168.228070176,520493.228070176,549527.228070176,596447.228070176,629446.228070176,605195.228070176,509394.228070176,564432.228070176,587653.228070176,553293.228070176,623036.228070176,616141.228070176,673030.228070176,617319.228070176,621473.228070176,660533.228070176,633059.228070176,633591.228070176,697997.228070176,620678.228070176,645524.228070176,819641.228070176,734765.228070176,753729.228070176,682386.228070176,613713.228070176,599943.228070176,646255.228070176,687650.228070176,390729.228070176,301438.228070176,331721.228070176,548810.228070176,531250.228070176,495386.228070176,572790.228070176,569185.228070176,612520.228070176,613101.228070176,581992.228070176,637181.228070176,637829.228070176,644626.228070176,652635.228070176,671131.228070176,621376.228070176,698928.228070176,674097.228070176,656595.228070176,596029.228070176,619874.228070176,680710.228070176,679644.228070176,456711.228070176,560411.228070176,454643.228070176,691241.228070176,714331.228070176,627790.228070176,672651.228070176,704560.228070176,818739.228070176,784552.228070176,829257.228070176,801387.228070176,690373.228070176,890755.228070176,797487.228070176,800833.228070176,842896.228070176,682531.228070176,800528.228070176,784310.228070176,794943.228070176,722758.228070176,725550.228070176,685042.228070176,559002.228070176,521428.228070176,504286.228070176,633509.228070176,667341.228070176,707590.228070176,587446.228070176,605526.228070176,719594.228070176,772253.228070176,774160.228070176,590121.228070176,586981.228070176,688765.228070176,759131.228070176,847264.228070176,753404.228070176,861197.228070176,788249.228070176,812178.228070176,696669.228070176,778195.228070176,842776.228070176,730621.228070176
14,01:10:17,37.0,774008.578947368,773393.578947368,793554.578947368,737648.578947368,971754.578947368,962538.578947368,939773.578947368,646010.578947368,582947.578947368,834909.578947368,1006829.57894737,886870.578947368,926664.578947368,959307.578947368,1008564.57894737,961401.578947368,893998.578947368,1032304.57894737,1128037.57894737,1007706.57894737,884693.578947368,880270.578947368,944833.578947368,871974.578947368,471565.578947368,524594.578947368,522463.578947368,506644.578947368,682892.578947368,637759.578947368,530167.578947368,494351.578947368,426042.578947368,613181.578947368,575661.578947368,733332.578947368,730564.578947368,712552.578947368,656571.578947368,771823.578947368,767912.578947368,764750.578947368,673362.578947368,786914.578947368,710686.578947368,774694.578947368,721718.578947368,754995.578947368,507424.578947368,593771.578947368,621153.578947368,559707.578947368,677318.578947368,616150.578947368,706872.578947368,678346.578947368,652218.578947368,651851.578947368,798774.578947368,706993.578947368,729726.578947368,721840.578947368,636031.578947368,745061.578947368,810804.578947368,828548.578947368,769954.578947368,796668.578947368,729447.578947368,650804.578947368,736566.578947368,727470.578947368,411970.578947368,483476.578947368,524594.578947368,545221.578947368,514290.578947368,521678.578947368,506048.578947368,648045.578947368,507545.578947368,493188.578947368,565054.578947368,599013.578947368,578505.578947368,609262.578947368,524057.578947368,585639.578947368,591066.578947368,653395.578947368,604740.578947368,578233.578947368,602624.578947368,656974.578947368,586660.578947368,669177.578947368,230808.578947368,399471.578947368,517470.578947368,526543.578947368,596095.578947368,533809.578947368,610986.578947368,516702.578947368,590718.578947368,517329.578947368,675864.578947368,634103.578947368,630730.578947368,620878.578947368,616059.578947368,603228.578947368,542968.578947368,681913.578947368,575585.578947368,584320.578947368,587577.578947368,655672.578947368,624833.578947368,636995.578947368,248655.578947368,241449.578947368,412610.578947368,10419363.5789474,-88449.4210526317,35120.5789473683,-88409.4210526317,133402.578947368,-45920.4210526317,-60717.4210526317,-73887.4210526317,181466.578947368,-54643.4210526317,323839.578947368,-8666.42105263169,50452.5789473683,19774.5789473683,5104.57894736831,28463.5789473683,78693.5789473683,507575.578947368,530561.578947368,539949.578947368,590308.578947368,298996.578947368,359926.578947368,557444.578947368,-4830.42105263169,56073.5789473683,-15115.4210526317,-7373.42105263169,43525.5789473683,50241.5789473683,37740.5789473683,18174.5789473683,37230.5789473683,76089.5789473683,-20633.4210526317,32511.5789473683,69999.5789473683,40606.5789473683,48037.5789473683,46966.5789473683,57333.5789473683,506622.578947368,497552.578947368,562548.578947368,619134.578947368,457956.578947368,372270.578947368,373605.578947368,-67190.4210526317,-108233.421052632,-75082.4210526317,-77994.4210526317,-100414.421052632,-72560.4210526317,101376.578947368,-106951.421052632,70232.5789473683,-97116.4210526317,-84206.4210526317,-43268.4210526317,-38259.4210526317,-19199.4210526317,39143.5789473683,36940.5789473683,12235405.5789474,437032.578947368,438200.578947368,636961.578947368,704625.578947368,447064.578947368,373010.578947368,444894.578947368,13809.5789473683,-26637.4210526317,-11208.4210526317,-6211.42105263169,9537.57894736831,41362.5789473683,3489.57894736831,21007.5789473683,77344.5789473683,80320.5789473683,46107.5789473683,20802.5789473683,78668.5789473683,7135.57894736831,71371.5789473683,60376.5789473683,52199.5789473683,549461.578947368,600837.578947368,534344.578947368,622572.578947368,273992.578947368,177748.578947368,184139.578947368,9084057.57894737,-85743.4210526317,42646.5789473683,-92707.4210526317,17272.5789473683,-77173.4210526317,-13430.4210526317,-66842.4210526317,247175.578947368,15867.5789473683,379649.578947368,-39657.4210526317,44182.5789473683,40322.5789473683,47805.5789473683,20846.5789473683,-3466.42105263169,466448.578947368,500719.578947368,543367.578947368,607094.578947368,316215.578947368,324570.578947368,352779.578947368,414823.578947368,528619.578947368,507110.578947368,596533.578947368,548730.578947368,710763.578947368,645718.578947368,628602.578947368,479118.578947368,573375.578947368,620362.578947368,587861.578947368,549491.578947368,660558.578947368,608317.578947368,595770.578947368,674546.578947368,570817.578947368,520220.578947368,575160.578947368,638258.578947368,461552.578947368,412609.578947368,395753.578947368,469695.578947368,402670.578947368,499686.578947368,511266.578947368,534353.578947368,457022.578947368,630167.578947368,526320.578947368,572241.578947368,539586.578947368,589257.578947368,563246.578947368,583196.578947368,586931.578947368,655556.578947368,596301.578947368,593858.578947368,500589.578947368,523348.578947368,588160.578947368,641783.578947368,621579.578947368,491776.578947368,546541.578947368,550136.578947368,537468.578947368,591429.578947368,620312.578947368,658164.578947368,617288.578947368,635682.578947368,686963.578947368,644887.578947368,620529.578947368,691664.578947368,638623.578947368,570363.578947368,820112.578947368,723586.578947368,727866.578947368,614067.578947368,590988.578947368,587822.578947368,647778.578947368,673364.578947368,393428.578947368,280170.578947368,336531.578947368,502477.578947368,528584.578947368,481616.578947368,578404.578947368,558689.578947368,627077.578947368,578933.578947368,623437.578947368,627790.578947368,650037.578947368,624053.578947368,624701.578947368,659193.578947368,604349.578947368,704629.578947368,682126.578947368,663582.578947368,631378.578947368,628835.578947368,704873.578947368,678715.578947368,453517.578947368,539688.578947368,471514.578947368,693375.578947368,711763.578947368,598045.578947368,656701.578947368,697672.578947368,829130.578947368,759276.578947368,814600.578947368,779719.578947368,709324.578947368,903954.578947368,794984.578947368,800961.578947368,841677.578947368,705766.578947368,783960.578947368,790984.578947368,765184.578947368,671173.578947368,717070.578947368,683638.578947368,571166.578947368,476085.578947368,498722.578947368,648142.578947368,609451.578947368,703138.578947368,585445.578947368,585910.578947368,690994.578947368,762458.578947368,808435.578947368,594129.578947368,590213.578947368,693697.578947368,767202.578947368,809947.578947368,751432.578947368,886850.578947368,794269.578947368,804624.578947368,715671.578947368,752275.578947368,839737.578947368,746556.578947368
